<?xml version='1.0' encoding='utf-8'?>
<map version="1.5" tiledversion="1.7.2" orientation="orthogonal" renderorder="right-down" width="10" height="9" tilewidth="16" tileheight="16" infinite="0" nextlayerid="2" nextobjectid="1"><tileset firstgid="1" name="Fields" tilewidth="16" tileheight="16" tilecount="1024" columns="32"><image source="../../../../Tilesets/Fields.png" width="512" height="512" /></tileset><layer id="1" name="Main" width="10" height="9"><data>
  <tile gid="387" />
  <tile gid="614" />
  <tile gid="386" />
  <tile />
  <tile />
  <tile />
  <tile />
  <tile />
  <tile />
  <tile />
  <tile gid="495" />
  <tile gid="780" />
  <tile gid="748" />
  <tile gid="720" />
  <tile />
  <tile />
  <tile gid="776" />
  <tile gid="777" />
  <tile gid="778" />
  <tile />
  <tile />
  <tile />
  <tile />
  <tile />
  <tile />
  <tile gid="750" />
  <tile gid="751" />
  <tile />
  <tile />
  <tile />
  <tile gid="750" />
  <tile gid="751" />
  <tile gid="592" />
  <tile gid="578" />
  <tile gid="713" />
  <tile gid="559" />
  <tile />
  <tile />
  <tile />
  <tile />
  <tile gid="425" />
  <tile gid="614" />
  <tile gid="420" />
  <tile gid="387" />
  <tile gid="561" />
  <tile />
  <tile />
  <tile />
  <tile />
  <tile />
  <tile gid="492" />
  <tile gid="615" />
  <tile gid="617" />
  <tile gid="561" />
  <tile />
  <tile />
  <tile />
  <tile />
  <tile />
  <tile />
  <tile gid="524" />
  <tile gid="454" />
  <tile gid="781" />
  <tile />
  <tile />
  <tile />
  <tile />
  <tile />
  <tile />
  <tile />
  <tile gid="560" />
  <tile gid="590" />
  <tile />
  <tile />
  <tile />
  <tile />
  <tile />
  <tile />
  <tile />
  <tile />
  <tile />
  <tile />
  <tile />
  <tile />
  <tile />
  <tile />
  <tile />
  <tile />
  <tile />
  <tile />
  </data></layer></map>