<?xml version='1.0' encoding='utf-8'?>
<map version="1.5" tiledversion="1.7.2" orientation="orthogonal" renderorder="right-down" width="7" height="8" tilewidth="16" tileheight="16" infinite="0" nextlayerid="2" nextobjectid="1"><tileset firstgid="1" name="Fields" tilewidth="16" tileheight="16" tilecount="1024" columns="32"><image source="../../../../Tilesets/Fields.png" width="512" height="512" /></tileset><layer id="1" name="Main" width="7" height="8"><data>
  <tile />
  <tile />
  <tile />
  <tile />
  <tile />
  <tile />
  <tile />
  <tile />
  <tile />
  <tile />
  <tile gid="744" />
  <tile gid="777" />
  <tile gid="778" />
  <tile />
  <tile />
  <tile />
  <tile gid="353" />
  <tile gid="387" />
  <tile gid="719" />
  <tile />
  <tile />
  <tile gid="744" />
  <tile gid="753" />
  <tile gid="418" />
  <tile gid="482" />
  <tile gid="497" />
  <tile />
  <tile />
  <tile gid="482" />
  <tile gid="584" />
  <tile gid="457" />
  <tile gid="582" />
  <tile gid="546" />
  <tile gid="498" />
  <tile />
  <tile gid="456" />
  <tile gid="554" />
  <tile gid="588" />
  <tile gid="563" />
  <tile gid="619" />
  <tile gid="593" />
  <tile />
  <tile gid="556" />
  <tile gid="618" />
  <tile gid="584" />
  <tile gid="425" />
  <tile gid="561" />
  <tile />
  <tile />
  <tile gid="588" />
  <tile gid="618" />
  <tile gid="780" />
  <tile gid="590" />
  <tile />
  <tile />
  <tile />
  </data></layer></map>