<?xml version='1.0' encoding='utf-8'?>
<map version="1.5" tiledversion="1.7.2" orientation="orthogonal" renderorder="right-down" width="10" height="7" tilewidth="16" tileheight="16" infinite="0" nextlayerid="2" nextobjectid="1"><tileset firstgid="1" name="Fields" tilewidth="16" tileheight="16" tilecount="1024" columns="32"><image source="../../../../Tilesets/Fields.png" width="512" height="512" /></tileset><layer id="1" name="Main" width="10" height="7"><data>
  <tile />
  <tile />
  <tile />
  <tile />
  <tile gid="744" />
  <tile gid="592" />
  <tile gid="425" />
  <tile gid="683" />
  <tile gid="746" />
  <tile />
  <tile />
  <tile />
  <tile />
  <tile gid="353" />
  <tile gid="550" />
  <tile gid="418" />
  <tile gid="619" />
  <tile gid="594" />
  <tile gid="680" />
  <tile />
  <tile />
  <tile />
  <tile gid="753" />
  <tile gid="482" />
  <tile gid="583" />
  <tile gid="425" />
  <tile gid="593" />
  <tile />
  <tile />
  <tile />
  <tile />
  <tile gid="385" />
  <tile gid="457" />
  <tile gid="619" />
  <tile gid="780" />
  <tile gid="559" />
  <tile />
  <tile />
  <tile />
  <tile />
  <tile />
  <tile gid="560" />
  <tile gid="588" />
  <tile gid="781" />
  <tile gid="776" />
  <tile gid="778" />
  <tile />
  <tile />
  <tile />
  <tile />
  <tile />
  <tile />
  <tile gid="752" />
  <tile />
  <tile />
  <tile />
  <tile />
  <tile />
  <tile />
  <tile />
  <tile />
  <tile />
  <tile />
  <tile />
  <tile />
  <tile />
  <tile />
  <tile />
  <tile />
  <tile />
  </data></layer></map>