<?xml version='1.0' encoding='utf-8'?>
<map version="1.5" tiledversion="1.7.2" orientation="orthogonal" renderorder="right-down" width="7" height="4" tilewidth="16" tileheight="16" infinite="0" nextlayerid="2" nextobjectid="1"><tileset firstgid="1" name="Fields" tilewidth="16" tileheight="16" tilecount="1024" columns="32"><image source="../../../../Tilesets/Fields.png" width="512" height="512" /></tileset><layer id="1" name="Main" width="7" height="4"><data>
  <tile />
  <tile />
  <tile gid="592" />
  <tile gid="420" />
  <tile gid="619" />
  <tile gid="593" />
  <tile />
  <tile />
  <tile gid="627" />
  <tile gid="418" />
  <tile gid="619" />
  <tile gid="561" />
  <tile />
  <tile />
  <tile />
  <tile />
  <tile gid="749" />
  <tile gid="561" />
  <tile />
  <tile />
  <tile />
  <tile />
  <tile />
  <tile />
  <tile />
  <tile />
  <tile />
  <tile gid="499" />
  </data></layer></map>