<?xml version='1.0' encoding='utf-8'?>
<map version="1.5" tiledversion="1.7.2" orientation="orthogonal" renderorder="right-down" width="7" height="4" tilewidth="16" tileheight="16" infinite="0" nextlayerid="2" nextobjectid="1"><tileset firstgid="1" name="Fields" tilewidth="16" tileheight="16" tilecount="1024" columns="32"><image source="../../../../Tilesets/Fields.png" width="512" height="512" /></tileset><layer id="1" name="Main" width="7" height="4"><data>
  <tile />
  <tile gid="494" />
  <tile gid="460" />
  <tile gid="587" />
  <tile gid="523" />
  <tile gid="529" />
  <tile />
  <tile />
  <tile gid="656" />
  <tile gid="617" />
  <tile gid="780" />
  <tile gid="559" />
  <tile />
  <tile />
  <tile />
  <tile gid="749" />
  <tile gid="561" />
  <tile />
  <tile />
  <tile />
  <tile />
  <tile />
  <tile />
  <tile />
  <tile />
  <tile />
  <tile />
  <tile />
  </data></layer></map>