<?xml version='1.0' encoding='utf-8'?>
<map version="1.5" tiledversion="1.7.2" orientation="orthogonal" renderorder="right-down" width="13" height="6" tilewidth="16" tileheight="16" infinite="0" nextlayerid="2" nextobjectid="1"><tileset firstgid="1" name="Fields" tilewidth="16" tileheight="16" tilecount="1024" columns="32"><image source="../../../../Tilesets/Fields.png" width="512" height="512" /></tileset><layer id="1" name="Main" width="13" height="6"><data>
  <tile />
  <tile gid="560" />
  <tile gid="525" />
  <tile gid="457" />
  <tile gid="684" />
  <tile gid="585" />
  <tile gid="423" />
  <tile gid="429" />
  <tile gid="493" />
  <tile gid="554" />
  <tile gid="424" />
  <tile gid="584" />
  <tile gid="747" />
  <tile />
  <tile />
  <tile gid="560" />
  <tile gid="588" />
  <tile gid="546" />
  <tile gid="615" />
  <tile gid="424" />
  <tile gid="552" />
  <tile gid="546" />
  <tile gid="587" />
  <tile gid="748" />
  <tile gid="593" />
  <tile />
  <tile />
  <tile />
  <tile />
  <tile gid="560" />
  <tile gid="550" />
  <tile gid="420" />
  <tile gid="619" />
  <tile gid="583" />
  <tile gid="427" />
  <tile gid="593" />
  <tile />
  <tile />
  <tile />
  <tile />
  <tile />
  <tile />
  <tile gid="680" />
  <tile gid="560" />
  <tile gid="492" />
  <tile gid="493" />
  <tile gid="433" />
  <tile gid="591" />
  <tile />
  <tile />
  <tile />
  <tile />
  <tile />
  <tile />
  <tile />
  <tile />
  <tile />
  <tile gid="690" />
  <tile gid="781" />
  <tile />
  <tile />
  <tile />
  <tile />
  <tile />
  <tile />
  <tile />
  <tile />
  <tile />
  <tile />
  <tile />
  <tile />
  <tile />
  <tile />
  <tile />
  <tile />
  <tile />
  <tile />
  <tile />
  </data></layer></map>