<?xml version='1.0' encoding='utf-8'?>
<map version="1.5" tiledversion="1.7.2" orientation="orthogonal" renderorder="right-down" width="10" height="8" tilewidth="16" tileheight="16" infinite="0" nextlayerid="2" nextobjectid="1"><tileset firstgid="1" name="Fields" tilewidth="16" tileheight="16" tilecount="1024" columns="32"><image source="../../../../Tilesets/Fields.png" width="512" height="512" /></tileset><layer id="1" name="Main" width="10" height="8"><data>
  <tile gid="588" />
  <tile gid="545" />
  <tile gid="462" />
  <tile gid="584" />
  <tile gid="420" />
  <tile gid="619" />
  <tile gid="584" />
  <tile gid="425" />
  <tile gid="466" />
  <tile />
  <tile gid="525" />
  <tile gid="425" />
  <tile gid="461" />
  <tile gid="552" />
  <tile gid="460" />
  <tile gid="465" />
  <tile gid="780" />
  <tile gid="748" />
  <tile gid="593" />
  <tile />
  <tile gid="556" />
  <tile gid="426" />
  <tile gid="429" />
  <tile gid="481" />
  <tile gid="617" />
  <tile gid="593" />
  <tile />
  <tile />
  <tile />
  <tile />
  <tile gid="588" />
  <tile gid="455" />
  <tile gid="493" />
  <tile gid="584" />
  <tile gid="781" />
  <tile />
  <tile />
  <tile />
  <tile />
  <tile />
  <tile gid="525" />
  <tile gid="588" />
  <tile gid="546" />
  <tile gid="493" />
  <tile gid="562" />
  <tile />
  <tile />
  <tile />
  <tile />
  <tile />
  <tile gid="560" />
  <tile gid="525" />
  <tile gid="425" />
  <tile gid="552" />
  <tile gid="781" />
  <tile />
  <tile />
  <tile />
  <tile />
  <tile />
  <tile />
  <tile gid="560" />
  <tile gid="748" />
  <tile />
  <tile />
  <tile />
  <tile />
  <tile />
  <tile />
  <tile />
  <tile />
  <tile />
  <tile />
  <tile />
  <tile />
  <tile />
  <tile />
  <tile />
  <tile />
  <tile />
  </data></layer></map>