<?xml version='1.0' encoding='utf-8'?>
<map version="1.5" tiledversion="1.7.2" orientation="orthogonal" renderorder="right-down" width="6" height="7" tilewidth="16" tileheight="16" infinite="0" nextlayerid="2" nextobjectid="1"><tileset firstgid="1" name="Fields" tilewidth="16" tileheight="16" tilecount="1024" columns="32"><image source="../../../../Tilesets/Fields.png" width="512" height="512" /></tileset><layer id="1" name="Main" width="6" height="7"><data>
  <tile />
  <tile />
  <tile />
  <tile />
  <tile />
  <tile />
  <tile gid="498" />
  <tile />
  <tile />
  <tile />
  <tile />
  <tile />
  <tile gid="577" />
  <tile gid="562" />
  <tile />
  <tile />
  <tile />
  <tile />
  <tile gid="585" />
  <tile gid="618" />
  <tile gid="530" />
  <tile />
  <tile />
  <tile />
  <tile gid="583" />
  <tile gid="546" />
  <tile gid="497" />
  <tile />
  <tile />
  <tile />
  <tile gid="546" />
  <tile gid="582" />
  <tile gid="428" />
  <tile gid="562" />
  <tile />
  <tile />
  <tile gid="426" />
  <tile gid="587" />
  <tile gid="548" />
  <tile gid="546" />
  <tile gid="498" />
  <tile />
  </data></layer></map>