<?xml version='1.0' encoding='utf-8'?>
<map version="1.5" tiledversion="1.7.2" orientation="orthogonal" renderorder="right-down" width="9" height="9" tilewidth="16" tileheight="16" infinite="0" nextlayerid="2" nextobjectid="1"><tileset firstgid="1" name="Fields" tilewidth="16" tileheight="16" tilecount="1024" columns="32"><image source="../../../../Tilesets/Fields.png" width="512" height="512" /></tileset><layer id="1" name="Main" width="9" height="9"><data>
  <tile />
  <tile />
  <tile />
  <tile />
  <tile />
  <tile />
  <tile />
  <tile gid="712" />
  <tile />
  <tile gid="712" />
  <tile />
  <tile />
  <tile />
  <tile />
  <tile gid="680" />
  <tile />
  <tile />
  <tile />
  <tile />
  <tile />
  <tile />
  <tile />
  <tile />
  <tile gid="592" />
  <tile gid="546" />
  <tile gid="713" />
  <tile />
  <tile />
  <tile />
  <tile />
  <tile />
  <tile gid="592" />
  <tile gid="420" />
  <tile gid="619" />
  <tile gid="593" />
  <tile />
  <tile />
  <tile />
  <tile />
  <tile />
  <tile gid="496" />
  <tile gid="425" />
  <tile gid="593" />
  <tile />
  <tile />
  <tile />
  <tile />
  <tile gid="558" />
  <tile gid="582" />
  <tile gid="716" />
  <tile gid="590" />
  <tile />
  <tile />
  <tile />
  <tile />
  <tile gid="494" />
  <tile gid="715" />
  <tile gid="561" />
  <tile />
  <tile gid="681" />
  <tile gid="746" />
  <tile />
  <tile />
  <tile />
  <tile />
  <tile gid="712" />
  <tile />
  <tile />
  <tile />
  <tile />
  <tile />
  <tile />
  <tile />
  <tile />
  <tile />
  <tile />
  <tile />
  <tile />
  <tile />
  <tile />
  <tile />
  </data></layer></map>