<?xml version='1.0' encoding='utf-8'?>
<map version="1.5" tiledversion="1.7.2" orientation="orthogonal" renderorder="right-down" width="7" height="10" tilewidth="16" tileheight="16" infinite="0" nextlayerid="2" nextobjectid="1"><tileset firstgid="1" name="Fields" tilewidth="16" tileheight="16" tilecount="1024" columns="32"><image source="../../../../Tilesets/Fields.png" width="512" height="512" /></tileset><layer id="1" name="Main" width="7" height="10"><data>
  <tile />
  <tile />
  <tile />
  <tile />
  <tile />
  <tile />
  <tile />
  <tile gid="548" />
  <tile gid="581" />
  <tile gid="691" />
  <tile />
  <tile />
  <tile />
  <tile />
  <tile gid="425" />
  <tile gid="584" />
  <tile gid="457" />
  <tile gid="498" />
  <tile />
  <tile />
  <tile />
  <tile gid="748" />
  <tile gid="780" />
  <tile gid="588" />
  <tile gid="514" />
  <tile gid="649" />
  <tile />
  <tile />
  <tile gid="745" />
  <tile gid="746" />
  <tile gid="560" />
  <tile gid="588" />
  <tile gid="578" />
  <tile />
  <tile />
  <tile gid="513" />
  <tile gid="498" />
  <tile gid="680" />
  <tile gid="560" />
  <tile gid="161" />
  <tile gid="751" />
  <tile />
  <tile gid="588" />
  <tile gid="658" />
  <tile />
  <tile />
  <tile />
  <tile />
  <tile />
  <tile gid="584" />
  <tile gid="781" />
  <tile />
  <tile />
  <tile />
  <tile />
  <tile />
  <tile gid="466" />
  <tile />
  <tile />
  <tile />
  <tile />
  <tile />
  <tile />
  <tile gid="545" />
  <tile gid="719" />
  <tile />
  <tile />
  <tile />
  <tile />
  <tile />
  </data></layer></map>