<?xml version='1.0' encoding='utf-8'?>
<map version="1.5" tiledversion="1.7.2" orientation="orthogonal" renderorder="right-down" width="7" height="5" tilewidth="16" tileheight="16" infinite="0" nextlayerid="2" nextobjectid="1"><tileset firstgid="1" name="Fields" tilewidth="16" tileheight="16" tilecount="1024" columns="32"><image source="../../../../Tilesets/Fields.png" width="512" height="512" /></tileset><layer id="1" name="Main" width="7" height="5"><data>
  <tile />
  <tile gid="560" />
  <tile gid="427" />
  <tile gid="430" />
  <tile gid="616" />
  <tile gid="556" />
  <tile gid="557" />
  <tile />
  <tile />
  <tile gid="782" />
  <tile gid="616" />
  <tile gid="556" />
  <tile gid="557" />
  <tile gid="621" />
  <tile />
  <tile />
  <tile />
  <tile gid="560" />
  <tile gid="161" />
  <tile gid="589" />
  <tile gid="417" />
  <tile gid="691" />
  <tile />
  <tile />
  <tile />
  <tile />
  <tile gid="560" />
  <tile gid="748" />
  <tile gid="457" />
  <tile gid="614" />
  <tile gid="356" />
  <tile />
  <tile />
  <tile />
  <tile />
  </data></layer></map>