<?xml version='1.0' encoding='utf-8'?>
<map version="1.5" tiledversion="1.7.2" orientation="orthogonal" renderorder="right-down" width="11" height="9" tilewidth="16" tileheight="16" infinite="0" nextlayerid="2" nextobjectid="1"><tileset firstgid="1" name="Fields" tilewidth="16" tileheight="16" tilecount="1024" columns="32"><image source="../../../../Tilesets/Fields.png" width="512" height="512" /></tileset><layer id="1" name="Main" width="11" height="9"><data>
  <tile />
  <tile />
  <tile />
  <tile />
  <tile />
  <tile />
  <tile gid="782" />
  <tile gid="616" />
  <tile gid="556" />
  <tile gid="557" />
  <tile gid="621" />
  <tile />
  <tile gid="385" />
  <tile gid="751" />
  <tile />
  <tile />
  <tile />
  <tile />
  <tile gid="560" />
  <tile gid="161" />
  <tile gid="589" />
  <tile gid="417" />
  <tile />
  <tile gid="560" />
  <tile gid="691" />
  <tile gid="753" />
  <tile gid="691" />
  <tile />
  <tile />
  <tile />
  <tile />
  <tile gid="560" />
  <tile gid="748" />
  <tile />
  <tile />
  <tile gid="591" />
  <tile gid="560" />
  <tile gid="457" />
  <tile gid="614" />
  <tile gid="356" />
  <tile />
  <tile />
  <tile />
  <tile />
  <tile />
  <tile />
  <tile gid="680" />
  <tile />
  <tile gid="690" />
  <tile gid="546" />
  <tile gid="582" />
  <tile gid="386" />
  <tile />
  <tile />
  <tile gid="681" />
  <tile />
  <tile />
  <tile />
  <tile />
  <tile />
  <tile gid="782" />
  <tile gid="616" />
  <tile gid="550" />
  <tile gid="624" />
  <tile gid="582" />
  <tile gid="523" />
  <tile />
  <tile />
  <tile />
  <tile />
  <tile />
  <tile />
  <tile gid="560" />
  <tile gid="526" />
  <tile gid="550" />
  <tile gid="545" />
  <tile gid="582" />
  <tile />
  <tile />
  <tile />
  <tile />
  <tile />
  <tile />
  <tile />
  <tile />
  <tile gid="690" />
  <tile gid="747" />
  <tile gid="780" />
  <tile />
  <tile />
  <tile />
  <tile />
  <tile />
  <tile />
  <tile />
  <tile />
  <tile />
  <tile />
  <tile />
  </data></layer></map>