<?xml version='1.0' encoding='utf-8'?>
<map version="1.5" tiledversion="1.7.2" orientation="orthogonal" renderorder="right-down" width="5" height="7" tilewidth="16" tileheight="16" infinite="0" nextlayerid="2" nextobjectid="1"><tileset firstgid="1" name="Fields" tilewidth="16" tileheight="16" tilecount="1024" columns="32"><image source="../../../../Tilesets/Fields.png" width="512" height="512" /></tileset><layer id="1" name="Main" width="5" height="7"><data>
  <tile />
  <tile />
  <tile />
  <tile />
  <tile />
  <tile />
  <tile gid="627" />
  <tile gid="626" />
  <tile />
  <tile />
  <tile />
  <tile gid="494" />
  <tile gid="618" />
  <tile gid="530" />
  <tile />
  <tile />
  <tile gid="753" />
  <tile gid="545" />
  <tile gid="561" />
  <tile />
  <tile />
  <tile gid="560" />
  <tile gid="460" />
  <tile gid="594" />
  <tile />
  <tile />
  <tile gid="494" />
  <tile gid="559" />
  <tile />
  <tile />
  <tile />
  <tile />
  <tile />
  <tile />
  <tile />
  </data></layer></map>