<?xml version='1.0' encoding='utf-8'?>
<map version="1.5" tiledversion="1.7.2" orientation="orthogonal" renderorder="right-down" width="8" height="16" tilewidth="16" tileheight="16" infinite="0" nextlayerid="2" nextobjectid="1"><tileset firstgid="1" name="Fields" tilewidth="16" tileheight="16" tilecount="1024" columns="32"><image source="../../../../Tilesets/Fields.png" width="512" height="512" /></tileset><layer id="1" name="Main" width="8" height="16"><data>
  <tile gid="492" />
  <tile gid="493" />
  <tile gid="461" />
  <tile gid="493" />
  <tile gid="593" />
  <tile />
  <tile />
  <tile />
  <tile gid="496" />
  <tile gid="545" />
  <tile gid="429" />
  <tile gid="466" />
  <tile />
  <tile />
  <tile />
  <tile />
  <tile gid="496" />
  <tile gid="521" />
  <tile gid="545" />
  <tile gid="461" />
  <tile gid="498" />
  <tile />
  <tile />
  <tile />
  <tile gid="496" />
  <tile gid="588" />
  <tile gid="455" />
  <tile gid="429" />
  <tile gid="497" />
  <tile />
  <tile />
  <tile />
  <tile gid="496" />
  <tile gid="524" />
  <tile gid="417" />
  <tile gid="718" />
  <tile gid="529" />
  <tile />
  <tile />
  <tile />
  <tile gid="496" />
  <tile gid="417" />
  <tile gid="619" />
  <tile gid="429" />
  <tile gid="529" />
  <tile />
  <tile />
  <tile />
  <tile gid="525" />
  <tile gid="617" />
  <tile gid="429" />
  <tile gid="461" />
  <tile gid="497" />
  <tile />
  <tile />
  <tile />
  <tile gid="525" />
  <tile gid="546" />
  <tile gid="493" />
  <tile gid="493" />
  <tile gid="497" />
  <tile />
  <tile />
  <tile />
  <tile gid="496" />
  <tile gid="492" />
  <tile gid="429" />
  <tile gid="493" />
  <tile gid="593" />
  <tile />
  <tile />
  <tile />
  <tile gid="560" />
  <tile gid="620" />
  <tile gid="545" />
  <tile gid="493" />
  <tile gid="498" />
  <tile />
  <tile />
  <tile />
  <tile gid="592" />
  <tile gid="588" />
  <tile gid="423" />
  <tile gid="493" />
  <tile gid="466" />
  <tile />
  <tile />
  <tile />
  <tile gid="584" />
  <tile gid="418" />
  <tile gid="619" />
  <tile gid="554" />
  <tile gid="546" />
  <tile gid="498" />
  <tile />
  <tile />
  <tile gid="493" />
  <tile gid="619" />
  <tile gid="717" />
  <tile gid="552" />
  <tile gid="425" />
  <tile gid="529" />
  <tile />
  <tile />
  <tile gid="546" />
  <tile gid="497" />
  <tile />
  <tile gid="560" />
  <tile gid="747" />
  <tile gid="593" />
  <tile />
  <tile />
  <tile gid="749" />
  <tile gid="593" />
  <tile />
  <tile />
  <tile />
  <tile gid="776" />
  <tile gid="778" />
  <tile />
  <tile />
  <tile />
  <tile />
  <tile />
  <tile />
  <tile />
  <tile />
  <tile />
  </data></layer></map>