<?xml version='1.0' encoding='utf-8'?>
<map version="1.5" tiledversion="1.7.2" orientation="orthogonal" renderorder="right-down" width="6" height="10" tilewidth="16" tileheight="16" infinite="0" nextlayerid="2" nextobjectid="1"><tileset firstgid="1" name="Fields" tilewidth="16" tileheight="16" tilecount="1024" columns="32"><image source="../../../../Tilesets/Fields.png" width="512" height="512" /></tileset><layer id="1" name="Main" width="6" height="10"><data>
  <tile gid="778" />
  <tile />
  <tile />
  <tile />
  <tile />
  <tile />
  <tile />
  <tile />
  <tile />
  <tile gid="743" />
  <tile />
  <tile />
  <tile />
  <tile />
  <tile gid="656" />
  <tile gid="617" />
  <tile gid="720" />
  <tile />
  <tile />
  <tile gid="592" />
  <tile gid="617" />
  <tile gid="529" />
  <tile />
  <tile />
  <tile />
  <tile gid="496" />
  <tile gid="546" />
  <tile gid="497" />
  <tile />
  <tile gid="627" />
  <tile />
  <tile gid="496" />
  <tile gid="617" />
  <tile gid="529" />
  <tile />
  <tile gid="494" />
  <tile />
  <tile gid="496" />
  <tile gid="546" />
  <tile gid="466" />
  <tile />
  <tile gid="753" />
  <tile />
  <tile gid="560" />
  <tile gid="460" />
  <tile gid="593" />
  <tile />
  <tile gid="560" />
  <tile />
  <tile />
  <tile gid="752" />
  <tile />
  <tile />
  <tile gid="494" />
  <tile />
  <tile />
  <tile />
  <tile />
  <tile />
  <tile />
  </data></layer></map>