<?xml version='1.0' encoding='utf-8'?>
<map version="1.5" tiledversion="1.7.2" orientation="orthogonal" renderorder="right-down" width="15" height="14" tilewidth="16" tileheight="16" infinite="0" nextlayerid="2" nextobjectid="1"><tileset firstgid="1" name="Fields" tilewidth="16" tileheight="16" tilecount="1024" columns="32"><image source="../../../../Tilesets/Fields.png" width="512" height="512" /></tileset><layer id="1" name="Main" width="15" height="14"><data>
  <tile />
  <tile />
  <tile />
  <tile />
  <tile />
  <tile />
  <tile gid="592" />
  <tile gid="581" />
  <tile gid="492" />
  <tile gid="614" />
  <tile gid="425" />
  <tile gid="498" />
  <tile gid="592" />
  <tile gid="457" />
  <tile gid="614" />
  <tile gid="562" />
  <tile />
  <tile />
  <tile />
  <tile />
  <tile gid="627" />
  <tile gid="526" />
  <tile gid="418" />
  <tile gid="387" />
  <tile gid="583" />
  <tile gid="460" />
  <tile gid="461" />
  <tile gid="584" />
  <tile gid="610" />
  <tile gid="715" />
  <tile gid="546" />
  <tile gid="562" />
  <tile />
  <tile />
  <tile />
  <tile />
  <tile gid="560" />
  <tile gid="748" />
  <tile gid="495" />
  <tile gid="780" />
  <tile gid="747" />
  <tile gid="717" />
  <tile gid="561" />
  <tile gid="752" />
  <tile />
  <tile gid="460" />
  <tile gid="461" />
  <tile gid="562" />
  <tile />
  <tile />
  <tile />
  <tile />
  <tile />
  <tile />
  <tile />
  <tile />
  <tile />
  <tile />
  <tile />
  <tile />
  <tile gid="617" />
  <tile gid="616" />
  <tile gid="578" />
  <tile gid="562" />
  <tile gid="744" />
  <tile />
  <tile />
  <tile />
  <tile />
  <tile />
  <tile />
  <tile />
  <tile />
  <tile />
  <tile />
  <tile gid="545" />
  <tile gid="584" />
  <tile gid="588" />
  <tile gid="580" />
  <tile gid="458" />
  <tile gid="562" />
  <tile />
  <tile />
  <tile />
  <tile />
  <tile />
  <tile />
  <tile />
  <tile />
  <tile />
  <tile gid="424" />
  <tile gid="493" />
  <tile gid="584" />
  <tile gid="588" />
  <tile gid="589" />
  <tile gid="580" />
  <tile gid="513" />
  <tile gid="562" />
  <tile />
  <tile />
  <tile />
  <tile />
  <tile />
  <tile />
  <tile />
  <tile gid="747" />
  <tile gid="495" />
  <tile gid="780" />
  <tile gid="525" />
  <tile gid="556" />
  <tile gid="451" />
  <tile gid="589" />
  <tile gid="545" />
  <tile gid="562" />
  <tile />
  <tile gid="743" />
  <tile gid="744" />
  <tile />
  <tile />
  <tile />
  <tile />
  <tile />
  <tile />
  <tile gid="496" />
  <tile gid="588" />
  <tile gid="485" />
  <tile gid="556" />
  <tile gid="617" />
  <tile gid="461" />
  <tile gid="582" />
  <tile gid="521" />
  <tile gid="426" />
  <tile gid="562" />
  <tile />
  <tile />
  <tile />
  <tile />
  <tile />
  <tile gid="560" />
  <tile gid="716" />
  <tile gid="525" />
  <tile gid="588" />
  <tile gid="618" />
  <tile gid="493" />
  <tile gid="616" />
  <tile gid="418" />
  <tile gid="619" />
  <tile gid="466" />
  <tile gid="712" />
  <tile />
  <tile />
  <tile />
  <tile />
  <tile />
  <tile />
  <tile gid="496" />
  <tile gid="418" />
  <tile gid="718" />
  <tile gid="461" />
  <tile gid="584" />
  <tile gid="425" />
  <tile gid="430" />
  <tile gid="561" />
  <tile />
  <tile />
  <tile />
  <tile />
  <tile />
  <tile />
  <tile />
  <tile gid="560" />
  <tile gid="460" />
  <tile gid="493" />
  <tile gid="495" />
  <tile gid="780" />
  <tile gid="747" />
  <tile gid="561" />
  <tile />
  <tile />
  <tile />
  <tile />
  <tile />
  <tile />
  <tile />
  <tile />
  <tile />
  <tile gid="749" />
  <tile gid="561" />
  <tile />
  <tile />
  <tile />
  <tile />
  <tile />
  <tile />
  <tile />
  <tile />
  <tile />
  <tile />
  <tile />
  <tile />
  <tile />
  <tile />
  <tile />
  <tile />
  <tile />
  <tile />
  <tile />
  <tile />
  <tile />
  <tile />
  </data></layer></map>