<?xml version='1.0' encoding='utf-8'?>
<map version="1.5" tiledversion="1.7.2" orientation="orthogonal" renderorder="right-down" width="6" height="5" tilewidth="16" tileheight="16" infinite="0" nextlayerid="2" nextobjectid="1"><tileset firstgid="1" name="Fields" tilewidth="16" tileheight="16" tilecount="1024" columns="32"><image source="../../../../Tilesets/Fields.png" width="512" height="512" /></tileset><layer id="1" name="Main" width="6" height="5"><data>
  <tile />
  <tile />
  <tile />
  <tile />
  <tile />
  <tile />
  <tile />
  <tile />
  <tile />
  <tile />
  <tile gid="743" />
  <tile gid="656" />
  <tile />
  <tile />
  <tile />
  <tile gid="592" />
  <tile gid="521" />
  <tile gid="545" />
  <tile />
  <tile />
  <tile gid="656" />
  <tile gid="452" />
  <tile gid="418" />
  <tile gid="619" />
  <tile />
  <tile gid="592" />
  <tile gid="460" />
  <tile gid="615" />
  <tile gid="457" />
  <tile gid="587" />
  </data></layer></map>