<?xml version='1.0' encoding='utf-8'?>
<map version="1.5" tiledversion="1.7.2" orientation="orthogonal" renderorder="right-down" width="10" height="10" tilewidth="16" tileheight="16" infinite="0" nextlayerid="2" nextobjectid="1"><tileset firstgid="1" name="Fields" tilewidth="16" tileheight="16" tilecount="1024" columns="32"><image source="../../../../Tilesets/Fields.png" width="512" height="512" /></tileset><layer id="1" name="Main" width="10" height="10"><data>
  <tile />
  <tile gid="464" />
  <tile gid="424" />
  <tile gid="583" />
  <tile gid="427" />
  <tile gid="462" />
  <tile gid="717" />
  <tile gid="720" />
  <tile />
  <tile />
  <tile />
  <tile gid="496" />
  <tile gid="425" />
  <tile gid="554" />
  <tile gid="425" />
  <tile gid="529" />
  <tile />
  <tile />
  <tile />
  <tile />
  <tile />
  <tile gid="464" />
  <tile gid="460" />
  <tile gid="616" />
  <tile gid="425" />
  <tile gid="497" />
  <tile />
  <tile />
  <tile />
  <tile />
  <tile />
  <tile gid="432" />
  <tile gid="550" />
  <tile gid="454" />
  <tile gid="457" />
  <tile gid="497" />
  <tile />
  <tile />
  <tile />
  <tile />
  <tile />
  <tile />
  <tile gid="496" />
  <tile gid="486" />
  <tile gid="524" />
  <tile gid="546" />
  <tile gid="498" />
  <tile gid="744" />
  <tile />
  <tile />
  <tile />
  <tile />
  <tile gid="560" />
  <tile gid="526" />
  <tile gid="524" />
  <tile gid="617" />
  <tile gid="587" />
  <tile gid="426" />
  <tile gid="498" />
  <tile />
  <tile />
  <tile />
  <tile />
  <tile gid="560" />
  <tile gid="526" />
  <tile gid="514" />
  <tile gid="430" />
  <tile gid="619" />
  <tile gid="466" />
  <tile />
  <tile />
  <tile />
  <tile />
  <tile />
  <tile gid="560" />
  <tile gid="716" />
  <tile gid="546" />
  <tile gid="493" />
  <tile gid="593" />
  <tile />
  <tile />
  <tile />
  <tile />
  <tile />
  <tile />
  <tile />
  <tile gid="749" />
  <tile gid="561" />
  <tile />
  <tile />
  <tile />
  <tile />
  <tile />
  <tile />
  <tile />
  <tile />
  <tile />
  <tile />
  <tile />
  <tile />
  </data></layer></map>