<?xml version='1.0' encoding='utf-8'?>
<map version="1.5" tiledversion="1.7.2" orientation="orthogonal" renderorder="right-down" width="17" height="9" tilewidth="16" tileheight="16" infinite="0" nextlayerid="2" nextobjectid="1"><tileset firstgid="1" name="Fields" tilewidth="16" tileheight="16" tilecount="1024" columns="32"><image source="../../../../Tilesets/Fields.png" width="512" height="512" /></tileset><layer id="1" name="Main" width="17" height="9"><data>
  <tile />
  <tile />
  <tile gid="749" />
  <tile gid="561" />
  <tile />
  <tile />
  <tile />
  <tile />
  <tile />
  <tile gid="496" />
  <tile gid="624" />
  <tile gid="593" />
  <tile />
  <tile />
  <tile />
  <tile />
  <tile />
  <tile />
  <tile />
  <tile />
  <tile />
  <tile />
  <tile />
  <tile />
  <tile />
  <tile />
  <tile gid="432" />
  <tile gid="590" />
  <tile />
  <tile />
  <tile />
  <tile gid="744" />
  <tile />
  <tile gid="680" />
  <tile />
  <tile />
  <tile />
  <tile />
  <tile />
  <tile />
  <tile />
  <tile />
  <tile />
  <tile />
  <tile />
  <tile />
  <tile />
  <tile gid="592" />
  <tile gid="460" />
  <tile gid="562" />
  <tile gid="592" />
  <tile />
  <tile />
  <tile />
  <tile />
  <tile />
  <tile />
  <tile />
  <tile />
  <tile />
  <tile />
  <tile />
  <tile gid="627" />
  <tile gid="624" />
  <tile gid="584" />
  <tile gid="617" />
  <tile gid="616" />
  <tile gid="588" />
  <tile />
  <tile />
  <tile />
  <tile gid="743" />
  <tile gid="744" />
  <tile />
  <tile gid="744" />
  <tile />
  <tile />
  <tile gid="743" />
  <tile />
  <tile gid="656" />
  <tile gid="521" />
  <tile gid="546" />
  <tile gid="529" />
  <tile gid="560" />
  <tile gid="716" />
  <tile />
  <tile />
  <tile gid="592" />
  <tile gid="581" />
  <tile gid="492" />
  <tile gid="614" />
  <tile gid="425" />
  <tile gid="498" />
  <tile gid="592" />
  <tile gid="457" />
  <tile gid="614" />
  <tile gid="617" />
  <tile gid="584" />
  <tile gid="428" />
  <tile />
  <tile />
  <tile />
  <tile />
  <tile gid="627" />
  <tile gid="526" />
  <tile gid="418" />
  <tile gid="387" />
  <tile gid="583" />
  <tile gid="460" />
  <tile gid="461" />
  <tile gid="584" />
  <tile gid="610" />
  <tile gid="715" />
  <tile gid="495" />
  <tile gid="780" />
  <tile gid="559" />
  <tile />
  <tile />
  <tile />
  <tile />
  <tile />
  <tile gid="560" />
  <tile gid="748" />
  <tile gid="495" />
  <tile gid="780" />
  <tile gid="747" />
  <tile gid="717" />
  <tile gid="561" />
  <tile gid="752" />
  <tile />
  <tile />
  <tile />
  <tile />
  <tile />
  <tile />
  <tile />
  <tile />
  <tile />
  <tile />
  <tile />
  <tile />
  <tile />
  <tile />
  <tile />
  <tile />
  <tile />
  <tile />
  <tile />
  <tile />
  <tile />
  <tile />
  <tile />
  <tile gid="592" />
  </data></layer></map>