<?xml version='1.0' encoding='utf-8'?>
<map version="1.5" tiledversion="1.7.2" orientation="orthogonal" renderorder="right-down" width="8" height="6" tilewidth="16" tileheight="16" infinite="0" nextlayerid="2" nextobjectid="1"><tileset firstgid="1" name="Fields" tilewidth="16" tileheight="16" tilecount="1024" columns="32"><image source="../../../../Tilesets/Fields.png" width="512" height="512" /></tileset><layer id="1" name="Main" width="8" height="6"><data>
  <tile />
  <tile />
  <tile />
  <tile />
  <tile />
  <tile />
  <tile />
  <tile gid="560" />
  <tile />
  <tile gid="681" />
  <tile gid="777" />
  <tile gid="778" />
  <tile />
  <tile />
  <tile />
  <tile />
  <tile />
  <tile />
  <tile gid="627" />
  <tile gid="691" />
  <tile gid="659" />
  <tile />
  <tile />
  <tile />
  <tile />
  <tile />
  <tile />
  <tile gid="496" />
  <tile gid="482" />
  <tile gid="498" />
  <tile />
  <tile />
  <tile />
  <tile />
  <tile />
  <tile gid="560" />
  <tile gid="550" />
  <tile gid="618" />
  <tile gid="562" />
  <tile gid="743" />
  <tile />
  <tile />
  <tile />
  <tile gid="592" />
  <tile gid="524" />
  <tile gid="521" />
  <tile gid="514" />
  <tile gid="614" />
  </data></layer></map>