<?xml version='1.0' encoding='utf-8'?>
<map version="1.5" tiledversion="1.7.2" orientation="orthogonal" renderorder="right-down" width="11" height="7" tilewidth="16" tileheight="16" infinite="0" nextlayerid="2" nextobjectid="1"><tileset firstgid="1" name="Fields" tilewidth="16" tileheight="16" tilecount="1024" columns="32"><image source="../../../../Tilesets/Fields.png" width="512" height="512" /></tileset><layer id="1" name="Main" width="11" height="7"><data>
  <tile />
  <tile />
  <tile />
  <tile gid="749" />
  <tile gid="593" />
  <tile />
  <tile />
  <tile />
  <tile />
  <tile />
  <tile />
  <tile />
  <tile />
  <tile />
  <tile />
  <tile />
  <tile />
  <tile gid="744" />
  <tile gid="385" />
  <tile gid="387" />
  <tile gid="498" />
  <tile />
  <tile gid="530" />
  <tile />
  <tile />
  <tile />
  <tile />
  <tile gid="385" />
  <tile gid="425" />
  <tile gid="584" />
  <tile gid="514" />
  <tile gid="493" />
  <tile gid="498" />
  <tile gid="546" />
  <tile gid="594" />
  <tile />
  <tile />
  <tile gid="750" />
  <tile gid="582" />
  <tile gid="457" />
  <tile gid="554" />
  <tile gid="588" />
  <tile gid="545" />
  <tile gid="586" />
  <tile gid="752" />
  <tile />
  <tile />
  <tile gid="753" />
  <tile gid="458" />
  <tile gid="493" />
  <tile gid="834" />
  <tile gid="482" />
  <tile gid="551" />
  <tile gid="460" />
  <tile gid="614" />
  <tile />
  <tile />
  <tile gid="385" />
  <tile gid="610" />
  <tile gid="588" />
  <tile gid="618" />
  <tile gid="616" />
  <tile gid="425" />
  <tile gid="554" />
  <tile gid="748" />
  <tile gid="495" />
  <tile />
  <tile gid="494" />
  <tile gid="425" />
  <tile gid="619" />
  <tile gid="834" />
  <tile gid="550" />
  <tile gid="556" />
  <tile gid="426" />
  <tile gid="529" />
  <tile gid="777" />
  <tile gid="778" />
  </data></layer></map>