<?xml version='1.0' encoding='utf-8'?>
<map version="1.5" tiledversion="1.7.2" orientation="orthogonal" renderorder="right-down" width="10" height="10" tilewidth="16" tileheight="16" infinite="0" nextlayerid="2" nextobjectid="1"><tileset firstgid="1" name="Fields" tilewidth="16" tileheight="16" tilecount="1024" columns="32"><image source="../../../../Tilesets/Fields.png" width="512" height="512" /></tileset><layer id="1" name="Main" width="10" height="10"><data>
  <tile />
  <tile />
  <tile />
  <tile />
  <tile />
  <tile gid="432" />
  <tile gid="748" />
  <tile gid="780" />
  <tile gid="747" />
  <tile gid="614" />
  <tile />
  <tile />
  <tile />
  <tile />
  <tile gid="627" />
  <tile gid="751" />
  <tile />
  <tile />
  <tile />
  <tile gid="752" />
  <tile />
  <tile />
  <tile />
  <tile />
  <tile gid="528" />
  <tile gid="719" />
  <tile />
  <tile />
  <tile />
  <tile gid="680" />
  <tile />
  <tile />
  <tile />
  <tile gid="750" />
  <tile gid="619" />
  <tile gid="561" />
  <tile />
  <tile />
  <tile />
  <tile />
  <tile />
  <tile />
  <tile />
  <tile gid="782" />
  <tile gid="561" />
  <tile />
  <tile />
  <tile />
  <tile />
  <tile />
  <tile />
  <tile />
  <tile gid="353" />
  <tile gid="719" />
  <tile />
  <tile />
  <tile />
  <tile />
  <tile />
  <tile />
  <tile />
  <tile gid="494" />
  <tile gid="425" />
  <tile gid="497" />
  <tile />
  <tile />
  <tile />
  <tile />
  <tile />
  <tile />
  <tile />
  <tile gid="432" />
  <tile gid="425" />
  <tile gid="430" />
  <tile gid="720" />
  <tile />
  <tile />
  <tile />
  <tile />
  <tile />
  <tile />
  <tile />
  <tile gid="749" />
  <tile gid="593" />
  <tile />
  <tile />
  <tile />
  <tile />
  <tile />
  <tile />
  <tile />
  <tile />
  <tile />
  <tile />
  <tile />
  <tile gid="744" />
  <tile gid="385" />
  <tile gid="387" />
  <tile gid="498" />
  <tile />
  </data></layer></map>