<?xml version='1.0' encoding='utf-8'?>
<map version="1.5" tiledversion="1.7.2" orientation="orthogonal" renderorder="right-down" width="14" height="14" tilewidth="16" tileheight="16" infinite="0" nextlayerid="2" nextobjectid="1"><tileset firstgid="1" name="Fields" tilewidth="16" tileheight="16" tilecount="1024" columns="32"><image source="../../../../Tilesets/Fields.png" width="512" height="512" /></tileset><layer id="1" name="Main" width="14" height="14"><data>
  <tile />
  <tile />
  <tile />
  <tile />
  <tile />
  <tile />
  <tile />
  <tile />
  <tile />
  <tile />
  <tile />
  <tile />
  <tile />
  <tile />
  <tile />
  <tile gid="592" />
  <tile gid="578" />
  <tile gid="498" />
  <tile />
  <tile />
  <tile />
  <tile />
  <tile />
  <tile />
  <tile />
  <tile />
  <tile />
  <tile gid="592" />
  <tile />
  <tile gid="560" />
  <tile gid="588" />
  <tile gid="578" />
  <tile gid="530" />
  <tile />
  <tile />
  <tile />
  <tile />
  <tile />
  <tile />
  <tile />
  <tile />
  <tile gid="560" />
  <tile />
  <tile />
  <tile gid="560" />
  <tile gid="452" />
  <tile gid="546" />
  <tile gid="562" />
  <tile />
  <tile />
  <tile />
  <tile />
  <tile />
  <tile />
  <tile />
  <tile gid="494" />
  <tile />
  <tile />
  <tile />
  <tile gid="431" />
  <tile gid="425" />
  <tile gid="493" />
  <tile gid="719" />
  <tile />
  <tile gid="743" />
  <tile />
  <tile />
  <tile />
  <tile />
  <tile />
  <tile />
  <tile />
  <tile gid="627" />
  <tile gid="581" />
  <tile gid="617" />
  <tile gid="616" />
  <tile gid="578" />
  <tile gid="614" />
  <tile gid="577" />
  <tile gid="498" />
  <tile gid="776" />
  <tile gid="778" />
  <tile />
  <tile />
  <tile />
  <tile />
  <tile gid="592" />
  <tile gid="460" />
  <tile gid="493" />
  <tile gid="583" />
  <tile gid="588" />
  <tile gid="579" />
  <tile gid="557" />
  <tile gid="618" />
  <tile gid="562" />
  <tile />
  <tile />
  <tile />
  <tile />
  <tile />
  <tile gid="560" />
  <tile gid="747" />
  <tile gid="495" />
  <tile gid="616" />
  <tile gid="556" />
  <tile gid="451" />
  <tile gid="589" />
  <tile gid="578" />
  <tile gid="466" />
  <tile />
  <tile />
  <tile />
  <tile />
  <tile />
  <tile />
  <tile />
  <tile />
  <tile gid="560" />
  <tile gid="588" />
  <tile gid="483" />
  <tile gid="417" />
  <tile gid="387" />
  <tile gid="466" />
  <tile />
  <tile />
  <tile />
  <tile />
  <tile />
  <tile />
  <tile />
  <tile />
  <tile />
  <tile gid="560" />
  <tile gid="588" />
  <tile gid="424" />
  <tile gid="586" />
  <tile gid="482" />
  <tile gid="530" />
  <tile />
  <tile />
  <tile />
  <tile />
  <tile gid="743" />
  <tile gid="743" />
  <tile />
  <tile />
  <tile />
  <tile gid="560" />
  <tile gid="424" />
  <tile gid="481" />
  <tile gid="747" />
  <tile gid="717" />
  <tile gid="719" />
  <tile />
  <tile />
  <tile gid="656" />
  <tile gid="427" />
  <tile gid="619" />
  <tile gid="530" />
  <tile />
  <tile />
  <tile />
  <tile gid="559" />
  <tile gid="591" />
  <tile />
  <tile />
  <tile />
  <tile />
  <tile />
  <tile gid="431" />
  <tile gid="523" />
  <tile gid="495" />
  <tile gid="593" />
  <tile />
  <tile />
  <tile />
  <tile />
  <tile gid="752" />
  <tile />
  <tile />
  <tile />
  <tile />
  <tile />
  <tile gid="496" />
  <tile gid="617" />
  <tile gid="562" />
  <tile />
  <tile />
  <tile />
  <tile />
  <tile />
  <tile />
  <tile />
  <tile />
  <tile />
  <tile />
  </data></layer></map>