<?xml version='1.0' encoding='utf-8'?>
<map version="1.5" tiledversion="1.7.2" orientation="orthogonal" renderorder="right-down" width="7" height="7" tilewidth="16" tileheight="16" infinite="0" nextlayerid="2" nextobjectid="1"><tileset firstgid="1" name="Fields" tilewidth="16" tileheight="16" tilecount="1024" columns="32"><image source="../../../../Tilesets/Fields.png" width="512" height="512" /></tileset><layer id="1" name="Main" width="7" height="7"><data>
  <tile gid="593" />
  <tile />
  <tile />
  <tile />
  <tile />
  <tile />
  <tile />
  <tile />
  <tile />
  <tile />
  <tile gid="743" />
  <tile gid="743" />
  <tile />
  <tile />
  <tile />
  <tile />
  <tile gid="656" />
  <tile gid="427" />
  <tile gid="619" />
  <tile gid="530" />
  <tile />
  <tile />
  <tile />
  <tile gid="431" />
  <tile gid="523" />
  <tile gid="495" />
  <tile gid="593" />
  <tile />
  <tile />
  <tile />
  <tile gid="496" />
  <tile gid="617" />
  <tile gid="562" />
  <tile />
  <tile />
  <tile />
  <tile gid="656" />
  <tile gid="417" />
  <tile gid="718" />
  <tile gid="497" />
  <tile />
  <tile />
  <tile />
  <tile gid="431" />
  <tile gid="617" />
  <tile gid="430" />
  <tile gid="593" />
  <tile />
  <tile />
  </data></layer></map>