<?xml version='1.0' encoding='utf-8'?>
<map version="1.5" tiledversion="1.7.2" orientation="orthogonal" renderorder="right-down" width="9" height="8" tilewidth="16" tileheight="16" infinite="0" nextlayerid="2" nextobjectid="1"><tileset firstgid="1" name="Fields" tilewidth="16" tileheight="16" tilecount="1024" columns="32"><image source="../../../../Tilesets/Fields.png" width="512" height="512" /></tileset><layer id="1" name="Main" width="9" height="8"><data>
  <tile gid="561" />
  <tile />
  <tile />
  <tile />
  <tile />
  <tile />
  <tile />
  <tile />
  <tile />
  <tile />
  <tile />
  <tile />
  <tile gid="744" />
  <tile />
  <tile />
  <tile />
  <tile />
  <tile />
  <tile />
  <tile />
  <tile gid="592" />
  <tile gid="426" />
  <tile gid="498" />
  <tile />
  <tile gid="743" />
  <tile />
  <tile />
  <tile />
  <tile gid="627" />
  <tile gid="418" />
  <tile gid="619" />
  <tile gid="497" />
  <tile gid="592" />
  <tile gid="427" />
  <tile gid="498" />
  <tile />
  <tile />
  <tile />
  <tile gid="496" />
  <tile gid="578" />
  <tile gid="614" />
  <tile gid="647" />
  <tile gid="619" />
  <tile gid="593" />
  <tile />
  <tile />
  <tile />
  <tile gid="560" />
  <tile gid="620" />
  <tile gid="545" />
  <tile gid="495" />
  <tile gid="593" />
  <tile />
  <tile />
  <tile />
  <tile />
  <tile />
  <tile gid="690" />
  <tile gid="531" />
  <tile gid="625" />
  <tile />
  <tile />
  <tile />
  <tile />
  <tile />
  <tile />
  <tile />
  <tile />
  <tile />
  <tile />
  <tile />
  <tile />
  </data></layer></map>