<?xml version='1.0' encoding='utf-8'?>
<map version="1.5" tiledversion="1.7.2" orientation="orthogonal" renderorder="right-down" width="11" height="10" tilewidth="16" tileheight="16" infinite="0" nextlayerid="2" nextobjectid="1"><tileset firstgid="1" name="Fields" tilewidth="16" tileheight="16" tilecount="1024" columns="32"><image source="../../../../Tilesets/Fields.png" width="512" height="512" /></tileset><layer id="1" name="Main" width="11" height="10"><data>
  <tile />
  <tile />
  <tile />
  <tile />
  <tile />
  <tile />
  <tile />
  <tile />
  <tile />
  <tile />
  <tile />
  <tile />
  <tile />
  <tile />
  <tile />
  <tile />
  <tile />
  <tile gid="494" />
  <tile gid="514" />
  <tile gid="498" />
  <tile />
  <tile />
  <tile />
  <tile />
  <tile />
  <tile />
  <tile />
  <tile gid="627" />
  <tile gid="580" />
  <tile gid="488" />
  <tile gid="618" />
  <tile gid="720" />
  <tile />
  <tile />
  <tile />
  <tile />
  <tile gid="744" />
  <tile gid="656" />
  <tile gid="580" />
  <tile gid="417" />
  <tile gid="387" />
  <tile gid="497" />
  <tile />
  <tile />
  <tile />
  <tile />
  <tile gid="592" />
  <tile gid="581" />
  <tile gid="426" />
  <tile gid="583" />
  <tile gid="424" />
  <tile gid="495" />
  <tile gid="561" />
  <tile />
  <tile />
  <tile />
  <tile gid="656" />
  <tile gid="420" />
  <tile gid="387" />
  <tile gid="619" />
  <tile gid="780" />
  <tile gid="590" />
  <tile />
  <tile />
  <tile />
  <tile />
  <tile />
  <tile gid="431" />
  <tile gid="545" />
  <tile gid="430" />
  <tile gid="561" />
  <tile />
  <tile gid="680" />
  <tile />
  <tile />
  <tile />
  <tile />
  <tile />
  <tile gid="560" />
  <tile gid="424" />
  <tile gid="466" />
  <tile />
  <tile />
  <tile />
  <tile />
  <tile />
  <tile />
  <tile />
  <tile />
  <tile gid="680" />
  <tile gid="749" />
  <tile gid="561" />
  <tile />
  <tile />
  <tile />
  <tile />
  <tile />
  <tile />
  <tile />
  <tile />
  <tile />
  <tile />
  <tile />
  <tile />
  <tile />
  <tile gid="744" />
  <tile />
  <tile />
  <tile />
  <tile />
  </data></layer></map>