<?xml version='1.0' encoding='utf-8'?>
<map version="1.5" tiledversion="1.7.2" orientation="orthogonal" renderorder="right-down" width="12" height="20" tilewidth="16" tileheight="16" infinite="0" nextlayerid="2" nextobjectid="1"><tileset firstgid="1" name="Fields" tilewidth="16" tileheight="16" tilecount="1024" columns="32"><image source="../../../../Tilesets/Fields.png" width="512" height="512" /></tileset><layer id="1" name="Main" width="12" height="20"><data>
  <tile />
  <tile />
  <tile />
  <tile gid="592" />
  <tile gid="525" />
  <tile gid="556" />
  <tile gid="555" />
  <tile gid="557" />
  <tile gid="513" />
  <tile gid="430" />
  <tile gid="551" />
  <tile gid="423" />
  <tile />
  <tile />
  <tile gid="494" />
  <tile gid="525" />
  <tile gid="526" />
  <tile gid="588" />
  <tile gid="589" />
  <tile gid="621" />
  <tile gid="557" />
  <tile gid="545" />
  <tile gid="552" />
  <tile gid="425" />
  <tile />
  <tile />
  <tile gid="712" />
  <tile gid="496" />
  <tile gid="524" />
  <tile gid="525" />
  <tile gid="525" />
  <tile gid="588" />
  <tile gid="589" />
  <tile gid="460" />
  <tile gid="587" />
  <tile gid="457" />
  <tile />
  <tile />
  <tile />
  <tile gid="496" />
  <tile gid="482" />
  <tile gid="584" />
  <tile gid="524" />
  <tile gid="525" />
  <tile gid="526" />
  <tile gid="492" />
  <tile gid="616" />
  <tile gid="621" />
  <tile />
  <tile />
  <tile />
  <tile gid="560" />
  <tile gid="457" />
  <tile gid="780" />
  <tile gid="525" />
  <tile gid="524" />
  <tile gid="556" />
  <tile gid="417" />
  <tile gid="551" />
  <tile gid="620" />
  <tile />
  <tile />
  <tile />
  <tile />
  <tile gid="690" />
  <tile gid="751" />
  <tile gid="690" />
  <tile gid="526" />
  <tile gid="588" />
  <tile gid="424" />
  <tile gid="429" />
  <tile gid="551" />
  <tile />
  <tile />
  <tile />
  <tile />
  <tile />
  <tile />
  <tile gid="627" />
  <tile gid="526" />
  <tile gid="454" />
  <tile gid="425" />
  <tile gid="429" />
  <tile gid="552" />
  <tile />
  <tile />
  <tile />
  <tile />
  <tile />
  <tile gid="776" />
  <tile gid="680" />
  <tile gid="690" />
  <tile gid="486" />
  <tile gid="457" />
  <tile gid="586" />
  <tile gid="556" />
  <tile />
  <tile />
  <tile />
  <tile gid="681" />
  <tile gid="777" />
  <tile gid="745" />
  <tile gid="746" />
  <tile />
  <tile gid="464" />
  <tile gid="556" />
  <tile gid="453" />
  <tile gid="418" />
  <tile />
  <tile />
  <tile gid="680" />
  <tile gid="776" />
  <tile />
  <tile />
  <tile />
  <tile />
  <tile gid="496" />
  <tile gid="589" />
  <tile gid="485" />
  <tile gid="523" />
  <tile />
  <tile gid="745" />
  <tile gid="746" />
  <tile />
  <tile />
  <tile />
  <tile />
  <tile />
  <tile gid="560" />
  <tile gid="525" />
  <tile gid="524" />
  <tile gid="426" />
  <tile />
  <tile />
  <tile gid="712" />
  <tile />
  <tile />
  <tile />
  <tile />
  <tile />
  <tile />
  <tile gid="560" />
  <tile gid="525" />
  <tile gid="460" />
  <tile />
  <tile />
  <tile />
  <tile />
  <tile />
  <tile />
  <tile />
  <tile />
  <tile />
  <tile />
  <tile gid="560" />
  <tile gid="492" />
  <tile />
  <tile />
  <tile />
  <tile />
  <tile />
  <tile />
  <tile />
  <tile />
  <tile />
  <tile />
  <tile gid="753" />
  <tile gid="556" />
  <tile />
  <tile />
  <tile gid="750" />
  <tile gid="713" />
  <tile gid="746" />
  <tile />
  <tile />
  <tile />
  <tile />
  <tile />
  <tile gid="496" />
  <tile gid="588" />
  <tile />
  <tile />
  <tile gid="496" />
  <tile gid="497" />
  <tile />
  <tile />
  <tile />
  <tile />
  <tile />
  <tile gid="592" />
  <tile gid="525" />
  <tile gid="610" />
  <tile />
  <tile />
  <tile gid="749" />
  <tile gid="561" />
  <tile />
  <tile />
  <tile />
  <tile />
  <tile gid="494" />
  <tile gid="525" />
  <tile gid="556" />
  <tile gid="611" />
  <tile />
  <tile />
  <tile />
  <tile />
  <tile />
  <tile />
  <tile />
  <tile />
  <tile gid="680" />
  <tile gid="496" />
  <tile gid="620" />
  <tile gid="621" />
  <tile />
  <tile />
  <tile />
  <tile />
  <tile />
  <tile />
  <tile gid="753" />
  <tile gid="386" />
  <tile gid="778" />
  <tile gid="464" />
  <tile gid="620" />
  <tile gid="557" />
  <tile />
  <tile />
  <tile />
  <tile />
  <tile />
  <tile />
  <tile gid="690" />
  <tile gid="691" />
  <tile gid="656" />
  <tile gid="525" />
  <tile gid="588" />
  <tile gid="589" />
  </data></layer></map>