<?xml version='1.0' encoding='utf-8'?>
<map version="1.5" tiledversion="1.7.2" orientation="orthogonal" renderorder="right-down" width="6" height="7" tilewidth="16" tileheight="16" infinite="0" nextlayerid="2" nextobjectid="1"><tileset firstgid="1" name="Fields" tilewidth="16" tileheight="16" tilecount="1024" columns="32"><image source="../../../../Tilesets/Fields.png" width="512" height="512" /></tileset><layer id="1" name="Main" width="6" height="7"><data>
  <tile />
  <tile gid="560" />
  <tile gid="525" />
  <tile gid="525" />
  <tile gid="578" />
  <tile gid="462" />
  <tile />
  <tile />
  <tile gid="560" />
  <tile gid="525" />
  <tile gid="460" />
  <tile gid="462" />
  <tile />
  <tile />
  <tile />
  <tile gid="560" />
  <tile gid="457" />
  <tile gid="497" />
  <tile />
  <tile />
  <tile />
  <tile />
  <tile gid="560" />
  <tile gid="781" />
  <tile />
  <tile />
  <tile />
  <tile gid="777" />
  <tile />
  <tile />
  <tile />
  <tile />
  <tile />
  <tile />
  <tile gid="680" />
  <tile />
  <tile />
  <tile />
  <tile />
  <tile />
  <tile />
  <tile />
  </data></layer></map>