<?xml version='1.0' encoding='utf-8'?>
<map version="1.5" tiledversion="1.7.2" orientation="orthogonal" renderorder="right-down" width="8" height="5" tilewidth="16" tileheight="16" infinite="0" nextlayerid="2" nextobjectid="1"><tileset firstgid="1" name="Fields" tilewidth="16" tileheight="16" tilecount="1024" columns="32"><image source="../../../../Tilesets/Fields.png" width="512" height="512" /></tileset><layer id="1" name="Main" width="8" height="5"><data>
  <tile />
  <tile />
  <tile />
  <tile />
  <tile />
  <tile />
  <tile />
  <tile />
  <tile />
  <tile />
  <tile />
  <tile />
  <tile gid="744" />
  <tile />
  <tile />
  <tile />
  <tile />
  <tile />
  <tile gid="743" />
  <tile gid="592" />
  <tile gid="546" />
  <tile gid="498" />
  <tile />
  <tile />
  <tile />
  <tile gid="750" />
  <tile gid="582" />
  <tile gid="612" />
  <tile gid="522" />
  <tile gid="430" />
  <tile gid="720" />
  <tile />
  <tile gid="385" />
  <tile gid="456" />
  <tile gid="461" />
  <tile gid="584" />
  <tile gid="522" />
  <tile gid="497" />
  <tile />
  <tile />
  </data></layer></map>