<?xml version='1.0' encoding='utf-8'?>
<map version="1.5" tiledversion="1.7.2" orientation="orthogonal" renderorder="right-down" width="11" height="9" tilewidth="16" tileheight="16" infinite="0" nextlayerid="2" nextobjectid="1"><tileset firstgid="1" name="Fields" tilewidth="16" tileheight="16" tilecount="1024" columns="32"><image source="../../../../Tilesets/Fields.png" width="512" height="512" /></tileset><layer id="1" name="Main" width="11" height="9"><data>
  <tile />
  <tile />
  <tile />
  <tile />
  <tile />
  <tile />
  <tile />
  <tile />
  <tile />
  <tile />
  <tile />
  <tile />
  <tile />
  <tile />
  <tile />
  <tile />
  <tile />
  <tile />
  <tile />
  <tile />
  <tile gid="745" />
  <tile />
  <tile />
  <tile />
  <tile />
  <tile />
  <tile />
  <tile />
  <tile />
  <tile />
  <tile gid="528" />
  <tile gid="498" />
  <tile />
  <tile />
  <tile />
  <tile />
  <tile gid="743" />
  <tile />
  <tile />
  <tile />
  <tile gid="656" />
  <tile gid="617" />
  <tile gid="529" />
  <tile />
  <tile />
  <tile />
  <tile gid="592" />
  <tile gid="546" />
  <tile gid="498" />
  <tile gid="744" />
  <tile gid="681" />
  <tile gid="582" />
  <tile gid="624" />
  <tile gid="466" />
  <tile />
  <tile />
  <tile gid="558" />
  <tile gid="615" />
  <tile gid="747" />
  <tile gid="616" />
  <tile gid="454" />
  <tile gid="715" />
  <tile gid="593" />
  <tile gid="749" />
  <tile gid="561" />
  <tile />
  <tile gid="712" />
  <tile gid="749" />
  <tile gid="720" />
  <tile />
  <tile gid="560" />
  <tile gid="559" />
  <tile />
  <tile />
  <tile />
  <tile gid="712" />
  <tile />
  <tile gid="680" />
  <tile />
  <tile />
  <tile />
  <tile />
  <tile />
  <tile />
  <tile />
  <tile />
  <tile />
  <tile />
  <tile />
  <tile />
  <tile />
  <tile />
  <tile />
  <tile />
  <tile />
  <tile />
  <tile />
  <tile />
  <tile />
  </data></layer></map>