<?xml version='1.0' encoding='utf-8'?>
<map version="1.5" tiledversion="1.7.2" orientation="orthogonal" renderorder="right-down" width="9" height="5" tilewidth="16" tileheight="16" infinite="0" nextlayerid="2" nextobjectid="1"><tileset firstgid="1" name="Fields" tilewidth="16" tileheight="16" tilecount="1024" columns="32"><image source="../../../../Tilesets/Fields.png" width="512" height="512" /></tileset><layer id="1" name="Main" width="9" height="5"><data>
  <tile />
  <tile />
  <tile />
  <tile />
  <tile />
  <tile />
  <tile />
  <tile />
  <tile />
  <tile />
  <tile />
  <tile />
  <tile gid="656" />
  <tile gid="751" />
  <tile gid="750" />
  <tile gid="751" />
  <tile />
  <tile />
  <tile />
  <tile />
  <tile gid="627" />
  <tile gid="747" />
  <tile gid="720" />
  <tile gid="560" />
  <tile gid="715" />
  <tile gid="651" />
  <tile gid="746" />
  <tile />
  <tile gid="712" />
  <tile gid="680" />
  <tile />
  <tile />
  <tile />
  <tile gid="680" />
  <tile />
  <tile />
  <tile />
  <tile />
  <tile />
  <tile />
  <tile />
  <tile />
  <tile />
  <tile />
  <tile />
  </data></layer></map>