<?xml version='1.0' encoding='utf-8'?>
<map version="1.5" tiledversion="1.7.2" orientation="orthogonal" renderorder="right-down" width="11" height="6" tilewidth="16" tileheight="16" infinite="0" nextlayerid="2" nextobjectid="1"><tileset firstgid="1" name="Fields" tilewidth="16" tileheight="16" tilecount="1024" columns="32"><image source="../../../../Tilesets/Fields.png" width="512" height="512" /></tileset><layer id="1" name="Main" width="11" height="6"><data>
  <tile />
  <tile />
  <tile />
  <tile />
  <tile />
  <tile />
  <tile />
  <tile />
  <tile />
  <tile />
  <tile />
  <tile />
  <tile />
  <tile />
  <tile />
  <tile />
  <tile gid="743" />
  <tile />
  <tile />
  <tile />
  <tile />
  <tile />
  <tile />
  <tile />
  <tile />
  <tile />
  <tile gid="353" />
  <tile gid="614" />
  <tile gid="626" />
  <tile gid="743" />
  <tile />
  <tile />
  <tile />
  <tile />
  <tile />
  <tile />
  <tile gid="385" />
  <tile gid="748" />
  <tile gid="614" />
  <tile gid="618" />
  <tile gid="582" />
  <tile gid="751" />
  <tile />
  <tile />
  <tile />
  <tile />
  <tile gid="592" />
  <tile gid="356" />
  <tile />
  <tile gid="496" />
  <tile gid="546" />
  <tile gid="354" />
  <tile gid="658" />
  <tile />
  <tile />
  <tile />
  <tile gid="753" />
  <tile gid="524" />
  <tile gid="520" />
  <tile gid="546" />
  <tile gid="584" />
  <tile gid="425" />
  <tile gid="615" />
  <tile gid="514" />
  <tile gid="562" />
  <tile />
  </data></layer></map>