<?xml version='1.0' encoding='utf-8'?>
<map version="1.5" tiledversion="1.7.2" orientation="orthogonal" renderorder="right-down" width="6" height="5" tilewidth="16" tileheight="16" infinite="0" nextlayerid="2" nextobjectid="1"><tileset firstgid="1" name="Fields" tilewidth="16" tileheight="16" tilecount="1024" columns="32"><image source="../../../../Tilesets/Fields.png" width="512" height="512" /></tileset><layer id="1" name="Main" width="6" height="5"><data>
  <tile />
  <tile />
  <tile />
  <tile />
  <tile />
  <tile />
  <tile gid="626" />
  <tile />
  <tile />
  <tile />
  <tile />
  <tile />
  <tile gid="514" />
  <tile gid="498" />
  <tile gid="712" />
  <tile gid="744" />
  <tile />
  <tile />
  <tile gid="387" />
  <tile gid="495" />
  <tile gid="614" />
  <tile gid="492" />
  <tile gid="562" />
  <tile />
  <tile gid="561" />
  <tile />
  <tile gid="496" />
  <tile gid="488" />
  <tile gid="658" />
  <tile />
  </data></layer></map>