<?xml version='1.0' encoding='utf-8'?>
<map version="1.5" tiledversion="1.7.2" orientation="orthogonal" renderorder="right-down" width="7" height="5" tilewidth="16" tileheight="16" infinite="0" nextlayerid="2" nextobjectid="1"><tileset firstgid="1" name="Fields" tilewidth="16" tileheight="16" tilecount="1024" columns="32"><image source="../../../../Tilesets/Fields.png" width="512" height="512" /></tileset><layer id="1" name="Main" width="7" height="5"><data>
  <tile />
  <tile />
  <tile />
  <tile />
  <tile />
  <tile />
  <tile />
  <tile gid="743" />
  <tile />
  <tile />
  <tile />
  <tile />
  <tile />
  <tile />
  <tile gid="523" />
  <tile gid="562" />
  <tile />
  <tile />
  <tile />
  <tile />
  <tile />
  <tile gid="617" />
  <tile gid="466" />
  <tile />
  <tile gid="743" />
  <tile gid="743" />
  <tile />
  <tile />
  <tile gid="513" />
  <tile gid="493" />
  <tile gid="583" />
  <tile gid="580" />
  <tile gid="522" />
  <tile gid="562" />
  <tile />
  </data></layer></map>