<?xml version='1.0' encoding='utf-8'?>
<map version="1.5" tiledversion="1.7.2" orientation="orthogonal" renderorder="right-down" width="5" height="6" tilewidth="16" tileheight="16" infinite="0" nextlayerid="2" nextobjectid="1"><tileset firstgid="1" name="Fields" tilewidth="16" tileheight="16" tilecount="1024" columns="32"><image source="../../../../Tilesets/Fields.png" width="512" height="512" /></tileset><layer id="1" name="Main" width="5" height="6"><data>
  <tile />
  <tile />
  <tile />
  <tile />
  <tile />
  <tile gid="530" />
  <tile gid="743" />
  <tile gid="743" />
  <tile />
  <tile />
  <tile gid="552" />
  <tile gid="425" />
  <tile gid="619" />
  <tile gid="720" />
  <tile />
  <tile gid="583" />
  <tile gid="425" />
  <tile gid="593" />
  <tile />
  <tile />
  <tile gid="495" />
  <tile gid="591" />
  <tile />
  <tile />
  <tile />
  <tile />
  <tile />
  <tile />
  <tile />
  <tile />
  </data></layer></map>