<?xml version='1.0' encoding='utf-8'?>
<map version="1.5" tiledversion="1.7.2" orientation="orthogonal" renderorder="right-down" width="15" height="5" tilewidth="16" tileheight="16" infinite="0" nextlayerid="2" nextobjectid="1"><tileset firstgid="1" name="Fields" tilewidth="16" tileheight="16" tilecount="1024" columns="32"><image source="../../../../Tilesets/Fields.png" width="512" height="512" /></tileset><layer id="1" name="Main" width="15" height="5"><data>
  <tile />
  <tile gid="560" />
  <tile gid="514" />
  <tile gid="430" />
  <tile gid="647" />
  <tile gid="583" />
  <tile gid="588" />
  <tile gid="546" />
  <tile gid="583" />
  <tile gid="581" />
  <tile gid="546" />
  <tile gid="495" />
  <tile gid="591" />
  <tile gid="625" />
  <tile />
  <tile />
  <tile />
  <tile gid="496" />
  <tile gid="581" />
  <tile gid="580" />
  <tile gid="618" />
  <tile gid="584" />
  <tile gid="425" />
  <tile gid="593" />
  <tile gid="560" />
  <tile gid="590" />
  <tile />
  <tile />
  <tile />
  <tile />
  <tile />
  <tile />
  <tile gid="560" />
  <tile gid="716" />
  <tile gid="588" />
  <tile gid="546" />
  <tile gid="495" />
  <tile gid="591" />
  <tile />
  <tile />
  <tile />
  <tile />
  <tile />
  <tile />
  <tile />
  <tile />
  <tile />
  <tile />
  <tile />
  <tile gid="560" />
  <tile gid="590" />
  <tile />
  <tile />
  <tile />
  <tile />
  <tile />
  <tile />
  <tile />
  <tile />
  <tile gid="592" />
  <tile />
  <tile />
  <tile />
  <tile />
  <tile />
  <tile />
  <tile />
  <tile />
  <tile />
  <tile />
  <tile />
  <tile />
  <tile />
  <tile />
  <tile gid="496" />
  </data></layer></map>