<?xml version='1.0' encoding='utf-8'?>
<map version="1.5" tiledversion="1.7.2" orientation="orthogonal" renderorder="right-down" width="20" height="19" tilewidth="16" tileheight="16" infinite="0" nextlayerid="2" nextobjectid="1"><tileset firstgid="1" name="Fields" tilewidth="16" tileheight="16" tilecount="1024" columns="32"><image source="../../../../Tilesets/Fields.png" width="512" height="512" /></tileset><layer id="1" name="Main" width="20" height="19"><data>
  <tile />
  <tile gid="560" />
  <tile gid="546" />
  <tile gid="493" />
  <tile gid="466" />
  <tile />
  <tile />
  <tile />
  <tile />
  <tile />
  <tile />
  <tile />
  <tile />
  <tile />
  <tile />
  <tile />
  <tile />
  <tile />
  <tile gid="560" />
  <tile gid="525" />
  <tile />
  <tile gid="592" />
  <tile gid="457" />
  <tile gid="493" />
  <tile gid="466" />
  <tile />
  <tile />
  <tile />
  <tile />
  <tile />
  <tile />
  <tile />
  <tile />
  <tile />
  <tile />
  <tile />
  <tile />
  <tile />
  <tile />
  <tile gid="560" />
  <tile />
  <tile gid="560" />
  <tile gid="525" />
  <tile gid="546" />
  <tile gid="493" />
  <tile gid="498" />
  <tile />
  <tile />
  <tile />
  <tile />
  <tile />
  <tile />
  <tile />
  <tile />
  <tile />
  <tile />
  <tile />
  <tile />
  <tile />
  <tile />
  <tile />
  <tile />
  <tile gid="496" />
  <tile gid="457" />
  <tile gid="430" />
  <tile gid="497" />
  <tile />
  <tile />
  <tile />
  <tile />
  <tile />
  <tile />
  <tile />
  <tile />
  <tile gid="743" />
  <tile />
  <tile />
  <tile />
  <tile />
  <tile />
  <tile />
  <tile gid="592" />
  <tile gid="525" />
  <tile gid="418" />
  <tile gid="493" />
  <tile gid="529" />
  <tile />
  <tile />
  <tile />
  <tile />
  <tile />
  <tile />
  <tile />
  <tile gid="779" />
  <tile gid="514" />
  <tile gid="498" />
  <tile />
  <tile />
  <tile />
  <tile />
  <tile />
  <tile gid="496" />
  <tile gid="418" />
  <tile gid="619" />
  <tile gid="430" />
  <tile gid="529" />
  <tile />
  <tile />
  <tile />
  <tile />
  <tile />
  <tile />
  <tile gid="680" />
  <tile gid="712" />
  <tile gid="560" />
  <tile gid="514" />
  <tile gid="498" />
  <tile />
  <tile />
  <tile />
  <tile />
  <tile gid="560" />
  <tile gid="457" />
  <tile gid="493" />
  <tile gid="493" />
  <tile gid="497" />
  <tile />
  <tile />
  <tile />
  <tile />
  <tile />
  <tile />
  <tile />
  <tile />
  <tile gid="712" />
  <tile gid="496" />
  <tile gid="546" />
  <tile gid="498" />
  <tile />
  <tile />
  <tile />
  <tile />
  <tile gid="496" />
  <tile gid="546" />
  <tile gid="430" />
  <tile gid="593" />
  <tile />
  <tile />
  <tile />
  <tile />
  <tile />
  <tile />
  <tile />
  <tile />
  <tile />
  <tile gid="496" />
  <tile gid="460" />
  <tile gid="430" />
  <tile gid="498" />
  <tile />
  <tile />
  <tile gid="592" />
  <tile gid="525" />
  <tile gid="425" />
  <tile gid="529" />
  <tile />
  <tile />
  <tile />
  <tile />
  <tile />
  <tile />
  <tile />
  <tile />
  <tile />
  <tile />
  <tile gid="496" />
  <tile gid="460" />
  <tile gid="430" />
  <tile gid="497" />
  <tile />
  <tile />
  <tile gid="560" />
  <tile gid="526" />
  <tile gid="457" />
  <tile gid="529" />
  <tile />
  <tile />
  <tile />
  <tile />
  <tile />
  <tile />
  <tile />
  <tile />
  <tile />
  <tile />
  <tile gid="496" />
  <tile gid="617" />
  <tile gid="430" />
  <tile gid="497" />
  <tile />
  <tile />
  <tile />
  <tile gid="560" />
  <tile gid="588" />
  <tile gid="513" />
  <tile gid="498" />
  <tile />
  <tile />
  <tile />
  <tile />
  <tile />
  <tile />
  <tile />
  <tile />
  <tile />
  <tile gid="496" />
  <tile gid="546" />
  <tile gid="430" />
  <tile gid="593" />
  <tile />
  <tile />
  <tile />
  <tile />
  <tile gid="496" />
  <tile gid="588" />
  <tile gid="513" />
  <tile gid="498" />
  <tile />
  <tile gid="743" />
  <tile />
  <tile />
  <tile gid="743" />
  <tile gid="743" />
  <tile gid="743" />
  <tile gid="592" />
  <tile gid="418" />
  <tile gid="619" />
  <tile gid="593" />
  <tile />
  <tile />
  <tile />
  <tile />
  <tile />
  <tile gid="560" />
  <tile gid="525" />
  <tile gid="588" />
  <tile gid="579" />
  <tile gid="515" />
  <tile gid="513" />
  <tile gid="498" />
  <tile gid="656" />
  <tile gid="617" />
  <tile gid="582" />
  <tile gid="617" />
  <tile gid="584" />
  <tile gid="425" />
  <tile gid="466" />
  <tile />
  <tile />
  <tile />
  <tile />
  <tile />
  <tile />
  <tile />
  <tile gid="560" />
  <tile gid="526" />
  <tile gid="588" />
  <tile gid="589" />
  <tile gid="557" />
  <tile gid="579" />
  <tile gid="617" />
  <tile gid="461" />
  <tile gid="430" />
  <tile gid="717" />
  <tile gid="780" />
  <tile gid="747" />
  <tile gid="593" />
  <tile />
  <tile />
  <tile />
  <tile />
  <tile />
  <tile />
  <tile />
  <tile />
  <tile gid="560" />
  <tile gid="716" />
  <tile gid="525" />
  <tile gid="588" />
  <tile gid="557" />
  <tile gid="618" />
  <tile gid="461" />
  <tile gid="593" />
  <tile />
  <tile />
  <tile />
  <tile />
  <tile />
  <tile />
  <tile />
  <tile />
  <tile />
  <tile />
  <tile />
  <tile />
  <tile />
  <tile />
  <tile gid="560" />
  <tile gid="526" />
  <tile gid="588" />
  <tile gid="523" />
  <tile gid="497" />
  <tile />
  <tile />
  <tile />
  <tile />
  <tile />
  <tile />
  <tile />
  <tile />
  <tile />
  <tile />
  <tile />
  <tile />
  <tile />
  <tile />
  <tile />
  <tile />
  <tile gid="560" />
  <tile gid="525" />
  <tile gid="425" />
  <tile gid="497" />
  <tile />
  <tile />
  <tile />
  <tile />
  <tile />
  <tile />
  <tile />
  <tile />
  <tile />
  <tile />
  <tile />
  <tile />
  <tile />
  <tile />
  <tile />
  <tile />
  <tile />
  <tile gid="560" />
  <tile gid="747" />
  <tile gid="593" />
  <tile />
  <tile />
  <tile />
  <tile />
  <tile />
  <tile />
  <tile />
  <tile />
  <tile />
  <tile />
  <tile />
  <tile />
  <tile />
  <tile />
  <tile />
  <tile />
  <tile />
  <tile />
  <tile />
  <tile />
  <tile />
  <tile />
  <tile />
  <tile />
  <tile />
  <tile />
  <tile />
  <tile />
  </data></layer></map>