<?xml version='1.0' encoding='utf-8'?>
<map version="1.5" tiledversion="1.7.2" orientation="orthogonal" renderorder="right-down" width="12" height="8" tilewidth="16" tileheight="16" infinite="0" nextlayerid="2" nextobjectid="1"><tileset firstgid="1" name="Fields" tilewidth="16" tileheight="16" tilecount="1024" columns="32"><image source="../../../../Tilesets/Fields.png" width="512" height="512" /></tileset><layer id="1" name="Main" width="12" height="8"><data>
  <tile gid="625" />
  <tile />
  <tile />
  <tile />
  <tile />
  <tile />
  <tile />
  <tile />
  <tile />
  <tile />
  <tile />
  <tile />
  <tile />
  <tile />
  <tile />
  <tile />
  <tile />
  <tile />
  <tile gid="743" />
  <tile />
  <tile />
  <tile />
  <tile />
  <tile />
  <tile />
  <tile />
  <tile gid="743" />
  <tile gid="743" />
  <tile gid="743" />
  <tile gid="592" />
  <tile gid="460" />
  <tile gid="530" />
  <tile gid="743" />
  <tile gid="743" />
  <tile />
  <tile />
  <tile />
  <tile gid="592" />
  <tile gid="546" />
  <tile gid="582" />
  <tile gid="581" />
  <tile gid="418" />
  <tile gid="619" />
  <tile gid="552" />
  <tile gid="546" />
  <tile gid="430" />
  <tile gid="720" />
  <tile />
  <tile />
  <tile gid="496" />
  <tile gid="425" />
  <tile gid="561" />
  <tile gid="560" />
  <tile gid="550" />
  <tile gid="546" />
  <tile gid="583" />
  <tile gid="425" />
  <tile gid="593" />
  <tile />
  <tile />
  <tile />
  <tile gid="560" />
  <tile gid="590" />
  <tile gid="625" />
  <tile />
  <tile gid="560" />
  <tile gid="747" />
  <tile gid="495" />
  <tile gid="591" />
  <tile />
  <tile />
  <tile />
  <tile />
  <tile />
  <tile />
  <tile />
  <tile />
  <tile />
  <tile gid="712" />
  <tile />
  <tile />
  <tile />
  <tile />
  <tile />
  <tile gid="743" />
  <tile />
  <tile />
  <tile />
  <tile />
  <tile />
  <tile />
  <tile />
  <tile />
  <tile />
  <tile />
  <tile />
  </data></layer></map>