<?xml version='1.0' encoding='utf-8'?>
<map version="1.5" tiledversion="1.7.2" orientation="orthogonal" renderorder="right-down" width="17" height="10" tilewidth="16" tileheight="16" infinite="0" nextlayerid="2" nextobjectid="1"><tileset firstgid="1" name="Fields" tilewidth="16" tileheight="16" tilecount="1024" columns="32"><image source="../../../../Tilesets/Fields.png" width="512" height="512" /></tileset><layer id="1" name="Main" width="17" height="10"><data>
  <tile />
  <tile />
  <tile />
  <tile />
  <tile />
  <tile />
  <tile />
  <tile />
  <tile />
  <tile />
  <tile />
  <tile gid="560" />
  <tile gid="590" />
  <tile gid="625" />
  <tile />
  <tile gid="560" />
  <tile gid="747" />
  <tile />
  <tile />
  <tile />
  <tile />
  <tile />
  <tile />
  <tile gid="743" />
  <tile gid="743" />
  <tile gid="743" />
  <tile />
  <tile />
  <tile />
  <tile />
  <tile />
  <tile />
  <tile />
  <tile gid="712" />
  <tile />
  <tile />
  <tile />
  <tile />
  <tile />
  <tile gid="592" />
  <tile gid="581" />
  <tile gid="513" />
  <tile gid="430" />
  <tile gid="530" />
  <tile gid="743" />
  <tile />
  <tile />
  <tile />
  <tile />
  <tile />
  <tile />
  <tile />
  <tile />
  <tile />
  <tile gid="743" />
  <tile gid="592" />
  <tile gid="492" />
  <tile gid="584" />
  <tile gid="588" />
  <tile gid="513" />
  <tile gid="554" />
  <tile gid="514" />
  <tile gid="719" />
  <tile />
  <tile />
  <tile />
  <tile />
  <tile />
  <tile />
  <tile />
  <tile gid="592" />
  <tile gid="425" />
  <tile gid="584" />
  <tile gid="588" />
  <tile gid="580" />
  <tile gid="418" />
  <tile gid="647" />
  <tile gid="616" />
  <tile gid="588" />
  <tile gid="545" />
  <tile gid="562" />
  <tile gid="743" />
  <tile gid="743" />
  <tile />
  <tile />
  <tile />
  <tile gid="592" />
  <tile gid="418" />
  <tile gid="619" />
  <tile gid="616" />
  <tile gid="524" />
  <tile gid="418" />
  <tile gid="619" />
  <tile gid="466" />
  <tile gid="560" />
  <tile gid="525" />
  <tile gid="456" />
  <tile gid="430" />
  <tile gid="582" />
  <tile gid="546" />
  <tile gid="719" />
  <tile />
  <tile />
  <tile gid="560" />
  <tile gid="748" />
  <tile gid="561" />
  <tile gid="560" />
  <tile gid="716" />
  <tile gid="457" />
  <tile gid="430" />
  <tile gid="497" />
  <tile />
  <tile gid="560" />
  <tile gid="588" />
  <tile gid="513" />
  <tile gid="554" />
  <tile gid="425" />
  <tile gid="593" />
  <tile />
  <tile />
  <tile />
  <tile />
  <tile />
  <tile />
  <tile />
  <tile gid="560" />
  <tile gid="624" />
  <tile gid="561" />
  <tile />
  <tile />
  <tile gid="560" />
  <tile gid="588" />
  <tile gid="545" />
  <tile gid="591" />
  <tile />
  <tile />
  <tile />
  <tile />
  <tile />
  <tile />
  <tile />
  <tile />
  <tile />
  <tile />
  <tile />
  <tile />
  <tile />
  <tile />
  <tile gid="560" />
  <tile gid="559" />
  <tile />
  <tile />
  <tile />
  <tile />
  <tile />
  <tile />
  <tile />
  <tile />
  <tile />
  <tile />
  <tile />
  <tile />
  <tile />
  <tile />
  <tile />
  <tile />
  <tile />
  <tile />
  <tile />
  <tile />
  </data></layer></map>