<?xml version='1.0' encoding='utf-8'?>
<map version="1.5" tiledversion="1.7.2" orientation="orthogonal" renderorder="right-down" width="9" height="5" tilewidth="16" tileheight="16" infinite="0" nextlayerid="2" nextobjectid="1"><tileset firstgid="1" name="Fields" tilewidth="16" tileheight="16" tilecount="1024" columns="32"><image source="../../../../Tilesets/Fields.png" width="512" height="512" /></tileset><layer id="1" name="Main" width="9" height="5"><data>
  <tile />
  <tile />
  <tile gid="500" />
  <tile />
  <tile />
  <tile />
  <tile />
  <tile />
  <tile />
  <tile />
  <tile />
  <tile />
  <tile />
  <tile gid="743" />
  <tile />
  <tile />
  <tile />
  <tile />
  <tile />
  <tile />
  <tile gid="592" />
  <tile gid="516" />
  <tile gid="545" />
  <tile gid="719" />
  <tile />
  <tile />
  <tile />
  <tile />
  <tile gid="592" />
  <tile gid="556" />
  <tile gid="417" />
  <tile gid="619" />
  <tile gid="430" />
  <tile gid="562" />
  <tile />
  <tile />
  <tile />
  <tile gid="560" />
  <tile gid="588" />
  <tile gid="423" />
  <tile gid="616" />
  <tile gid="618" />
  <tile gid="430" />
  <tile gid="562" />
  <tile />
  </data></layer></map>