<?xml version='1.0' encoding='utf-8'?>
<map version="1.5" tiledversion="1.7.2" orientation="orthogonal" renderorder="right-down" width="14" height="6" tilewidth="16" tileheight="16" infinite="0" nextlayerid="2" nextobjectid="1"><tileset firstgid="1" name="Fields" tilewidth="16" tileheight="16" tilecount="1024" columns="32"><image source="../../../../Tilesets/Fields.png" width="512" height="512" /></tileset><layer id="1" name="Main" width="14" height="6"><data>
  <tile gid="616" />
  <tile gid="647" />
  <tile gid="619" />
  <tile gid="616" />
  <tile gid="525" />
  <tile gid="523" />
  <tile gid="461" />
  <tile gid="429" />
  <tile gid="614" />
  <tile gid="418" />
  <tile gid="718" />
  <tile gid="495" />
  <tile gid="591" />
  <tile />
  <tile gid="525" />
  <tile gid="546" />
  <tile gid="593" />
  <tile gid="560" />
  <tile gid="526" />
  <tile gid="425" />
  <tile gid="493" />
  <tile gid="466" />
  <tile gid="560" />
  <tile gid="460" />
  <tile gid="466" />
  <tile />
  <tile />
  <tile />
  <tile gid="560" />
  <tile gid="523" />
  <tile gid="594" />
  <tile />
  <tile gid="560" />
  <tile gid="747" />
  <tile gid="495" />
  <tile gid="593" />
  <tile />
  <tile gid="749" />
  <tile gid="593" />
  <tile />
  <tile />
  <tile />
  <tile />
  <tile gid="752" />
  <tile />
  <tile />
  <tile />
  <tile />
  <tile />
  <tile />
  <tile />
  <tile />
  <tile />
  <tile />
  <tile />
  <tile />
  <tile gid="680" />
  <tile />
  <tile />
  <tile />
  <tile />
  <tile />
  <tile />
  <tile />
  <tile />
  <tile />
  <tile />
  <tile />
  <tile />
  <tile />
  <tile />
  <tile />
  <tile />
  <tile />
  <tile />
  <tile />
  <tile />
  <tile />
  <tile />
  <tile />
  <tile />
  <tile />
  <tile />
  <tile />
  </data></layer></map>