<?xml version='1.0' encoding='utf-8'?>
<map version="1.5" tiledversion="1.7.2" orientation="orthogonal" renderorder="right-down" width="10" height="5" tilewidth="16" tileheight="16" infinite="0" nextlayerid="2" nextobjectid="1"><tileset firstgid="1" name="Fields" tilewidth="16" tileheight="16" tilecount="1024" columns="32"><image source="../../../../Tilesets/Fields.png" width="512" height="512" /></tileset><layer id="1" name="Main" width="10" height="5"><data>
  <tile />
  <tile />
  <tile />
  <tile />
  <tile />
  <tile />
  <tile />
  <tile />
  <tile />
  <tile />
  <tile />
  <tile />
  <tile />
  <tile />
  <tile gid="750" />
  <tile gid="626" />
  <tile gid="681" />
  <tile gid="746" />
  <tile />
  <tile />
  <tile />
  <tile />
  <tile />
  <tile gid="592" />
  <tile gid="460" />
  <tile gid="614" />
  <tile gid="617" />
  <tile gid="498" />
  <tile />
  <tile />
  <tile />
  <tile />
  <tile gid="592" />
  <tile gid="609" />
  <tile gid="550" />
  <tile gid="419" />
  <tile gid="718" />
  <tile gid="430" />
  <tile gid="594" />
  <tile />
  <tile />
  <tile gid="627" />
  <tile gid="613" />
  <tile gid="423" />
  <tile gid="584" />
  <tile gid="460" />
  <tile gid="616" />
  <tile gid="545" />
  <tile gid="719" />
  <tile />
  </data></layer></map>