<?xml version='1.0' encoding='utf-8'?>
<map version="1.5" tiledversion="1.7.2" orientation="orthogonal" renderorder="right-down" width="7" height="15" tilewidth="16" tileheight="16" infinite="0" nextlayerid="2" nextobjectid="1"><tileset firstgid="1" name="Fields" tilewidth="16" tileheight="16" tilecount="1024" columns="32"><image source="../../../../Tilesets/Fields.png" width="512" height="512" /></tileset><layer id="1" name="Main" width="7" height="15"><data>
  <tile />
  <tile />
  <tile />
  <tile />
  <tile />
  <tile />
  <tile />
  <tile />
  <tile />
  <tile />
  <tile />
  <tile gid="681" />
  <tile />
  <tile />
  <tile />
  <tile />
  <tile />
  <tile gid="592" />
  <tile gid="425" />
  <tile gid="650" />
  <tile />
  <tile />
  <tile />
  <tile gid="656" />
  <tile gid="524" />
  <tile gid="426" />
  <tile gid="529" />
  <tile />
  <tile />
  <tile gid="494" />
  <tile gid="550" />
  <tile gid="417" />
  <tile gid="619" />
  <tile gid="561" />
  <tile />
  <tile />
  <tile gid="464" />
  <tile gid="525" />
  <tile gid="460" />
  <tile gid="529" />
  <tile />
  <tile />
  <tile />
  <tile gid="464" />
  <tile gid="420" />
  <tile gid="619" />
  <tile gid="561" />
  <tile />
  <tile />
  <tile />
  <tile gid="496" />
  <tile gid="457" />
  <tile gid="430" />
  <tile gid="650" />
  <tile gid="746" />
  <tile />
  <tile />
  <tile gid="496" />
  <tile gid="588" />
  <tile gid="546" />
  <tile gid="497" />
  <tile gid="680" />
  <tile />
  <tile />
  <tile gid="690" />
  <tile gid="525" />
  <tile gid="492" />
  <tile gid="430" />
  <tile gid="719" />
  <tile />
  <tile />
  <tile />
  <tile gid="560" />
  <tile gid="588" />
  <tile gid="545" />
  <tile gid="529" />
  <tile />
  <tile />
  <tile />
  <tile />
  <tile gid="431" />
  <tile gid="460" />
  <tile gid="497" />
  <tile />
  <tile />
  <tile />
  <tile />
  <tile gid="560" />
  <tile gid="460" />
  <tile gid="561" />
  <tile />
  <tile />
  <tile />
  <tile />
  <tile />
  <tile gid="752" />
  <tile />
  <tile />
  <tile />
  <tile />
  <tile />
  <tile />
  <tile />
  <tile />
  <tile />
  </data></layer></map>