<?xml version='1.0' encoding='utf-8'?>
<map version="1.5" tiledversion="1.7.2" orientation="orthogonal" renderorder="right-down" width="8" height="7" tilewidth="16" tileheight="16" infinite="0" nextlayerid="2" nextobjectid="1"><tileset firstgid="1" name="Fields" tilewidth="16" tileheight="16" tilecount="1024" columns="32"><image source="../../../../Tilesets/Fields.png" width="512" height="512" /></tileset><layer id="1" name="Main" width="8" height="7"><data>
  <tile />
  <tile />
  <tile />
  <tile />
  <tile />
  <tile />
  <tile />
  <tile />
  <tile />
  <tile />
  <tile />
  <tile gid="744" />
  <tile gid="494" />
  <tile gid="691" />
  <tile gid="778" />
  <tile />
  <tile />
  <tile />
  <tile gid="494" />
  <tile gid="546" />
  <tile gid="530" />
  <tile gid="749" />
  <tile gid="562" />
  <tile />
  <tile />
  <tile />
  <tile gid="753" />
  <tile gid="748" />
  <tile gid="593" />
  <tile gid="753" />
  <tile gid="546" />
  <tile gid="530" />
  <tile />
  <tile />
  <tile gid="752" />
  <tile />
  <tile />
  <tile gid="595" />
  <tile gid="748" />
  <tile gid="561" />
  <tile />
  <tile />
  <tile gid="744" />
  <tile />
  <tile />
  <tile />
  <tile />
  <tile />
  <tile />
  <tile gid="779" />
  <tile gid="781" />
  <tile />
  <tile />
  <tile />
  <tile />
  <tile />
  </data></layer></map>