<?xml version='1.0' encoding='utf-8'?>
<map version="1.5" tiledversion="1.7.2" orientation="orthogonal" renderorder="right-down" width="11" height="15" tilewidth="16" tileheight="16" infinite="0" nextlayerid="2" nextobjectid="1"><tileset firstgid="1" name="Fields" tilewidth="16" tileheight="16" tilecount="1024" columns="32"><image source="../../../../Tilesets/Fields.png" width="512" height="512" /></tileset><layer id="1" name="Main" width="11" height="15"><data>
  <tile />
  <tile />
  <tile />
  <tile />
  <tile />
  <tile />
  <tile />
  <tile />
  <tile />
  <tile />
  <tile />
  <tile />
  <tile />
  <tile />
  <tile />
  <tile />
  <tile />
  <tile />
  <tile />
  <tile />
  <tile gid="494" />
  <tile gid="425" />
  <tile />
  <tile />
  <tile />
  <tile />
  <tile />
  <tile />
  <tile />
  <tile />
  <tile />
  <tile gid="753" />
  <tile gid="457" />
  <tile />
  <tile />
  <tile />
  <tile />
  <tile />
  <tile />
  <tile />
  <tile />
  <tile gid="494" />
  <tile gid="525" />
  <tile gid="452" />
  <tile />
  <tile />
  <tile />
  <tile />
  <tile />
  <tile gid="744" />
  <tile />
  <tile />
  <tile gid="592" />
  <tile gid="525" />
  <tile gid="486" />
  <tile />
  <tile />
  <tile />
  <tile />
  <tile gid="592" />
  <tile gid="427" />
  <tile gid="530" />
  <tile gid="753" />
  <tile gid="525" />
  <tile gid="610" />
  <tile gid="525" />
  <tile />
  <tile />
  <tile />
  <tile gid="753" />
  <tile gid="525" />
  <tile gid="457" />
  <tile gid="493" />
  <tile gid="584" />
  <tile gid="525" />
  <tile gid="486" />
  <tile gid="418" />
  <tile />
  <tile />
  <tile gid="494" />
  <tile gid="525" />
  <tile gid="610" />
  <tile gid="525" />
  <tile gid="546" />
  <tile gid="554" />
  <tile gid="525" />
  <tile gid="418" />
  <tile gid="619" />
  <tile />
  <tile />
  <tile gid="592" />
  <tile gid="452" />
  <tile gid="486" />
  <tile gid="418" />
  <tile gid="619" />
  <tile gid="430" />
  <tile gid="584" />
  <tile gid="425" />
  <tile gid="493" />
  <tile />
  <tile gid="494" />
  <tile gid="418" />
  <tile gid="619" />
  <tile gid="584" />
  <tile gid="457" />
  <tile gid="616" />
  <tile gid="546" />
  <tile gid="462" />
  <tile gid="619" />
  <tile gid="554" />
  <tile />
  <tile gid="627" />
  <tile gid="748" />
  <tile gid="616" />
  <tile gid="546" />
  <tile gid="584" />
  <tile gid="452" />
  <tile gid="550" />
  <tile gid="546" />
  <tile gid="430" />
  <tile gid="552" />
  <tile />
  <tile />
  <tile gid="494" />
  <tile gid="525" />
  <tile gid="457" />
  <tile gid="462" />
  <tile gid="584" />
  <tile gid="525" />
  <tile gid="425" />
  <tile gid="493" />
  <tile gid="583" />
  <tile />
  <tile />
  <tile gid="464" />
  <tile gid="452" />
  <tile gid="525" />
  <tile gid="546" />
  <tile gid="554" />
  <tile gid="525" />
  <tile gid="457" />
  <tile gid="461" />
  <tile gid="462" />
  <tile />
  <tile />
  <tile gid="496" />
  <tile gid="486" />
  <tile gid="525" />
  <tile gid="425" />
  <tile gid="461" />
  <tile gid="584" />
  <tile gid="525" />
  <tile gid="546" />
  <tile gid="552" />
  <tile />
  <tile gid="753" />
  <tile gid="610" />
  <tile gid="525" />
  <tile gid="418" />
  <tile gid="619" />
  <tile gid="552" />
  <tile gid="546" />
  <tile gid="615" />
  <tile gid="523" />
  <tile gid="481" />
  </data></layer></map>