<?xml version='1.0' encoding='utf-8'?>
<map version="1.5" tiledversion="1.7.2" orientation="orthogonal" renderorder="right-down" width="8" height="8" tilewidth="16" tileheight="16" infinite="0" nextlayerid="2" nextobjectid="1"><tileset firstgid="1" name="Fields" tilewidth="16" tileheight="16" tilecount="1024" columns="32"><image source="../../../../Tilesets/Fields.png" width="512" height="512" /></tileset><layer id="1" name="Main" width="8" height="8"><data>
  <tile />
  <tile />
  <tile />
  <tile />
  <tile />
  <tile />
  <tile />
  <tile />
  <tile />
  <tile />
  <tile />
  <tile gid="744" />
  <tile gid="775" />
  <tile />
  <tile />
  <tile />
  <tile />
  <tile />
  <tile gid="592" />
  <tile gid="425" />
  <tile gid="713" />
  <tile gid="777" />
  <tile gid="778" />
  <tile />
  <tile />
  <tile gid="494" />
  <tile gid="418" />
  <tile gid="619" />
  <tile gid="554" />
  <tile gid="751" />
  <tile />
  <tile />
  <tile />
  <tile gid="627" />
  <tile gid="747" />
  <tile gid="780" />
  <tile gid="546" />
  <tile gid="562" />
  <tile />
  <tile />
  <tile />
  <tile />
  <tile />
  <tile gid="627" />
  <tile gid="553" />
  <tile gid="546" />
  <tile gid="594" />
  <tile />
  <tile />
  <tile />
  <tile />
  <tile />
  <tile gid="595" />
  <tile gid="748" />
  <tile gid="594" />
  <tile />
  <tile />
  <tile />
  <tile />
  <tile />
  <tile />
  <tile />
  <tile />
  <tile />
  </data></layer></map>