<?xml version='1.0' encoding='utf-8'?>
<map version="1.5" tiledversion="1.7.2" orientation="orthogonal" renderorder="right-down" width="9" height="10" tilewidth="16" tileheight="16" infinite="0" nextlayerid="2" nextobjectid="1"><tileset firstgid="1" name="Fields" tilewidth="16" tileheight="16" tilecount="1024" columns="32"><image source="../../../../Tilesets/Fields.png" width="512" height="512" /></tileset><layer id="1" name="Main" width="9" height="10"><data>
  <tile />
  <tile />
  <tile />
  <tile />
  <tile />
  <tile />
  <tile />
  <tile />
  <tile />
  <tile />
  <tile />
  <tile />
  <tile />
  <tile gid="743" />
  <tile />
  <tile />
  <tile />
  <tile />
  <tile />
  <tile />
  <tile />
  <tile gid="753" />
  <tile gid="425" />
  <tile gid="562" />
  <tile />
  <tile />
  <tile />
  <tile />
  <tile gid="494" />
  <tile gid="525" />
  <tile gid="556" />
  <tile gid="426" />
  <tile gid="497" />
  <tile />
  <tile />
  <tile />
  <tile />
  <tile />
  <tile gid="496" />
  <tile gid="620" />
  <tile gid="519" />
  <tile gid="545" />
  <tile gid="530" />
  <tile />
  <tile />
  <tile />
  <tile gid="753" />
  <tile gid="418" />
  <tile gid="585" />
  <tile gid="557" />
  <tile gid="423" />
  <tile gid="461" />
  <tile gid="594" />
  <tile />
  <tile />
  <tile gid="496" />
  <tile gid="427" />
  <tile gid="583" />
  <tile gid="418" />
  <tile gid="619" />
  <tile gid="529" />
  <tile />
  <tile />
  <tile />
  <tile gid="595" />
  <tile gid="457" />
  <tile gid="554" />
  <tile gid="748" />
  <tile gid="495" />
  <tile gid="561" />
  <tile />
  <tile />
  <tile />
  <tile />
  <tile gid="595" />
  <tile gid="781" />
  <tile />
  <tile />
  <tile />
  <tile />
  <tile />
  <tile />
  <tile />
  <tile />
  <tile />
  <tile />
  <tile />
  <tile />
  <tile />
  <tile />
  </data></layer></map>