<?xml version='1.0' encoding='utf-8'?>
<map version="1.5" tiledversion="1.7.2" orientation="orthogonal" renderorder="right-down" width="8" height="5" tilewidth="16" tileheight="16" infinite="0" nextlayerid="2" nextobjectid="1"><tileset firstgid="1" name="Fields" tilewidth="16" tileheight="16" tilecount="1024" columns="32"><image source="../../../../Tilesets/Fields.png" width="512" height="512" /></tileset><layer id="1" name="Main" width="8" height="5"><data>
  <tile />
  <tile gid="560" />
  <tile gid="486" />
  <tile gid="525" />
  <tile gid="546" />
  <tile gid="584" />
  <tile gid="486" />
  <tile gid="418" />
  <tile />
  <tile />
  <tile gid="496" />
  <tile gid="418" />
  <tile gid="619" />
  <tile gid="554" />
  <tile gid="525" />
  <tile gid="425" />
  <tile />
  <tile />
  <tile gid="560" />
  <tile gid="748" />
  <tile gid="495" />
  <tile gid="780" />
  <tile gid="418" />
  <tile gid="619" />
  <tile />
  <tile />
  <tile />
  <tile />
  <tile />
  <tile gid="779" />
  <tile gid="748" />
  <tile gid="561" />
  <tile />
  <tile />
  <tile />
  <tile />
  <tile />
  <tile />
  <tile />
  <tile />
  </data></layer></map>