<?xml version='1.0' encoding='utf-8'?>
<map version="1.5" tiledversion="1.7.2" orientation="orthogonal" renderorder="right-down" width="19" height="13" tilewidth="16" tileheight="16" infinite="0" nextlayerid="2" nextobjectid="1"><tileset firstgid="1" name="Fields" tilewidth="16" tileheight="16" tilecount="1024" columns="32"><image source="../../../../Tilesets/Fields.png" width="512" height="512" /></tileset><layer id="1" name="Main" width="19" height="13"><data>
  <tile />
  <tile gid="744" />
  <tile />
  <tile />
  <tile />
  <tile />
  <tile />
  <tile />
  <tile />
  <tile />
  <tile />
  <tile />
  <tile />
  <tile />
  <tile />
  <tile />
  <tile />
  <tile />
  <tile />
  <tile gid="627" />
  <tile gid="425" />
  <tile gid="594" />
  <tile />
  <tile />
  <tile />
  <tile />
  <tile />
  <tile />
  <tile />
  <tile />
  <tile />
  <tile gid="744" />
  <tile />
  <tile />
  <tile />
  <tile />
  <tile />
  <tile />
  <tile gid="592" />
  <tile gid="617" />
  <tile gid="594" />
  <tile />
  <tile />
  <tile />
  <tile />
  <tile />
  <tile />
  <tile />
  <tile />
  <tile gid="753" />
  <tile gid="425" />
  <tile gid="562" />
  <tile gid="776" />
  <tile gid="778" />
  <tile />
  <tile />
  <tile />
  <tile gid="560" />
  <tile gid="781" />
  <tile />
  <tile />
  <tile />
  <tile />
  <tile />
  <tile />
  <tile />
  <tile gid="753" />
  <tile gid="457" />
  <tile gid="422" />
  <tile gid="619" />
  <tile gid="616" />
  <tile gid="546" />
  <tile gid="713" />
  <tile />
  <tile />
  <tile />
  <tile gid="627" />
  <tile gid="386" />
  <tile gid="746" />
  <tile />
  <tile />
  <tile />
  <tile />
  <tile gid="753" />
  <tile gid="426" />
  <tile gid="584" />
  <tile gid="418" />
  <tile gid="619" />
  <tile gid="561" />
  <tile gid="595" />
  <tile gid="748" />
  <tile gid="593" />
  <tile gid="745" />
  <tile gid="746" />
  <tile />
  <tile />
  <tile gid="749" />
  <tile gid="594" />
  <tile />
  <tile />
  <tile />
  <tile />
  <tile gid="496" />
  <tile gid="426" />
  <tile gid="554" />
  <tile gid="747" />
  <tile gid="561" />
  <tile gid="779" />
  <tile gid="751" />
  <tile gid="743" />
  <tile />
  <tile />
  <tile gid="680" />
  <tile />
  <tile />
  <tile />
  <tile />
  <tile />
  <tile />
  <tile />
  <tile gid="753" />
  <tile gid="418" />
  <tile gid="619" />
  <tile gid="497" />
  <tile />
  <tile />
  <tile />
  <tile />
  <tile gid="752" />
  <tile />
  <tile />
  <tile />
  <tile />
  <tile />
  <tile gid="779" />
  <tile gid="652" />
  <tile gid="746" />
  <tile />
  <tile gid="750" />
  <tile gid="584" />
  <tile gid="457" />
  <tile gid="461" />
  <tile gid="593" />
  <tile />
  <tile />
  <tile />
  <tile />
  <tile />
  <tile />
  <tile />
  <tile />
  <tile />
  <tile />
  <tile />
  <tile />
  <tile gid="753" />
  <tile gid="425" />
  <tile gid="582" />
  <tile gid="546" />
  <tile gid="584" />
  <tile gid="781" />
  <tile />
  <tile />
  <tile />
  <tile />
  <tile />
  <tile gid="627" />
  <tile gid="691" />
  <tile gid="778" />
  <tile />
  <tile gid="712" />
  <tile />
  <tile />
  <tile />
  <tile gid="496" />
  <tile gid="425" />
  <tile gid="554" />
  <tile gid="425" />
  <tile gid="561" />
  <tile />
  <tile />
  <tile />
  <tile />
  <tile />
  <tile />
  <tile />
  <tile gid="782" />
  <tile gid="594" />
  <tile />
  <tile />
  <tile />
  <tile />
  <tile />
  <tile gid="595" />
  <tile gid="748" />
  <tile gid="780" />
  <tile gid="559" />
  <tile />
  <tile />
  <tile />
  <tile />
  <tile />
  <tile />
  <tile />
  <tile />
  <tile />
  <tile gid="680" />
  <tile />
  <tile />
  <tile />
  <tile />
  <tile />
  <tile gid="680" />
  <tile gid="776" />
  <tile gid="777" />
  <tile gid="778" />
  <tile gid="712" />
  <tile />
  <tile />
  <tile />
  <tile />
  <tile />
  <tile />
  <tile />
  <tile />
  <tile />
  <tile />
  <tile />
  <tile />
  <tile />
  <tile />
  <tile />
  <tile />
  <tile />
  <tile />
  <tile />
  <tile />
  <tile />
  <tile />
  <tile />
  <tile />
  <tile />
  <tile />
  <tile />
  <tile />
  <tile />
  <tile />
  </data></layer></map>