<?xml version='1.0' encoding='utf-8'?>
<map version="1.5" tiledversion="1.7.2" orientation="orthogonal" renderorder="right-down" width="9" height="22" tilewidth="16" tileheight="16" infinite="0" nextlayerid="2" nextobjectid="1"><tileset firstgid="1" name="Fields" tilewidth="16" tileheight="16" tilecount="1024" columns="32"><image source="../../../../Tilesets/Fields.png" width="512" height="512" /></tileset><layer id="1" name="Main" width="9" height="22"><data>
  <tile gid="554" />
  <tile gid="523" />
  <tile gid="430" />
  <tile gid="582" />
  <tile gid="691" />
  <tile gid="778" />
  <tile />
  <tile />
  <tile />
  <tile gid="546" />
  <tile gid="584" />
  <tile gid="546" />
  <tile gid="554" />
  <tile gid="427" />
  <tile gid="530" />
  <tile />
  <tile />
  <tile />
  <tile gid="617" />
  <tile gid="616" />
  <tile gid="550" />
  <tile gid="546" />
  <tile gid="619" />
  <tile gid="593" />
  <tile />
  <tile />
  <tile />
  <tile gid="586" />
  <tile gid="525" />
  <tile gid="418" />
  <tile gid="619" />
  <tile gid="462" />
  <tile gid="594" />
  <tile />
  <tile />
  <tile />
  <tile gid="481" />
  <tile gid="418" />
  <tile gid="619" />
  <tile gid="461" />
  <tile gid="430" />
  <tile gid="562" />
  <tile />
  <tile />
  <tile />
  <tile gid="525" />
  <tile gid="457" />
  <tile gid="430" />
  <tile gid="493" />
  <tile gid="461" />
  <tile gid="493" />
  <tile gid="530" />
  <tile />
  <tile />
  <tile gid="610" />
  <tile gid="525" />
  <tile gid="546" />
  <tile gid="586" />
  <tile gid="546" />
  <tile gid="461" />
  <tile gid="497" />
  <tile />
  <tile />
  <tile gid="486" />
  <tile gid="418" />
  <tile gid="619" />
  <tile gid="481" />
  <tile gid="457" />
  <tile gid="462" />
  <tile gid="430" />
  <tile gid="530" />
  <tile />
  <tile gid="525" />
  <tile gid="425" />
  <tile gid="586" />
  <tile gid="610" />
  <tile gid="525" />
  <tile gid="546" />
  <tile gid="493" />
  <tile gid="466" />
  <tile />
  <tile gid="525" />
  <tile gid="427" />
  <tile gid="481" />
  <tile gid="486" />
  <tile gid="418" />
  <tile gid="619" />
  <tile gid="465" />
  <tile gid="561" />
  <tile />
  <tile gid="452" />
  <tile gid="525" />
  <tile gid="525" />
  <tile gid="525" />
  <tile gid="425" />
  <tile gid="462" />
  <tile gid="593" />
  <tile />
  <tile />
  <tile gid="486" />
  <tile gid="418" />
  <tile gid="584" />
  <tile gid="418" />
  <tile gid="619" />
  <tile gid="529" />
  <tile />
  <tile />
  <tile />
  <tile gid="418" />
  <tile gid="619" />
  <tile gid="780" />
  <tile gid="748" />
  <tile gid="495" />
  <tile gid="561" />
  <tile />
  <tile />
  <tile />
  <tile gid="457" />
  <tile gid="461" />
  <tile gid="498" />
  <tile />
  <tile />
  <tile />
  <tile />
  <tile />
  <tile />
  <tile gid="525" />
  <tile gid="546" />
  <tile gid="497" />
  <tile />
  <tile />
  <tile />
  <tile />
  <tile />
  <tile />
  <tile gid="418" />
  <tile gid="619" />
  <tile gid="461" />
  <tile gid="594" />
  <tile />
  <tile />
  <tile />
  <tile />
  <tile />
  <tile gid="619" />
  <tile gid="493" />
  <tile gid="493" />
  <tile gid="562" />
  <tile />
  <tile />
  <tile />
  <tile />
  <tile />
  <tile gid="616" />
  <tile gid="546" />
  <tile gid="462" />
  <tile gid="593" />
  <tile />
  <tile />
  <tile />
  <tile />
  <tile />
  <tile gid="418" />
  <tile gid="619" />
  <tile gid="466" />
  <tile />
  <tile />
  <tile />
  <tile />
  <tile />
  <tile />
  <tile gid="427" />
  <tile gid="495" />
  <tile gid="561" />
  <tile />
  <tile />
  <tile />
  <tile />
  <tile />
  <tile />
  <tile gid="559" />
  <tile />
  <tile />
  <tile />
  <tile />
  <tile />
  <tile />
  <tile />
  <tile />
  <tile />
  <tile />
  <tile />
  <tile />
  <tile />
  <tile />
  <tile />
  <tile />
  <tile />
  </data></layer></map>