<?xml version='1.0' encoding='utf-8'?>
<map version="1.5" tiledversion="1.7.2" orientation="orthogonal" renderorder="right-down" width="10" height="14" tilewidth="16" tileheight="16" infinite="0" nextlayerid="2" nextobjectid="1"><tileset firstgid="1" name="Fields" tilewidth="16" tileheight="16" tilecount="1024" columns="32"><image source="../../../../Tilesets/Fields.png" width="512" height="512" /></tileset><layer id="1" name="Main" width="10" height="14"><data>
  <tile />
  <tile />
  <tile />
  <tile />
  <tile />
  <tile gid="595" />
  <tile gid="748" />
  <tile gid="594" />
  <tile />
  <tile />
  <tile gid="498" />
  <tile />
  <tile />
  <tile />
  <tile />
  <tile />
  <tile />
  <tile />
  <tile />
  <tile />
  <tile gid="546" />
  <tile gid="530" />
  <tile />
  <tile />
  <tile />
  <tile />
  <tile />
  <tile />
  <tile />
  <tile />
  <tile gid="457" />
  <tile gid="430" />
  <tile gid="594" />
  <tile />
  <tile />
  <tile />
  <tile />
  <tile />
  <tile />
  <tile />
  <tile gid="595" />
  <tile gid="781" />
  <tile />
  <tile />
  <tile />
  <tile />
  <tile />
  <tile gid="744" />
  <tile />
  <tile />
  <tile gid="627" />
  <tile gid="691" />
  <tile gid="778" />
  <tile />
  <tile />
  <tile />
  <tile gid="753" />
  <tile gid="425" />
  <tile gid="562" />
  <tile />
  <tile gid="753" />
  <tile gid="425" />
  <tile gid="594" />
  <tile />
  <tile />
  <tile gid="753" />
  <tile gid="418" />
  <tile gid="619" />
  <tile gid="593" />
  <tile />
  <tile gid="525" />
  <tile gid="550" />
  <tile gid="691" />
  <tile />
  <tile gid="592" />
  <tile gid="525" />
  <tile gid="425" />
  <tile gid="529" />
  <tile />
  <tile />
  <tile gid="418" />
  <tile gid="585" />
  <tile gid="525" />
  <tile gid="546" />
  <tile gid="584" />
  <tile gid="418" />
  <tile gid="619" />
  <tile gid="497" />
  <tile />
  <tile />
  <tile gid="425" />
  <tile gid="583" />
  <tile gid="418" />
  <tile gid="619" />
  <tile gid="780" />
  <tile gid="748" />
  <tile gid="616" />
  <tile gid="546" />
  <tile gid="562" />
  <tile />
  <tile gid="619" />
  <tile gid="554" />
  <tile gid="425" />
  <tile gid="461" />
  <tile gid="594" />
  <tile />
  <tile gid="595" />
  <tile gid="425" />
  <tile gid="466" />
  <tile />
  <tile gid="495" />
  <tile gid="780" />
  <tile gid="748" />
  <tile gid="561" />
  <tile />
  <tile />
  <tile />
  <tile gid="749" />
  <tile gid="561" />
  <tile />
  <tile gid="751" />
  <tile />
  <tile />
  <tile />
  <tile />
  <tile />
  <tile />
  <tile />
  <tile />
  <tile />
  <tile />
  <tile />
  <tile />
  <tile />
  <tile />
  <tile />
  <tile />
  <tile />
  <tile />
  <tile />
  </data></layer></map>