<?xml version='1.0' encoding='utf-8'?>
<map version="1.5" tiledversion="1.7.2" orientation="orthogonal" renderorder="right-down" width="11" height="7" tilewidth="16" tileheight="16" infinite="0" nextlayerid="2" nextobjectid="1"><tileset firstgid="1" name="Fields" tilewidth="16" tileheight="16" tilecount="1024" columns="32"><image source="../../../../Tilesets/Fields.png" width="512" height="512" /></tileset><layer id="1" name="Main" width="11" height="7"><data>
  <tile gid="715" />
  <tile gid="594" />
  <tile />
  <tile />
  <tile />
  <tile />
  <tile />
  <tile />
  <tile />
  <tile />
  <tile />
  <tile />
  <tile />
  <tile />
  <tile />
  <tile gid="744" />
  <tile />
  <tile />
  <tile gid="775" />
  <tile />
  <tile />
  <tile />
  <tile />
  <tile />
  <tile />
  <tile gid="753" />
  <tile gid="425" />
  <tile gid="562" />
  <tile gid="753" />
  <tile gid="386" />
  <tile gid="659" />
  <tile gid="753" />
  <tile gid="546" />
  <tile />
  <tile gid="680" />
  <tile gid="592" />
  <tile gid="418" />
  <tile gid="619" />
  <tile gid="616" />
  <tile gid="425" />
  <tile gid="586" />
  <tile gid="610" />
  <tile gid="418" />
  <tile gid="619" />
  <tile />
  <tile />
  <tile gid="595" />
  <tile gid="748" />
  <tile gid="616" />
  <tile gid="418" />
  <tile gid="619" />
  <tile gid="490" />
  <tile gid="584" />
  <tile gid="748" />
  <tile gid="495" />
  <tile />
  <tile />
  <tile />
  <tile />
  <tile gid="595" />
  <tile gid="748" />
  <tile gid="780" />
  <tile gid="716" />
  <tile gid="781" />
  <tile />
  <tile />
  <tile />
  <tile />
  <tile />
  <tile />
  <tile />
  <tile />
  <tile />
  <tile />
  <tile />
  <tile />
  <tile />
  </data></layer></map>