<?xml version='1.0' encoding='utf-8'?>
<map version="1.5" tiledversion="1.7.2" orientation="orthogonal" renderorder="right-down" width="10" height="12" tilewidth="16" tileheight="16" infinite="0" nextlayerid="2" nextobjectid="1"><tileset firstgid="1" name="Fields" tilewidth="16" tileheight="16" tilecount="1024" columns="32"><image source="../../../../Tilesets/Fields.png" width="512" height="512" /></tileset><layer id="1" name="Main" width="10" height="12"><data>
  <tile />
  <tile />
  <tile />
  <tile />
  <tile />
  <tile />
  <tile />
  <tile />
  <tile />
  <tile />
  <tile />
  <tile />
  <tile />
  <tile />
  <tile />
  <tile gid="744" />
  <tile />
  <tile />
  <tile />
  <tile />
  <tile />
  <tile />
  <tile />
  <tile />
  <tile gid="779" />
  <tile gid="748" />
  <tile gid="562" />
  <tile />
  <tile />
  <tile />
  <tile />
  <tile />
  <tile />
  <tile />
  <tile />
  <tile gid="753" />
  <tile gid="546" />
  <tile gid="562" />
  <tile />
  <tile />
  <tile />
  <tile />
  <tile />
  <tile gid="753" />
  <tile gid="425" />
  <tile gid="584" />
  <tile gid="427" />
  <tile gid="529" />
  <tile />
  <tile />
  <tile />
  <tile />
  <tile gid="494" />
  <tile gid="418" />
  <tile gid="619" />
  <tile gid="780" />
  <tile gid="748" />
  <tile gid="497" />
  <tile />
  <tile />
  <tile />
  <tile />
  <tile gid="627" />
  <tile gid="748" />
  <tile gid="554" />
  <tile gid="751" />
  <tile gid="779" />
  <tile gid="781" />
  <tile />
  <tile />
  <tile />
  <tile />
  <tile />
  <tile gid="753" />
  <tile gid="546" />
  <tile gid="719" />
  <tile />
  <tile gid="776" />
  <tile gid="778" />
  <tile />
  <tile />
  <tile />
  <tile />
  <tile gid="496" />
  <tile gid="425" />
  <tile gid="554" />
  <tile gid="691" />
  <tile gid="745" />
  <tile gid="746" />
  <tile />
  <tile />
  <tile />
  <tile gid="753" />
  <tile gid="418" />
  <tile gid="619" />
  <tile gid="780" />
  <tile gid="748" />
  <tile gid="594" />
  <tile />
  <tile />
  <tile />
  <tile gid="627" />
  <tile gid="716" />
  <tile gid="748" />
  <tile gid="593" />
  <tile />
  <tile />
  <tile />
  <tile />
  <tile />
  <tile />
  <tile />
  <tile />
  <tile />
  <tile />
  <tile />
  <tile gid="712" />
  <tile />
  <tile />
  <tile />
  </data></layer></map>