<?xml version='1.0' encoding='utf-8'?>
<map version="1.5" tiledversion="1.7.2" orientation="orthogonal" renderorder="right-down" width="10" height="10" tilewidth="16" tileheight="16" infinite="0" nextlayerid="2" nextobjectid="1"><tileset firstgid="1" name="Fields" tilewidth="16" tileheight="16" tilecount="1024" columns="32"><image source="../../../../Tilesets/Fields.png" width="512" height="512" /></tileset><layer id="1" name="Main" width="10" height="10"><data>
  <tile gid="524" />
  <tile gid="545" />
  <tile gid="430" />
  <tile gid="430" />
  <tile gid="430" />
  <tile gid="780" />
  <tile gid="525" />
  <tile gid="424" />
  <tile gid="561" />
  <tile />
  <tile gid="524" />
  <tile gid="617" />
  <tile gid="461" />
  <tile gid="493" />
  <tile gid="497" />
  <tile gid="680" />
  <tile gid="560" />
  <tile gid="559" />
  <tile />
  <tile />
  <tile gid="588" />
  <tile gid="618" />
  <tile gid="493" />
  <tile gid="461" />
  <tile gid="593" />
  <tile />
  <tile />
  <tile />
  <tile />
  <tile />
  <tile gid="496" />
  <tile gid="546" />
  <tile gid="461" />
  <tile gid="593" />
  <tile />
  <tile />
  <tile />
  <tile />
  <tile />
  <tile />
  <tile gid="496" />
  <tile gid="523" />
  <tile gid="593" />
  <tile />
  <tile />
  <tile />
  <tile />
  <tile />
  <tile />
  <tile />
  <tile gid="584" />
  <tile gid="747" />
  <tile gid="594" />
  <tile />
  <tile />
  <tile />
  <tile />
  <tile />
  <tile />
  <tile />
  <tile gid="497" />
  <tile />
  <tile />
  <tile />
  <tile />
  <tile />
  <tile />
  <tile />
  <tile />
  <tile />
  <tile gid="529" />
  <tile />
  <tile />
  <tile />
  <tile />
  <tile />
  <tile />
  <tile gid="558" />
  <tile gid="498" />
  <tile gid="681" />
  <tile gid="497" />
  <tile />
  <tile />
  <tile />
  <tile />
  <tile />
  <tile gid="494" />
  <tile gid="524" />
  <tile gid="579" />
  <tile gid="545" />
  <tile gid="561" />
  <tile />
  <tile />
  <tile />
  <tile />
  <tile gid="712" />
  <tile gid="432" />
  <tile gid="526" />
  <tile gid="588" />
  <tile gid="423" />
  </data></layer></map>