<?xml version='1.0' encoding='utf-8'?>
<map version="1.5" tiledversion="1.7.2" orientation="orthogonal" renderorder="right-down" width="11" height="9" tilewidth="16" tileheight="16" infinite="0" nextlayerid="2" nextobjectid="1"><tileset firstgid="1" name="Fields" tilewidth="16" tileheight="16" tilecount="1024" columns="32"><image source="../../../../Tilesets/Fields.png" width="512" height="512" /></tileset><layer id="1" name="Main" width="11" height="9"><data>
  <tile gid="497" />
  <tile gid="680" />
  <tile gid="560" />
  <tile gid="559" />
  <tile />
  <tile />
  <tile />
  <tile />
  <tile />
  <tile />
  <tile />
  <tile gid="593" />
  <tile />
  <tile />
  <tile />
  <tile />
  <tile />
  <tile />
  <tile />
  <tile />
  <tile gid="558" />
  <tile gid="498" />
  <tile />
  <tile />
  <tile />
  <tile />
  <tile />
  <tile />
  <tile />
  <tile />
  <tile gid="681" />
  <tile gid="619" />
  <tile gid="780" />
  <tile />
  <tile />
  <tile />
  <tile />
  <tile />
  <tile />
  <tile />
  <tile />
  <tile gid="558" />
  <tile gid="529" />
  <tile />
  <tile />
  <tile />
  <tile />
  <tile />
  <tile />
  <tile />
  <tile />
  <tile gid="494" />
  <tile gid="492" />
  <tile gid="466" />
  <tile gid="592" />
  <tile />
  <tile />
  <tile />
  <tile />
  <tile />
  <tile />
  <tile />
  <tile gid="432" />
  <tile gid="588" />
  <tile gid="546" />
  <tile gid="584" />
  <tile />
  <tile />
  <tile />
  <tile gid="558" />
  <tile gid="498" />
  <tile gid="681" />
  <tile gid="746" />
  <tile gid="627" />
  <tile gid="526" />
  <tile gid="617" />
  <tile gid="780" />
  <tile />
  <tile />
  <tile gid="494" />
  <tile gid="524" />
  <tile gid="579" />
  <tile gid="545" />
  <tile gid="562" />
  <tile gid="592" />
  <tile gid="482" />
  <tile gid="466" />
  <tile />
  <tile />
  <tile gid="712" />
  <tile gid="432" />
  <tile gid="526" />
  <tile gid="588" />
  <tile gid="423" />
  <tile gid="466" />
  <tile gid="496" />
  <tile gid="426" />
  <tile gid="529" />
  <tile gid="627" />
  </data></layer></map>