<?xml version='1.0' encoding='utf-8'?>
<map version="1.5" tiledversion="1.7.2" orientation="orthogonal" renderorder="right-down" width="15" height="10" tilewidth="16" tileheight="16" infinite="0" nextlayerid="2" nextobjectid="1"><tileset firstgid="1" name="Fields" tilewidth="16" tileheight="16" tilecount="1024" columns="32"><image source="../../../../Tilesets/Fields.png" width="512" height="512" /></tileset><layer id="1" name="Main" width="15" height="10"><data>
  <tile />
  <tile />
  <tile />
  <tile gid="749" />
  <tile gid="594" />
  <tile />
  <tile />
  <tile />
  <tile gid="753" />
  <tile gid="486" />
  <tile gid="621" />
  <tile gid="658" />
  <tile gid="592" />
  <tile gid="427" />
  <tile gid="582" />
  <tile />
  <tile />
  <tile />
  <tile />
  <tile />
  <tile />
  <tile gid="712" />
  <tile gid="592" />
  <tile gid="387" />
  <tile gid="584" />
  <tile gid="588" />
  <tile gid="513" />
  <tile gid="615" />
  <tile gid="425" />
  <tile gid="493" />
  <tile />
  <tile />
  <tile />
  <tile />
  <tile gid="627" />
  <tile gid="751" />
  <tile gid="592" />
  <tile gid="524" />
  <tile gid="563" />
  <tile gid="430" />
  <tile gid="584" />
  <tile gid="588" />
  <tile gid="420" />
  <tile gid="619" />
  <tile gid="586" />
  <tile gid="743" />
  <tile gid="775" />
  <tile />
  <tile />
  <tile />
  <tile gid="680" />
  <tile gid="690" />
  <tile gid="526" />
  <tile gid="425" />
  <tile gid="430" />
  <tile gid="554" />
  <tile gid="418" />
  <tile gid="619" />
  <tile gid="430" />
  <tile gid="551" />
  <tile gid="460" />
  <tile gid="719" />
  <tile gid="743" />
  <tile />
  <tile />
  <tile gid="627" />
  <tile gid="751" />
  <tile gid="690" />
  <tile gid="748" />
  <tile gid="495" />
  <tile gid="586" />
  <tile gid="492" />
  <tile gid="430" />
  <tile gid="493" />
  <tile gid="561" />
  <tile gid="617" />
  <tile gid="616" />
  <tile gid="427" />
  <tile gid="530" />
  <tile />
  <tile />
  <tile gid="744" />
  <tile gid="775" />
  <tile />
  <tile />
  <tile gid="560" />
  <tile gid="588" />
  <tile gid="546" />
  <tile gid="465" />
  <tile gid="594" />
  <tile gid="552" />
  <tile gid="420" />
  <tile gid="619" />
  <tile gid="497" />
  <tile gid="680" />
  <tile gid="385" />
  <tile gid="518" />
  <tile gid="691" />
  <tile gid="778" />
  <tile />
  <tile gid="680" />
  <tile gid="690" />
  <tile gid="748" />
  <tile gid="593" />
  <tile gid="627" />
  <tile gid="615" />
  <tile gid="457" />
  <tile gid="430" />
  <tile gid="614" />
  <tile gid="386" />
  <tile gid="551" />
  <tile gid="524" />
  <tile gid="617" />
  <tile gid="530" />
  <tile gid="775" />
  <tile />
  <tile />
  <tile />
  <tile />
  <tile />
  <tile gid="583" />
  <tile gid="524" />
  <tile gid="581" />
  <tile gid="556" />
  <tile gid="577" />
  <tile gid="552" />
  <tile gid="556" />
  <tile gid="546" />
  <tile gid="430" />
  <tile gid="650" />
  <tile gid="746" />
  <tile />
  <tile />
  <tile />
  <tile />
  <tile gid="430" />
  <tile gid="584" />
  <tile gid="526" />
  <tile gid="588" />
  <tile gid="589" />
  <tile gid="515" />
  <tile gid="452" />
  <tile gid="425" />
  <tile gid="462" />
  <tile gid="461" />
  <tile gid="530" />
  <tile />
  <tile />
  <tile />
  <tile />
  </data></layer></map>