<?xml version='1.0' encoding='utf-8'?>
<map version="1.5" tiledversion="1.7.2" orientation="orthogonal" renderorder="right-down" width="14" height="6" tilewidth="16" tileheight="16" infinite="0" nextlayerid="2" nextobjectid="1"><tileset firstgid="1" name="Fields" tilewidth="16" tileheight="16" tilecount="1024" columns="32"><image source="../../../../Tilesets/Fields.png" width="512" height="512" /></tileset><layer id="1" name="Main" width="14" height="6"><data>
  <tile />
  <tile gid="627" />
  <tile gid="716" />
  <tile gid="425" />
  <tile gid="561" />
  <tile gid="749" />
  <tile gid="717" />
  <tile gid="495" />
  <tile gid="780" />
  <tile gid="716" />
  <tile gid="588" />
  <tile gid="557" />
  <tile gid="451" />
  <tile gid="524" />
  <tile />
  <tile />
  <tile />
  <tile gid="752" />
  <tile gid="648" />
  <tile />
  <tile />
  <tile />
  <tile />
  <tile />
  <tile gid="496" />
  <tile gid="588" />
  <tile gid="611" />
  <tile gid="525" />
  <tile />
  <tile />
  <tile />
  <tile />
  <tile />
  <tile />
  <tile />
  <tile />
  <tile />
  <tile />
  <tile gid="560" />
  <tile gid="716" />
  <tile gid="613" />
  <tile gid="417" />
  <tile />
  <tile />
  <tile />
  <tile />
  <tile />
  <tile />
  <tile />
  <tile />
  <tile />
  <tile />
  <tile />
  <tile />
  <tile gid="690" />
  <tile gid="748" />
  <tile />
  <tile />
  <tile />
  <tile />
  <tile />
  <tile />
  <tile />
  <tile />
  <tile />
  <tile />
  <tile />
  <tile />
  <tile />
  <tile gid="712" />
  <tile gid="750" />
  <tile gid="713" />
  <tile gid="746" />
  <tile />
  <tile />
  <tile />
  <tile />
  <tile />
  <tile />
  <tile />
  <tile />
  <tile />
  <tile />
  <tile />
  </data></layer></map>