<?xml version='1.0' encoding='utf-8'?>
<map version="1.5" tiledversion="1.7.2" orientation="orthogonal" renderorder="right-down" width="13" height="6" tilewidth="16" tileheight="16" infinite="0" nextlayerid="2" nextobjectid="1"><tileset firstgid="1" name="Fields" tilewidth="16" tileheight="16" tilecount="1024" columns="32"><image source="../../../../Tilesets/Fields.png" width="512" height="512" /></tileset><layer id="1" name="Main" width="13" height="6"><data>
  <tile />
  <tile />
  <tile />
  <tile />
  <tile />
  <tile />
  <tile />
  <tile />
  <tile />
  <tile />
  <tile />
  <tile />
  <tile />
  <tile />
  <tile gid="750" />
  <tile gid="713" />
  <tile gid="746" />
  <tile />
  <tile />
  <tile />
  <tile />
  <tile />
  <tile />
  <tile />
  <tile />
  <tile />
  <tile gid="581" />
  <tile gid="426" />
  <tile gid="430" />
  <tile gid="562" />
  <tile />
  <tile />
  <tile />
  <tile />
  <tile />
  <tile />
  <tile />
  <tile />
  <tile />
  <tile gid="556" />
  <tile gid="617" />
  <tile gid="493" />
  <tile gid="497" />
  <tile gid="385" />
  <tile gid="626" />
  <tile />
  <tile />
  <tile />
  <tile />
  <tile />
  <tile />
  <tile />
  <tile gid="451" />
  <tile gid="514" />
  <tile gid="430" />
  <tile gid="461" />
  <tile gid="582" />
  <tile gid="580" />
  <tile gid="458" />
  <tile gid="498" />
  <tile gid="750" />
  <tile gid="751" />
  <tile />
  <tile />
  <tile />
  <tile gid="485" />
  <tile gid="620" />
  <tile gid="580" />
  <tile gid="513" />
  <tile gid="552" />
  <tile gid="588" />
  <tile gid="452" />
  <tile gid="546" />
  <tile gid="582" />
  <tile gid="579" />
  <tile gid="426" />
  <tile gid="719" />
  <tile />
  </data></layer></map>