<?xml version='1.0' encoding='utf-8'?>
<map version="1.5" tiledversion="1.7.2" orientation="orthogonal" renderorder="right-down" width="6" height="6" tilewidth="16" tileheight="16" infinite="0" nextlayerid="2" nextobjectid="1"><tileset firstgid="1" name="Fields" tilewidth="16" tileheight="16" tilecount="1024" columns="32"><image source="../../../../Tilesets/Fields.png" width="512" height="512" /></tileset><layer id="1" name="Main" width="6" height="6"><data>
  <tile />
  <tile gid="496" />
  <tile gid="482" />
  <tile gid="584" />
  <tile gid="524" />
  <tile gid="588" />
  <tile />
  <tile gid="560" />
  <tile gid="523" />
  <tile gid="780" />
  <tile gid="525" />
  <tile gid="524" />
  <tile />
  <tile gid="627" />
  <tile gid="590" />
  <tile gid="648" />
  <tile gid="690" />
  <tile gid="526" />
  <tile />
  <tile />
  <tile />
  <tile />
  <tile gid="627" />
  <tile gid="526" />
  <tile />
  <tile />
  <tile />
  <tile gid="680" />
  <tile gid="712" />
  <tile gid="690" />
  <tile />
  <tile />
  <tile />
  <tile />
  <tile />
  <tile />
  </data></layer></map>