<?xml version="1.0" encoding="UTF-8"?>
<map version="1.5" tiledversion="1.7.2" orientation="orthogonal" renderorder="right-down" width="19" height="17" tilewidth="16" tileheight="16" infinite="0" nextlayerid="2" nextobjectid="1">
 <tileset firstgid="1" name="Fields" tilewidth="16" tileheight="16" tilecount="1024" columns="32">
  <image source="FieldsPale.png" trans="ffffff" width="512" height="512"/>
 </tileset>
 <layer id="1" name="Tile Layer 1" width="19" height="17">
  <properties>
   <property name="Main" value=""/>
  </properties>
  <data>
   <tile gid="424"/>
   <tile gid="584"/>
   <tile gid="781"/>
   <tile gid="67"/>
   <tile gid="67"/>
   <tile gid="993"/>
   <tile gid="597"/>
   <tile gid="599"/>
   <tile gid="595"/>
   <tile gid="748"/>
   <tile gid="481"/>
   <tile gid="418"/>
   <tile gid="619"/>
   <tile gid="717"/>
   <tile gid="593"/>
   <tile gid="601"/>
   <tile gid="721"/>
   <tile gid="742"/>
   <tile gid="774"/>
   <tile gid="748"/>
   <tile gid="593"/>
   <tile gid="721"/>
   <tile gid="721"/>
   <tile gid="993"/>
   <tile gid="721"/>
   <tile gid="602"/>
   <tile gid="721"/>
   <tile gid="721"/>
   <tile gid="721"/>
   <tile gid="595"/>
   <tile gid="748"/>
   <tile gid="561"/>
   <tile gid="197"/>
   <tile gid="676"/>
   <tile gid="565"/>
   <tile gid="674"/>
   <tile gid="230"/>
   <tile gid="229"/>
   <tile gid="632"/>
   <tile gid="631"/>
   <tile gid="721"/>
   <tile gid="721"/>
   <tile gid="632"/>
   <tile gid="572"/>
   <tile gid="599"/>
   <tile gid="721"/>
   <tile gid="67"/>
   <tile gid="71"/>
   <tile gid="46"/>
   <tile gid="721"/>
   <tile gid="677"/>
   <tile gid="770"/>
   <tile gid="230"/>
   <tile gid="602"/>
   <tile gid="721"/>
   <tile gid="805"/>
   <tile gid="721"/>
   <tile gid="599"/>
   <tile gid="601"/>
   <tile gid="632"/>
   <tile gid="35"/>
   <tile gid="630"/>
   <tile gid="67"/>
   <tile gid="67"/>
   <tile gid="721"/>
   <tile gid="71"/>
   <tile gid="82"/>
   <tile gid="654"/>
   <tile gid="67"/>
   <tile gid="67"/>
   <tile gid="67"/>
   <tile gid="805"/>
   <tile gid="629"/>
   <tile gid="540"/>
   <tile gid="598"/>
   <tile gid="721"/>
   <tile gid="721"/>
   <tile gid="600"/>
   <tile gid="630"/>
   <tile gid="397"/>
   <tile gid="67"/>
   <tile gid="67"/>
   <tile gid="67"/>
   <tile gid="71"/>
   <tile gid="115"/>
   <tile gid="39"/>
   <tile gid="46"/>
   <tile gid="67"/>
   <tile gid="67"/>
   <tile gid="67"/>
   <tile gid="67"/>
   <tile gid="721"/>
   <tile gid="632"/>
   <tile gid="630"/>
   <tile gid="805"/>
   <tile gid="67"/>
   <tile gid="1023"/>
   <tile gid="205"/>
   <tile gid="402"/>
   <tile gid="210"/>
   <tile gid="67"/>
   <tile gid="67"/>
   <tile gid="933"/>
   <tile gid="721"/>
   <tile gid="47"/>
   <tile gid="721"/>
   <tile gid="67"/>
   <tile gid="67"/>
   <tile gid="67"/>
   <tile gid="67"/>
   <tile gid="396"/>
   <tile gid="600"/>
   <tile gid="598"/>
   <tile gid="721"/>
   <tile gid="72"/>
   <tile gid="721"/>
   <tile gid="265"/>
   <tile gid="298"/>
   <tile gid="67"/>
   <tile gid="783"/>
   <tile gid="744"/>
   <tile gid="721"/>
   <tile gid="721"/>
   <tile gid="775"/>
   <tile gid="721"/>
   <tile gid="786"/>
   <tile gid="743"/>
   <tile gid="805"/>
   <tile gid="209"/>
   <tile gid="177"/>
   <tile gid="933"/>
   <tile gid="3"/>
   <tile gid="721"/>
   <tile gid="144"/>
   <tile gid="199"/>
   <tile gid="402"/>
   <tile gid="238"/>
   <tile gid="993"/>
   <tile gid="753"/>
   <tile gid="425"/>
   <tile gid="562"/>
   <tile gid="753"/>
   <tile gid="386"/>
   <tile gid="659"/>
   <tile gid="753"/>
   <tile gid="546"/>
   <tile gid="713"/>
   <tile gid="746"/>
   <tile gid="145"/>
   <tile gid="200"/>
   <tile gid="629"/>
   <tile gid="631"/>
   <tile gid="82"/>
   <tile gid="361"/>
   <tile gid="302"/>
   <tile gid="680"/>
   <tile gid="592"/>
   <tile gid="418"/>
   <tile gid="619"/>
   <tile gid="616"/>
   <tile gid="425"/>
   <tile gid="586"/>
   <tile gid="610"/>
   <tile gid="418"/>
   <tile gid="619"/>
   <tile gid="497"/>
   <tile gid="721"/>
   <tile gid="231"/>
   <tile gid="178"/>
   <tile gid="210"/>
   <tile gid="601"/>
   <tile gid="104"/>
   <tile gid="67"/>
   <tile gid="67"/>
   <tile gid="721"/>
   <tile gid="595"/>
   <tile gid="748"/>
   <tile gid="616"/>
   <tile gid="418"/>
   <tile gid="619"/>
   <tile gid="490"/>
   <tile gid="584"/>
   <tile gid="748"/>
   <tile gid="495"/>
   <tile gid="561"/>
   <tile gid="721"/>
   <tile gid="632"/>
   <tile gid="564"/>
   <tile gid="564"/>
   <tile gid="599"/>
   <tile gid="67"/>
   <tile gid="67"/>
   <tile gid="993"/>
   <tile gid="777"/>
   <tile gid="996"/>
   <tile gid="721"/>
   <tile gid="595"/>
   <tile gid="748"/>
   <tile gid="780"/>
   <tile gid="716"/>
   <tile gid="781"/>
   <tile gid="721"/>
   <tile gid="721"/>
   <tile gid="805"/>
   <tile gid="721"/>
   <tile gid="629"/>
   <tile gid="704"/>
   <tile gid="630"/>
   <tile gid="805"/>
   <tile gid="67"/>
   <tile gid="67"/>
   <tile gid="67"/>
   <tile gid="67"/>
   <tile gid="67"/>
   <tile gid="67"/>
   <tile gid="67"/>
   <tile gid="67"/>
   <tile gid="67"/>
   <tile gid="67"/>
   <tile gid="1024"/>
   <tile gid="15"/>
   <tile gid="721"/>
   <tile gid="15"/>
   <tile gid="67"/>
   <tile gid="721"/>
   <tile gid="629"/>
   <tile gid="598"/>
   <tile gid="805"/>
   <tile gid="67"/>
   <tile gid="721"/>
   <tile gid="67"/>
   <tile gid="994"/>
   <tile gid="67"/>
   <tile gid="67"/>
   <tile gid="67"/>
   <tile gid="67"/>
   <tile gid="67"/>
   <tile gid="67"/>
   <tile gid="67"/>
   <tile gid="143"/>
   <tile gid="83"/>
   <tile gid="104"/>
   <tile gid="67"/>
   <tile gid="783"/>
   <tile gid="805"/>
   <tile gid="629"/>
   <tile gid="539"/>
   <tile gid="994"/>
   <tile gid="75"/>
   <tile gid="16"/>
   <tile gid="67"/>
   <tile gid="721"/>
   <tile gid="67"/>
   <tile gid="67"/>
   <tile gid="67"/>
   <tile gid="67"/>
   <tile gid="67"/>
   <tile gid="67"/>
   <tile gid="143"/>
   <tile gid="104"/>
   <tile gid="15"/>
   <tile gid="721"/>
   <tile gid="721"/>
   <tile gid="743"/>
   <tile gid="750"/>
   <tile gid="751"/>
   <tile gid="141"/>
   <tile gid="73"/>
   <tile gid="104"/>
   <tile gid="67"/>
   <tile gid="721"/>
   <tile gid="67"/>
   <tile gid="721"/>
   <tile gid="721"/>
   <tile gid="67"/>
   <tile gid="67"/>
   <tile gid="67"/>
   <tile gid="103"/>
   <tile gid="83"/>
   <tile gid="104"/>
   <tile gid="721"/>
   <tile gid="750"/>
   <tile gid="582"/>
   <tile gid="425"/>
   <tile gid="650"/>
   <tile gid="103"/>
   <tile gid="115"/>
   <tile gid="72"/>
   <tile gid="76"/>
   <tile gid="994"/>
   <tile gid="75"/>
   <tile gid="16"/>
   <tile gid="142"/>
   <tile gid="721"/>
   <tile gid="721"/>
   <tile gid="67"/>
   <tile gid="71"/>
   <tile gid="104"/>
   <tile gid="721"/>
   <tile gid="721"/>
   <tile gid="431"/>
   <tile gid="546"/>
   <tile gid="619"/>
   <tile gid="780"/>
   <tile gid="721"/>
   <tile gid="107"/>
   <tile gid="111"/>
   <tile gid="108"/>
   <tile gid="67"/>
   <tile gid="137"/>
   <tile gid="39"/>
   <tile gid="7"/>
   <tile gid="83"/>
   <tile gid="72"/>
   <tile gid="67"/>
   <tile gid="47"/>
   <tile gid="721"/>
   <tile gid="721"/>
   <tile gid="627"/>
   <tile gid="526"/>
   <tile gid="550"/>
   <tile gid="546"/>
   <tile gid="683"/>
  </data>
 </layer>
</map>
