<?xml version='1.0' encoding='utf-8'?>
<map version="1.5" tiledversion="1.7.2" orientation="orthogonal" renderorder="right-down" width="9" height="7" tilewidth="16" tileheight="16" infinite="0" nextlayerid="2" nextobjectid="1"><tileset firstgid="1" name="Fields" tilewidth="16" tileheight="16" tilecount="1024" columns="32"><image source="../../../../Tilesets/Fields.png" width="512" height="512" /></tileset><layer id="1" name="Main" width="9" height="7"><data>
  <tile />
  <tile />
  <tile />
  <tile />
  <tile />
  <tile />
  <tile />
  <tile />
  <tile />
  <tile gid="57" />
  <tile />
  <tile />
  <tile />
  <tile gid="56" />
  <tile gid="57" />
  <tile gid="56" />
  <tile gid="53" />
  <tile />
  <tile />
  <tile gid="53" />
  <tile gid="119" />
  <tile gid="56" />
  <tile />
  <tile />
  <tile />
  <tile gid="125" />
  <tile />
  <tile />
  <tile />
  <tile />
  <tile />
  <tile />
  <tile />
  <tile />
  <tile gid="23" />
  <tile />
  <tile />
  <tile gid="23" />
  <tile gid="28" />
  <tile gid="85" />
  <tile gid="86" />
  <tile gid="87" />
  <tile gid="27" />
  <tile />
  <tile />
  <tile gid="27" />
  <tile />
  <tile />
  <tile />
  <tile />
  <tile />
  <tile />
  <tile />
  <tile />
  <tile />
  <tile />
  <tile />
  <tile />
  <tile />
  <tile />
  <tile />
  <tile />
  <tile />
  </data></layer></map>