<?xml version='1.0' encoding='utf-8'?>
<map version="1.5" tiledversion="1.7.2" orientation="orthogonal" renderorder="right-down" width="6" height="9" tilewidth="16" tileheight="16" infinite="0" nextlayerid="2" nextobjectid="1"><tileset firstgid="1" name="Fields" tilewidth="16" tileheight="16" tilecount="1024" columns="32"><image source="../../../../Tilesets/Fields.png" width="512" height="512" /></tileset><layer id="1" name="Main" width="6" height="9"><data>
  <tile />
  <tile />
  <tile />
  <tile gid="126" />
  <tile gid="93" />
  <tile />
  <tile />
  <tile gid="117" />
  <tile gid="58" />
  <tile />
  <tile gid="23" />
  <tile />
  <tile gid="58" />
  <tile />
  <tile />
  <tile gid="25" />
  <tile />
  <tile />
  <tile />
  <tile />
  <tile gid="123" />
  <tile />
  <tile />
  <tile />
  <tile />
  <tile />
  <tile gid="27" />
  <tile />
  <tile />
  <tile />
  <tile gid="22" />
  <tile />
  <tile gid="57" />
  <tile />
  <tile />
  <tile />
  <tile />
  <tile gid="24" />
  <tile gid="125" />
  <tile />
  <tile />
  <tile />
  <tile />
  <tile />
  <tile gid="26" />
  <tile gid="53" />
  <tile />
  <tile />
  <tile />
  <tile />
  <tile />
  <tile />
  <tile />
  <tile />
  </data></layer></map>