<?xml version='1.0' encoding='utf-8'?>
<map version="1.5" tiledversion="1.7.2" orientation="orthogonal" renderorder="right-down" width="22" height="13" tilewidth="16" tileheight="16" infinite="0" nextlayerid="2" nextobjectid="1"><tileset firstgid="1" name="Fields" tilewidth="16" tileheight="16" tilecount="1024" columns="32"><image source="../../../../Tilesets/Fields.png" width="512" height="512" /></tileset><layer id="1" name="Main" width="22" height="13"><data>
  <tile gid="117" />
  <tile gid="54" />
  <tile />
  <tile />
  <tile />
  <tile />
  <tile />
  <tile />
  <tile />
  <tile />
  <tile />
  <tile />
  <tile />
  <tile />
  <tile />
  <tile />
  <tile />
  <tile />
  <tile />
  <tile />
  <tile />
  <tile />
  <tile />
  <tile />
  <tile />
  <tile />
  <tile gid="89" />
  <tile />
  <tile />
  <tile />
  <tile />
  <tile />
  <tile />
  <tile />
  <tile gid="53" />
  <tile gid="58" />
  <tile gid="55" />
  <tile />
  <tile />
  <tile />
  <tile />
  <tile />
  <tile />
  <tile />
  <tile />
  <tile />
  <tile />
  <tile gid="21" />
  <tile />
  <tile gid="126" />
  <tile />
  <tile />
  <tile />
  <tile />
  <tile />
  <tile />
  <tile />
  <tile />
  <tile />
  <tile />
  <tile />
  <tile />
  <tile />
  <tile />
  <tile />
  <tile />
  <tile />
  <tile />
  <tile gid="27" />
  <tile />
  <tile />
  <tile gid="24" />
  <tile />
  <tile />
  <tile />
  <tile />
  <tile />
  <tile />
  <tile />
  <tile />
  <tile />
  <tile />
  <tile />
  <tile />
  <tile />
  <tile />
  <tile />
  <tile />
  <tile />
  <tile gid="27" />
  <tile />
  <tile />
  <tile />
  <tile />
  <tile gid="28" />
  <tile />
  <tile />
  <tile />
  <tile />
  <tile />
  <tile />
  <tile />
  <tile />
  <tile />
  <tile gid="90" />
  <tile />
  <tile />
  <tile />
  <tile />
  <tile />
  <tile />
  <tile gid="53" />
  <tile />
  <tile />
  <tile />
  <tile />
  <tile />
  <tile gid="22" />
  <tile />
  <tile />
  <tile />
  <tile />
  <tile />
  <tile />
  <tile />
  <tile />
  <tile />
  <tile gid="28" />
  <tile />
  <tile />
  <tile />
  <tile />
  <tile />
  <tile />
  <tile gid="59" />
  <tile />
  <tile />
  <tile />
  <tile />
  <tile />
  <tile gid="28" />
  <tile gid="88" />
  <tile />
  <tile />
  <tile />
  <tile />
  <tile />
  <tile />
  <tile />
  <tile />
  <tile gid="124" />
  <tile />
  <tile />
  <tile />
  <tile />
  <tile />
  <tile />
  <tile gid="55" />
  <tile />
  <tile />
  <tile />
  <tile />
  <tile />
  <tile />
  <tile gid="24" />
  <tile />
  <tile gid="27" />
  <tile />
  <tile />
  <tile />
  <tile />
  <tile />
  <tile gid="126" />
  <tile />
  <tile />
  <tile />
  <tile />
  <tile />
  <tile />
  <tile />
  <tile gid="53" />
  <tile gid="119" />
  <tile />
  <tile />
  <tile />
  <tile />
  <tile />
  <tile gid="124" />
  <tile gid="55" />
  <tile />
  <tile />
  <tile />
  <tile />
  <tile gid="56" />
  <tile />
  <tile />
  <tile />
  <tile />
  <tile />
  <tile />
  <tile />
  <tile />
  <tile />
  <tile gid="125" />
  <tile />
  <tile />
  <tile />
  <tile />
  <tile />
  <tile gid="126" />
  <tile />
  <tile gid="53" />
  <tile />
  <tile />
  <tile />
  <tile gid="126" />
  <tile />
  <tile />
  <tile />
  <tile />
  <tile />
  <tile />
  <tile />
  <tile />
  <tile />
  <tile />
  <tile gid="55" />
  <tile />
  <tile />
  <tile />
  <tile />
  <tile gid="124" />
  <tile />
  <tile />
  <tile gid="53" />
  <tile gid="117" />
  <tile gid="54" />
  <tile />
  <tile gid="125" />
  <tile />
  <tile />
  <tile />
  <tile />
  <tile />
  <tile />
  <tile />
  <tile />
  <tile />
  <tile gid="123" />
  <tile />
  <tile />
  <tile />
  <tile gid="60" />
  <tile />
  <tile />
  <tile />
  <tile />
  <tile />
  <tile />
  <tile />
  <tile />
  <tile gid="53" />
  <tile />
  <tile />
  <tile />
  <tile />
  <tile />
  <tile />
  <tile />
  <tile />
  <tile />
  <tile gid="53" />
  <tile gid="119" />
  <tile gid="56" />
  <tile />
  <tile />
  <tile />
  <tile />
  <tile />
  <tile />
  <tile />
  <tile />
  <tile />
  <tile />
  <tile gid="53" />
  <tile />
  </data></layer></map>