<?xml version='1.0' encoding='utf-8'?>
<map version="1.5" tiledversion="1.7.2" orientation="orthogonal" renderorder="right-down" width="6" height="7" tilewidth="16" tileheight="16" infinite="0" nextlayerid="2" nextobjectid="1"><tileset firstgid="1" name="Fields" tilewidth="16" tileheight="16" tilecount="1024" columns="32"><image source="../../../../Tilesets/Fields.png" width="512" height="512" /></tileset><layer id="1" name="Main" width="6" height="7"><data>
  <tile />
  <tile gid="644" />
  <tile gid="198" />
  <tile />
  <tile />
  <tile />
  <tile />
  <tile />
  <tile gid="642" />
  <tile />
  <tile />
  <tile />
  <tile />
  <tile />
  <tile gid="229" />
  <tile gid="230" />
  <tile />
  <tile />
  <tile />
  <tile />
  <tile gid="197" />
  <tile gid="678" />
  <tile gid="675" />
  <tile />
  <tile />
  <tile />
  <tile gid="676" />
  <tile />
  <tile gid="770" />
  <tile gid="772" />
  <tile />
  <tile />
  <tile />
  <tile gid="674" />
  <tile gid="230" />
  <tile />
  <tile />
  <tile />
  <tile />
  <tile />
  <tile />
  <tile />
  </data></layer></map>