<?xml version='1.0' encoding='utf-8'?>
<map version="1.5" tiledversion="1.7.2" orientation="orthogonal" renderorder="right-down" width="12" height="6" tilewidth="16" tileheight="16" infinite="0" nextlayerid="2" nextobjectid="1"><tileset firstgid="1" name="Fields" tilewidth="16" tileheight="16" tilecount="1024" columns="32"><image source="../../../../Tilesets/Fields.png" width="512" height="512" /></tileset><layer id="1" name="Main" width="12" height="6"><data>
  <tile gid="402" />
  <tile gid="317" />
  <tile gid="317" />
  <tile gid="248" />
  <tile />
  <tile />
  <tile />
  <tile />
  <tile />
  <tile />
  <tile />
  <tile />
  <tile gid="317" />
  <tile gid="317" />
  <tile gid="248" />
  <tile />
  <tile />
  <tile />
  <tile />
  <tile gid="284" />
  <tile />
  <tile gid="217" />
  <tile gid="218" />
  <tile />
  <tile gid="348" />
  <tile gid="351" />
  <tile />
  <tile />
  <tile />
  <tile />
  <tile gid="217" />
  <tile />
  <tile gid="218" />
  <tile />
  <tile />
  <tile />
  <tile />
  <tile />
  <tile />
  <tile />
  <tile />
  <tile gid="217" />
  <tile />
  <tile />
  <tile />
  <tile gid="218" />
  <tile />
  <tile />
  <tile />
  <tile />
  <tile gid="217" />
  <tile gid="218" />
  <tile />
  <tile gid="249" />
  <tile />
  <tile />
  <tile />
  <tile gid="250" />
  <tile />
  <tile />
  <tile />
  <tile gid="215" />
  <tile />
  <tile />
  <tile gid="218" />
  <tile />
  <tile gid="348" />
  <tile gid="349" />
  <tile gid="350" />
  <tile />
  <tile />
  <tile />
  </data></layer></map>