<?xml version='1.0' encoding='utf-8'?>
<map version="1.5" tiledversion="1.7.2" orientation="orthogonal" renderorder="right-down" width="20" height="30" tilewidth="16" tileheight="16" infinite="0" nextlayerid="2" nextobjectid="1"><tileset firstgid="1" name="Fields" tilewidth="16" tileheight="16" tilecount="1024" columns="32"><image source="../../../../Tilesets/Fields.png" width="512" height="512" /></tileset><layer id="1" name="Main" width="20" height="30"><data>
  <tile />
  <tile />
  <tile />
  <tile />
  <tile />
  <tile />
  <tile />
  <tile />
  <tile />
  <tile />
  <tile />
  <tile />
  <tile />
  <tile />
  <tile />
  <tile />
  <tile gid="215" />
  <tile gid="402" />
  <tile gid="502" />
  <tile />
  <tile />
  <tile />
  <tile />
  <tile />
  <tile />
  <tile />
  <tile />
  <tile />
  <tile />
  <tile gid="215" />
  <tile gid="216" />
  <tile gid="284" />
  <tile gid="284" />
  <tile />
  <tile />
  <tile gid="281" />
  <tile gid="402" />
  <tile gid="504" />
  <tile />
  <tile />
  <tile />
  <tile />
  <tile />
  <tile />
  <tile />
  <tile />
  <tile />
  <tile />
  <tile gid="281" />
  <tile gid="434" />
  <tile gid="402" />
  <tile gid="402" />
  <tile gid="402" />
  <tile gid="216" />
  <tile gid="316" />
  <tile gid="215" />
  <tile gid="434" />
  <tile gid="507" />
  <tile />
  <tile />
  <tile />
  <tile gid="316" />
  <tile gid="316" />
  <tile />
  <tile />
  <tile />
  <tile />
  <tile gid="284" />
  <tile gid="215" />
  <tile gid="434" />
  <tile gid="434" />
  <tile gid="434" />
  <tile gid="434" />
  <tile gid="402" />
  <tile gid="434" />
  <tile gid="402" />
  <tile gid="434" />
  <tile />
  <tile />
  <tile />
  <tile gid="281" />
  <tile gid="434" />
  <tile gid="434" />
  <tile gid="216" />
  <tile gid="316" />
  <tile gid="284" />
  <tile gid="215" />
  <tile gid="434" />
  <tile gid="434" />
  <tile gid="402" />
  <tile />
  <tile />
  <tile />
  <tile gid="404" />
  <tile gid="434" />
  <tile />
  <tile />
  <tile />
  <tile />
  <tile />
  <tile />
  <tile gid="247" />
  <tile gid="434" />
  <tile gid="434" />
  <tile gid="434" />
  <tile gid="434" />
  <tile gid="434" />
  <tile gid="434" />
  <tile gid="434" />
  <tile />
  <tile />
  <tile />
  <tile />
  <tile />
  <tile />
  <tile />
  <tile />
  <tile />
  <tile />
  <tile />
  <tile />
  <tile gid="215" />
  <tile gid="434" />
  <tile gid="434" />
  <tile gid="434" />
  <tile gid="434" />
  <tile gid="434" />
  <tile gid="434" />
  <tile />
  <tile />
  <tile />
  <tile />
  <tile />
  <tile />
  <tile />
  <tile />
  <tile />
  <tile />
  <tile />
  <tile />
  <tile gid="281" />
  <tile gid="434" />
  <tile gid="434" />
  <tile gid="434" />
  <tile gid="434" />
  <tile gid="434" />
  <tile gid="434" />
  <tile gid="434" />
  <tile />
  <tile />
  <tile />
  <tile />
  <tile />
  <tile />
  <tile />
  <tile />
  <tile />
  <tile />
  <tile />
  <tile />
  <tile />
  <tile gid="247" />
  <tile gid="248" />
  <tile gid="314" />
  <tile gid="247" />
  <tile gid="434" />
  <tile gid="248" />
  <tile gid="247" />
  <tile />
  <tile />
  <tile />
  <tile />
  <tile />
  <tile />
  <tile />
  <tile />
  <tile />
  <tile />
  <tile />
  <tile />
  <tile />
  <tile />
  <tile />
  <tile />
  <tile />
  <tile gid="314" />
  <tile />
  <tile gid="281" />
  <tile gid="434" />
  <tile />
  <tile />
  <tile />
  <tile />
  <tile />
  <tile />
  <tile />
  <tile />
  <tile />
  <tile />
  <tile />
  <tile />
  <tile />
  <tile />
  <tile />
  <tile />
  <tile gid="284" />
  <tile gid="316" />
  <tile gid="215" />
  <tile gid="434" />
  <tile />
  <tile />
  <tile />
  <tile />
  <tile />
  <tile />
  <tile />
  <tile />
  <tile />
  <tile />
  <tile />
  <tile />
  <tile />
  <tile />
  <tile />
  <tile gid="281" />
  <tile gid="434" />
  <tile gid="434" />
  <tile gid="434" />
  <tile />
  <tile />
  <tile />
  <tile />
  <tile />
  <tile />
  <tile />
  <tile />
  <tile />
  <tile />
  <tile />
  <tile />
  <tile />
  <tile />
  <tile />
  <tile />
  <tile gid="215" />
  <tile gid="434" />
  <tile gid="434" />
  <tile />
  <tile />
  <tile />
  <tile />
  <tile />
  <tile />
  <tile />
  <tile />
  <tile />
  <tile />
  <tile />
  <tile />
  <tile />
  <tile />
  <tile />
  <tile />
  <tile />
  <tile gid="247" />
  <tile gid="434" />
  <tile />
  <tile />
  <tile />
  <tile />
  <tile />
  <tile />
  <tile />
  <tile />
  <tile />
  <tile />
  <tile />
  <tile />
  <tile />
  <tile />
  <tile />
  <tile />
  <tile />
  <tile />
  <tile gid="215" />
  <tile gid="434" />
  <tile />
  <tile />
  <tile />
  <tile />
  <tile />
  <tile />
  <tile />
  <tile />
  <tile />
  <tile />
  <tile />
  <tile />
  <tile />
  <tile />
  <tile />
  <tile />
  <tile />
  <tile gid="281" />
  <tile gid="434" />
  <tile gid="434" />
  <tile />
  <tile />
  <tile />
  <tile />
  <tile />
  <tile />
  <tile />
  <tile />
  <tile />
  <tile />
  <tile />
  <tile />
  <tile />
  <tile />
  <tile />
  <tile />
  <tile />
  <tile />
  <tile gid="247" />
  <tile gid="434" />
  <tile />
  <tile />
  <tile />
  <tile />
  <tile />
  <tile />
  <tile />
  <tile />
  <tile />
  <tile />
  <tile />
  <tile />
  <tile />
  <tile />
  <tile />
  <tile />
  <tile />
  <tile />
  <tile gid="281" />
  <tile gid="434" />
  <tile gid="434" />
  <tile />
  <tile />
  <tile />
  <tile />
  <tile />
  <tile />
  <tile />
  <tile />
  <tile />
  <tile />
  <tile />
  <tile />
  <tile />
  <tile />
  <tile />
  <tile />
  <tile />
  <tile />
  <tile gid="247" />
  <tile gid="434" />
  <tile gid="434" />
  <tile />
  <tile />
  <tile />
  <tile />
  <tile />
  <tile />
  <tile />
  <tile />
  <tile />
  <tile />
  <tile />
  <tile />
  <tile />
  <tile />
  <tile gid="316" />
  <tile />
  <tile />
  <tile />
  <tile gid="247" />
  <tile gid="434" />
  <tile />
  <tile />
  <tile />
  <tile />
  <tile />
  <tile />
  <tile />
  <tile />
  <tile />
  <tile />
  <tile />
  <tile />
  <tile />
  <tile gid="281" />
  <tile gid="434" />
  <tile gid="216" />
  <tile />
  <tile />
  <tile gid="281" />
  <tile gid="434" />
  <tile />
  <tile />
  <tile />
  <tile />
  <tile />
  <tile />
  <tile />
  <tile />
  <tile />
  <tile />
  <tile />
  <tile />
  <tile />
  <tile gid="215" />
  <tile gid="434" />
  <tile gid="434" />
  <tile gid="315" />
  <tile />
  <tile gid="215" />
  <tile />
  <tile />
  <tile />
  <tile />
  <tile />
  <tile />
  <tile />
  <tile />
  <tile />
  <tile />
  <tile />
  <tile />
  <tile />
  <tile gid="281" />
  <tile gid="434" />
  <tile gid="434" />
  <tile gid="434" />
  <tile gid="216" />
  <tile gid="215" />
  <tile />
  <tile />
  <tile />
  <tile />
  <tile />
  <tile />
  <tile />
  <tile />
  <tile />
  <tile />
  <tile />
  <tile />
  <tile />
  <tile />
  <tile />
  <tile gid="247" />
  <tile gid="434" />
  <tile gid="434" />
  <tile gid="434" />
  <tile gid="434" />
  <tile />
  <tile />
  <tile />
  <tile />
  <tile />
  <tile />
  <tile />
  <tile />
  <tile />
  <tile />
  <tile />
  <tile />
  <tile />
  <tile />
  <tile />
  <tile gid="281" />
  <tile gid="434" />
  <tile gid="434" />
  <tile gid="434" />
  <tile gid="434" />
  <tile gid="434" />
  <tile />
  <tile />
  <tile />
  <tile />
  <tile />
  <tile />
  <tile />
  <tile />
  <tile />
  <tile />
  <tile />
  <tile />
  <tile />
  <tile />
  <tile gid="215" />
  <tile gid="434" />
  <tile gid="434" />
  <tile gid="434" />
  <tile />
  <tile />
  <tile />
  <tile />
  <tile />
  <tile />
  <tile />
  <tile />
  <tile />
  <tile />
  <tile />
  <tile />
  <tile />
  <tile />
  <tile />
  <tile />
  <tile gid="247" />
  <tile gid="434" />
  <tile gid="434" />
  <tile gid="434" />
  <tile />
  <tile />
  <tile />
  <tile />
  <tile />
  <tile />
  <tile />
  <tile />
  <tile />
  <tile />
  <tile />
  <tile />
  <tile />
  <tile />
  <tile />
  <tile />
  <tile gid="215" />
  <tile gid="434" />
  <tile gid="434" />
  <tile />
  <tile />
  <tile />
  <tile />
  <tile />
  <tile />
  <tile />
  <tile />
  <tile />
  <tile />
  <tile />
  <tile />
  <tile />
  <tile />
  <tile />
  <tile />
  <tile gid="281" />
  <tile gid="434" />
  <tile gid="434" />
  <tile />
  <tile />
  <tile />
  <tile />
  <tile />
  <tile />
  <tile />
  <tile />
  <tile />
  <tile />
  <tile />
  <tile />
  <tile />
  <tile />
  <tile />
  <tile />
  <tile />
  <tile gid="215" />
  <tile gid="434" />
  <tile />
  <tile />
  <tile />
  <tile />
  <tile />
  <tile />
  <tile />
  <tile />
  <tile />
  <tile />
  <tile />
  <tile />
  <tile />
  <tile />
  <tile gid="402" />
  <tile />
  <tile />
  <tile />
  </data></layer></map>