<?xml version='1.0' encoding='utf-8'?>
<map version="1.5" tiledversion="1.7.2" orientation="orthogonal" renderorder="right-down" width="5" height="4" tilewidth="16" tileheight="16" infinite="0" nextlayerid="2" nextobjectid="1"><tileset firstgid="1" name="Fields" tilewidth="16" tileheight="16" tilecount="1024" columns="32"><image source="../../../../Tilesets/Fields.png" width="512" height="512" /></tileset><layer id="1" name="Main" width="5" height="4"><data>
  <tile gid="317" />
  <tile />
  <tile />
  <tile />
  <tile />
  <tile gid="317" />
  <tile gid="472" />
  <tile />
  <tile />
  <tile />
  <tile gid="317" />
  <tile gid="437" />
  <tile gid="509" />
  <tile gid="508" />
  <tile />
  <tile gid="317" />
  <tile />
  <tile gid="437" />
  <tile gid="438" />
  <tile gid="317" />
  </data></layer></map>