<?xml version='1.0' encoding='utf-8'?>
<map version="1.5" tiledversion="1.7.2" orientation="orthogonal" renderorder="right-down" width="9" height="12" tilewidth="16" tileheight="16" infinite="0" nextlayerid="2" nextobjectid="1"><tileset firstgid="1" name="Fields" tilewidth="16" tileheight="16" tilecount="1024" columns="32"><image source="../../../../Tilesets/Fields.png" width="512" height="512" /></tileset><layer id="1" name="Main" width="9" height="12"><data>
  <tile />
  <tile />
  <tile gid="317" />
  <tile gid="216" />
  <tile />
  <tile />
  <tile />
  <tile />
  <tile gid="215" />
  <tile />
  <tile />
  <tile />
  <tile gid="317" />
  <tile gid="283" />
  <tile />
  <tile />
  <tile gid="281" />
  <tile gid="317" />
  <tile />
  <tile />
  <tile />
  <tile gid="317" />
  <tile gid="216" />
  <tile />
  <tile />
  <tile />
  <tile gid="247" />
  <tile />
  <tile />
  <tile gid="317" />
  <tile gid="317" />
  <tile gid="248" />
  <tile />
  <tile />
  <tile />
  <tile />
  <tile />
  <tile />
  <tile gid="248" />
  <tile gid="314" />
  <tile />
  <tile />
  <tile />
  <tile />
  <tile />
  <tile />
  <tile gid="469" />
  <tile gid="216" />
  <tile gid="316" />
  <tile />
  <tile />
  <tile gid="215" />
  <tile />
  <tile />
  <tile />
  <tile gid="503" />
  <tile gid="317" />
  <tile gid="317" />
  <tile gid="216" />
  <tile gid="215" />
  <tile gid="317" />
  <tile gid="317" />
  <tile />
  <tile />
  <tile />
  <tile gid="501" />
  <tile gid="317" />
  <tile gid="317" />
  <tile gid="317" />
  <tile gid="317" />
  <tile />
  <tile />
  <tile />
  <tile />
  <tile />
  <tile />
  <tile />
  <tile gid="317" />
  <tile gid="317" />
  <tile gid="502" />
  <tile />
  <tile />
  <tile />
  <tile />
  <tile />
  <tile />
  <tile />
  <tile gid="317" />
  <tile gid="470" />
  <tile />
  <tile gid="509" />
  <tile gid="508" />
  <tile />
  <tile />
  <tile />
  <tile />
  <tile />
  <tile gid="437" />
  <tile />
  <tile gid="437" />
  <tile gid="438" />
  <tile gid="317" />
  <tile />
  <tile />
  <tile />
  <tile />
  <tile />
  <tile />
  </data></layer></map>