<?xml version='1.0' encoding='utf-8'?>
<map version="1.5" tiledversion="1.7.2" orientation="orthogonal" renderorder="right-down" width="5" height="5" tilewidth="16" tileheight="16" infinite="0" nextlayerid="2" nextobjectid="1"><tileset firstgid="1" name="Fields" tilewidth="16" tileheight="16" tilecount="1024" columns="32"><image source="../../../../Tilesets/Fields.png" width="512" height="512" /></tileset><layer id="1" name="Main" width="5" height="5"><data>
  <tile />
  <tile />
  <tile />
  <tile />
  <tile />
  <tile />
  <tile />
  <tile />
  <tile gid="508" />
  <tile />
  <tile />
  <tile gid="471" />
  <tile gid="474" />
  <tile gid="438" />
  <tile gid="402" />
  <tile />
  <tile gid="501" />
  <tile gid="402" />
  <tile gid="402" />
  <tile />
  <tile />
  <tile gid="469" />
  <tile gid="402" />
  <tile />
  <tile />
  </data></layer></map>