<?xml version='1.0' encoding='utf-8'?>
<map version="1.5" tiledversion="1.7.2" orientation="orthogonal" renderorder="right-down" width="10" height="7" tilewidth="16" tileheight="16" infinite="0" nextlayerid="2" nextobjectid="1"><tileset firstgid="1" name="Fields" tilewidth="16" tileheight="16" tilecount="1024" columns="32"><image source="../../../../Tilesets/Fields.png" width="512" height="512" /></tileset><layer id="1" name="Main" width="10" height="7"><data>
  <tile />
  <tile />
  <tile />
  <tile gid="402" />
  <tile gid="402" />
  <tile />
  <tile />
  <tile />
  <tile />
  <tile />
  <tile />
  <tile />
  <tile />
  <tile />
  <tile gid="402" />
  <tile />
  <tile />
  <tile />
  <tile gid="472" />
  <tile />
  <tile />
  <tile />
  <tile gid="469" />
  <tile />
  <tile />
  <tile />
  <tile />
  <tile gid="248" />
  <tile gid="314" />
  <tile />
  <tile />
  <tile gid="471" />
  <tile gid="438" />
  <tile gid="402" />
  <tile />
  <tile />
  <tile gid="402" />
  <tile gid="315" />
  <tile />
  <tile />
  <tile />
  <tile gid="282" />
  <tile gid="314" />
  <tile gid="247" />
  <tile gid="402" />
  <tile />
  <tile gid="248" />
  <tile />
  <tile />
  <tile gid="313" />
  <tile />
  <tile />
  <tile />
  <tile />
  <tile gid="247" />
  <tile gid="248" />
  <tile />
  <tile />
  <tile />
  <tile gid="215" />
  <tile gid="216" />
  <tile gid="316" />
  <tile />
  <tile />
  <tile />
  <tile />
  <tile />
  <tile />
  <tile />
  <tile gid="247" />
  </data></layer></map>