<?xml version='1.0' encoding='utf-8'?>
<map version="1.5" tiledversion="1.7.2" orientation="orthogonal" renderorder="right-down" width="9" height="10" tilewidth="16" tileheight="16" infinite="0" nextlayerid="2" nextobjectid="1"><tileset firstgid="1" name="Fields" tilewidth="16" tileheight="16" tilecount="1024" columns="32"><image source="../../../../Tilesets/Fields.png" width="512" height="512" /></tileset><layer id="1" name="Main" width="9" height="10"><data>
  <tile />
  <tile />
  <tile />
  <tile gid="316" />
  <tile />
  <tile />
  <tile />
  <tile />
  <tile />
  <tile />
  <tile />
  <tile gid="215" />
  <tile gid="402" />
  <tile gid="216" />
  <tile />
  <tile />
  <tile />
  <tile />
  <tile />
  <tile gid="281" />
  <tile gid="402" />
  <tile />
  <tile gid="248" />
  <tile />
  <tile />
  <tile />
  <tile />
  <tile />
  <tile />
  <tile gid="247" />
  <tile gid="402" />
  <tile gid="315" />
  <tile />
  <tile />
  <tile />
  <tile gid="281" />
  <tile />
  <tile />
  <tile />
  <tile gid="314" />
  <tile />
  <tile gid="316" />
  <tile />
  <tile />
  <tile />
  <tile />
  <tile />
  <tile />
  <tile />
  <tile gid="281" />
  <tile gid="402" />
  <tile gid="216" />
  <tile />
  <tile />
  <tile />
  <tile />
  <tile />
  <tile />
  <tile gid="313" />
  <tile gid="402" />
  <tile />
  <tile gid="216" />
  <tile />
  <tile />
  <tile />
  <tile />
  <tile />
  <tile />
  <tile gid="247" />
  <tile gid="402" />
  <tile gid="248" />
  <tile />
  <tile />
  <tile />
  <tile />
  <tile />
  <tile />
  <tile />
  <tile gid="314" />
  <tile />
  <tile />
  <tile />
  <tile />
  <tile />
  <tile />
  <tile />
  <tile />
  <tile />
  <tile />
  <tile gid="313" />
  </data></layer></map>