<?xml version='1.0' encoding='utf-8'?>
<map version="1.5" tiledversion="1.7.2" orientation="orthogonal" renderorder="right-down" width="24" height="13" tilewidth="16" tileheight="16" infinite="0" nextlayerid="2" nextobjectid="1"><tileset firstgid="1" name="Fields" tilewidth="16" tileheight="16" tilecount="1024" columns="32"><image source="../../../../Tilesets/Fields.png" width="512" height="512" /></tileset><layer id="1" name="Main" width="24" height="13"><data>
  <tile />
  <tile />
  <tile />
  <tile gid="933" />
  <tile />
  <tile />
  <tile />
  <tile />
  <tile />
  <tile />
  <tile />
  <tile />
  <tile />
  <tile />
  <tile />
  <tile />
  <tile />
  <tile />
  <tile />
  <tile />
  <tile />
  <tile />
  <tile gid="135" />
  <tile gid="7" />
  <tile />
  <tile />
  <tile />
  <tile />
  <tile />
  <tile />
  <tile />
  <tile />
  <tile />
  <tile />
  <tile />
  <tile />
  <tile gid="71" />
  <tile gid="16" />
  <tile gid="44" />
  <tile gid="46" />
  <tile />
  <tile />
  <tile />
  <tile />
  <tile />
  <tile gid="113" />
  <tile gid="7" />
  <tile gid="933" />
  <tile />
  <tile />
  <tile gid="79" />
  <tile />
  <tile />
  <tile />
  <tile />
  <tile />
  <tile />
  <tile />
  <tile />
  <tile gid="933" />
  <tile gid="7" />
  <tile gid="933" />
  <tile />
  <tile />
  <tile />
  <tile />
  <tile />
  <tile />
  <tile />
  <tile />
  <tile gid="167" />
  <tile gid="112" />
  <tile />
  <tile gid="71" />
  <tile gid="7" />
  <tile gid="72" />
  <tile />
  <tile />
  <tile />
  <tile />
  <tile />
  <tile />
  <tile />
  <tile />
  <tile gid="173" />
  <tile />
  <tile />
  <tile />
  <tile />
  <tile />
  <tile />
  <tile />
  <tile />
  <tile />
  <tile />
  <tile />
  <tile gid="80" />
  <tile gid="7" />
  <tile gid="7" />
  <tile gid="7" />
  <tile gid="80" />
  <tile gid="136" />
  <tile />
  <tile />
  <tile />
  <tile />
  <tile />
  <tile gid="45" />
  <tile gid="80" />
  <tile gid="72" />
  <tile />
  <tile />
  <tile />
  <tile />
  <tile />
  <tile />
  <tile />
  <tile />
  <tile />
  <tile />
  <tile gid="7" />
  <tile gid="7" />
  <tile gid="7" />
  <tile gid="7" />
  <tile gid="7" />
  <tile gid="7" />
  <tile gid="46" />
  <tile />
  <tile />
  <tile />
  <tile />
  <tile />
  <tile gid="103" />
  <tile gid="7" />
  <tile gid="76" />
  <tile />
  <tile gid="933" />
  <tile />
  <tile />
  <tile />
  <tile gid="71" />
  <tile gid="72" />
  <tile />
  <tile />
  <tile gid="7" />
  <tile gid="7" />
  <tile gid="7" />
  <tile gid="170" />
  <tile gid="111" />
  <tile gid="103" />
  <tile gid="46" />
  <tile />
  <tile />
  <tile />
  <tile />
  <tile />
  <tile />
  <tile gid="137" />
  <tile gid="74" />
  <tile gid="79" />
  <tile gid="76" />
  <tile />
  <tile />
  <tile />
  <tile gid="169" />
  <tile gid="39" />
  <tile gid="78" />
  <tile />
  <tile gid="111" />
  <tile gid="111" />
  <tile gid="111" />
  <tile />
  <tile />
  <tile />
  <tile gid="71" />
  <tile gid="80" />
  <tile gid="136" />
  <tile gid="79" />
  <tile gid="71" />
  <tile gid="80" />
  <tile gid="44" />
  <tile gid="112" />
  <tile gid="115" />
  <tile gid="7" />
  <tile gid="933" />
  <tile />
  <tile />
  <tile gid="71" />
  <tile gid="7" />
  <tile gid="7" />
  <tile />
  <tile />
  <tile />
  <tile />
  <tile />
  <tile />
  <tile />
  <tile />
  <tile gid="173" />
  <tile gid="167" />
  <tile gid="7" />
  <tile gid="7" />
  <tile gid="7" />
  <tile gid="168" />
  <tile />
  <tile />
  <tile />
  <tile gid="167" />
  <tile gid="7" />
  <tile gid="72" />
  <tile />
  <tile gid="169" />
  <tile gid="7" />
  <tile gid="7" />
  <tile />
  <tile />
  <tile />
  <tile />
  <tile />
  <tile />
  <tile />
  <tile />
  <tile />
  <tile />
  <tile gid="173" />
  <tile gid="111" />
  <tile gid="111" />
  <tile gid="108" />
  <tile />
  <tile />
  <tile />
  <tile />
  <tile gid="103" />
  <tile gid="7" />
  <tile gid="72" />
  <tile />
  <tile gid="103" />
  <tile gid="168" />
  <tile gid="108" />
  <tile />
  <tile />
  <tile />
  <tile />
  <tile />
  <tile />
  <tile />
  <tile />
  <tile />
  <tile />
  <tile />
  <tile />
  <tile />
  <tile />
  <tile />
  <tile />
  <tile />
  <tile gid="71" />
  <tile gid="7" />
  <tile gid="7" />
  <tile gid="80" />
  <tile gid="46" />
  <tile />
  <tile />
  <tile />
  <tile />
  <tile />
  <tile />
  <tile />
  <tile />
  <tile />
  <tile />
  <tile />
  <tile />
  <tile />
  <tile />
  <tile />
  <tile />
  <tile />
  <tile />
  <tile />
  <tile gid="103" />
  <tile gid="112" />
  <tile gid="112" />
  <tile gid="104" />
  <tile />
  <tile />
  <tile />
  <tile />
  <tile />
  <tile />
  <tile />
  <tile />
  <tile />
  <tile />
  <tile />
  <tile />
  <tile />
  <tile />
  <tile />
  <tile />
  <tile />
  <tile />
  <tile />
  <tile gid="933" />
  <tile />
  <tile />
  <tile />
  <tile />
  <tile />
  <tile />
  <tile />
  <tile />
  </data></layer></map>