<?xml version='1.0' encoding='utf-8'?>
<map version="1.5" tiledversion="1.7.2" orientation="orthogonal" renderorder="right-down" width="12" height="17" tilewidth="16" tileheight="16" infinite="0" nextlayerid="2" nextobjectid="1"><tileset firstgid="1" name="Fields" tilewidth="16" tileheight="16" tilecount="1024" columns="32"><image source="../../../../Tilesets/Fields.png" width="512" height="512" /></tileset><layer id="1" name="Main" width="12" height="17"><data>
  <tile />
  <tile />
  <tile />
  <tile />
  <tile />
  <tile />
  <tile />
  <tile />
  <tile />
  <tile gid="15" />
  <tile />
  <tile />
  <tile />
  <tile />
  <tile />
  <tile />
  <tile />
  <tile />
  <tile />
  <tile />
  <tile gid="77" />
  <tile gid="7" />
  <tile gid="72" />
  <tile />
  <tile />
  <tile />
  <tile />
  <tile />
  <tile />
  <tile />
  <tile />
  <tile />
  <tile gid="71" />
  <tile gid="7" />
  <tile gid="81" />
  <tile />
  <tile />
  <tile />
  <tile />
  <tile />
  <tile />
  <tile />
  <tile />
  <tile />
  <tile gid="143" />
  <tile gid="168" />
  <tile gid="108" />
  <tile />
  <tile />
  <tile />
  <tile />
  <tile />
  <tile />
  <tile />
  <tile />
  <tile gid="71" />
  <tile gid="7" />
  <tile gid="72" />
  <tile />
  <tile />
  <tile />
  <tile gid="71" />
  <tile gid="83" />
  <tile gid="80" />
  <tile gid="72" />
  <tile gid="71" />
  <tile gid="72" />
  <tile gid="103" />
  <tile gid="39" />
  <tile gid="144" />
  <tile />
  <tile gid="71" />
  <tile />
  <tile gid="113" />
  <tile gid="7" />
  <tile gid="7" />
  <tile gid="115" />
  <tile gid="115" />
  <tile gid="104" />
  <tile />
  <tile gid="169" />
  <tile gid="104" />
  <tile />
  <tile gid="103" />
  <tile />
  <tile />
  <tile gid="103" />
  <tile gid="144" />
  <tile />
  <tile />
  <tile gid="15" />
  <tile />
  <tile gid="71" />
  <tile gid="81" />
  <tile />
  <tile gid="71" />
  <tile />
  <tile />
  <tile gid="71" />
  <tile gid="7" />
  <tile gid="46" />
  <tile gid="45" />
  <tile gid="7" />
  <tile gid="83" />
  <tile gid="168" />
  <tile gid="108" />
  <tile />
  <tile gid="47" />
  <tile />
  <tile />
  <tile gid="103" />
  <tile gid="104" />
  <tile />
  <tile gid="71" />
  <tile gid="115" />
  <tile gid="104" />
  <tile />
  <tile />
  <tile />
  <tile />
  <tile />
  <tile />
  <tile />
  <tile />
  <tile gid="77" />
  <tile gid="144" />
  <tile />
  <tile />
  <tile />
  <tile />
  <tile />
  <tile />
  <tile />
  <tile />
  <tile />
  <tile />
  <tile />
  <tile gid="103" />
  <tile gid="72" />
  <tile />
  <tile />
  <tile />
  <tile />
  <tile />
  <tile />
  <tile />
  <tile />
  <tile />
  <tile />
  <tile gid="45" />
  <tile gid="7" />
  <tile gid="78" />
  <tile />
  <tile />
  <tile />
  <tile />
  <tile />
  <tile />
  <tile />
  <tile />
  <tile />
  <tile />
  <tile gid="105" />
  <tile gid="78" />
  <tile />
  <tile />
  <tile />
  <tile />
  <tile />
  <tile />
  <tile />
  <tile />
  <tile />
  <tile />
  <tile gid="73" />
  <tile gid="78" />
  <tile />
  <tile />
  <tile />
  <tile />
  <tile />
  <tile />
  <tile />
  <tile />
  <tile />
  <tile gid="71" />
  <tile gid="104" />
  <tile />
  <tile />
  <tile />
  <tile />
  <tile />
  <tile />
  <tile />
  <tile />
  <tile />
  <tile />
  <tile gid="104" />
  <tile />
  <tile />
  <tile />
  <tile />
  <tile />
  <tile gid="869" />
  </data></layer></map>