<?xml version='1.0' encoding='utf-8'?>
<map version="1.5" tiledversion="1.7.2" orientation="orthogonal" renderorder="right-down" width="7" height="7" tilewidth="16" tileheight="16" infinite="0" nextlayerid="2" nextobjectid="1"><tileset firstgid="1" name="Fields" tilewidth="16" tileheight="16" tilecount="1024" columns="32"><image source="../../../../Tilesets/Fields.png" width="512" height="512" /></tileset><layer id="1" name="Main" width="7" height="7"><data>
  <tile />
  <tile />
  <tile />
  <tile gid="175" />
  <tile gid="7" />
  <tile gid="72" />
  <tile />
  <tile />
  <tile />
  <tile />
  <tile gid="137" />
  <tile gid="39" />
  <tile gid="104" />
  <tile />
  <tile />
  <tile />
  <tile gid="77" />
  <tile gid="39" />
  <tile gid="104" />
  <tile />
  <tile />
  <tile />
  <tile />
  <tile gid="137" />
  <tile gid="82" />
  <tile />
  <tile />
  <tile />
  <tile />
  <tile gid="45" />
  <tile gid="39" />
  <tile gid="7" />
  <tile gid="46" />
  <tile />
  <tile />
  <tile />
  <tile />
  <tile gid="167" />
  <tile gid="104" />
  <tile />
  <tile />
  <tile />
  <tile />
  <tile />
  <tile />
  <tile />
  <tile />
  <tile />
  <tile />
  </data></layer></map>