<?xml version='1.0' encoding='utf-8'?>
<map version="1.5" tiledversion="1.7.2" orientation="orthogonal" renderorder="right-down" width="5" height="4" tilewidth="16" tileheight="16" infinite="0" nextlayerid="2" nextobjectid="1"><tileset firstgid="1" name="Fields" tilewidth="16" tileheight="16" tilecount="1024" columns="32"><image source="../../../../Tilesets/Fields.png" width="512" height="512" /></tileset><layer id="1" name="Main" width="5" height="4"><data>
  <tile />
  <tile gid="143" />
  <tile gid="7" />
  <tile gid="138" />
  <tile />
  <tile />
  <tile gid="143" />
  <tile gid="7" />
  <tile gid="144" />
  <tile />
  <tile />
  <tile gid="173" />
  <tile gid="167" />
  <tile gid="104" />
  <tile />
  <tile />
  <tile />
  <tile />
  <tile />
  <tile />
  </data></layer></map>