<?xml version='1.0' encoding='utf-8'?>
<map version="1.5" tiledversion="1.7.2" orientation="orthogonal" renderorder="right-down" width="5" height="6" tilewidth="16" tileheight="16" infinite="0" nextlayerid="2" nextobjectid="1"><tileset firstgid="1" name="Fields" tilewidth="16" tileheight="16" tilecount="1024" columns="32"><image source="../../../../Tilesets/Fields.png" width="512" height="512" /></tileset><layer id="1" name="Main" width="5" height="6"><data>
  <tile />
  <tile />
  <tile />
  <tile />
  <tile />
  <tile />
  <tile gid="141" />
  <tile gid="16" />
  <tile gid="76" />
  <tile />
  <tile />
  <tile gid="169" />
  <tile gid="7" />
  <tile gid="81" />
  <tile />
  <tile />
  <tile gid="137" />
  <tile gid="168" />
  <tile gid="108" />
  <tile />
  <tile />
  <tile gid="47" />
  <tile />
  <tile />
  <tile />
  <tile />
  <tile />
  <tile />
  <tile />
  <tile />
  </data></layer></map>