<?xml version='1.0' encoding='utf-8'?>
<map version="1.5" tiledversion="1.7.2" orientation="orthogonal" renderorder="right-down" width="4" height="7" tilewidth="16" tileheight="16" infinite="0" nextlayerid="2" nextobjectid="1"><tileset firstgid="1" name="Fields" tilewidth="16" tileheight="16" tilecount="1024" columns="32"><image source="../../../../Tilesets/Fields.png" width="512" height="512" /></tileset><layer id="1" name="Main" width="4" height="7"><data>
  <tile gid="80" />
  <tile gid="72" />
  <tile />
  <tile />
  <tile gid="7" />
  <tile gid="82" />
  <tile gid="76" />
  <tile />
  <tile gid="7" />
  <tile gid="39" />
  <tile gid="81" />
  <tile />
  <tile gid="39" />
  <tile gid="168" />
  <tile gid="108" />
  <tile />
  <tile gid="144" />
  <tile />
  <tile />
  <tile />
  <tile gid="174" />
  <tile />
  <tile />
  <tile gid="933" />
  <tile />
  <tile />
  <tile />
  <tile />
  </data></layer></map>