<?xml version='1.0' encoding='utf-8'?>
<map version="1.5" tiledversion="1.7.2" orientation="orthogonal" renderorder="right-down" width="8" height="7" tilewidth="16" tileheight="16" infinite="0" nextlayerid="2" nextobjectid="1"><tileset firstgid="1" name="Fields" tilewidth="16" tileheight="16" tilecount="1024" columns="32"><image source="../../../../Tilesets/Fields.png" width="512" height="512" /></tileset><layer id="1" name="Main" width="8" height="7"><data>
  <tile />
  <tile />
  <tile />
  <tile />
  <tile />
  <tile />
  <tile />
  <tile />
  <tile />
  <tile />
  <tile />
  <tile />
  <tile />
  <tile gid="15" />
  <tile />
  <tile />
  <tile />
  <tile />
  <tile gid="933" />
  <tile gid="71" />
  <tile gid="83" />
  <tile gid="39" />
  <tile gid="72" />
  <tile />
  <tile />
  <tile gid="45" />
  <tile gid="83" />
  <tile gid="7" />
  <tile gid="39" />
  <tile gid="112" />
  <tile gid="104" />
  <tile />
  <tile />
  <tile />
  <tile gid="143" />
  <tile gid="39" />
  <tile gid="170" />
  <tile />
  <tile />
  <tile />
  <tile />
  <tile />
  <tile gid="173" />
  <tile gid="48" />
  <tile gid="108" />
  <tile />
  <tile />
  <tile />
  <tile />
  <tile />
  <tile />
  <tile />
  <tile />
  <tile />
  <tile />
  <tile />
  </data></layer></map>