<?xml version='1.0' encoding='utf-8'?>
<map version="1.5" tiledversion="1.7.2" orientation="orthogonal" renderorder="right-down" width="7" height="5" tilewidth="16" tileheight="16" infinite="0" nextlayerid="2" nextobjectid="1"><tileset firstgid="1" name="Fields" tilewidth="16" tileheight="16" tilecount="1024" columns="32"><image source="../../../../Tilesets/Fields.png" width="512" height="512" /></tileset><layer id="1" name="Main" width="7" height="5"><data>
  <tile />
  <tile />
  <tile />
  <tile />
  <tile />
  <tile />
  <tile />
  <tile />
  <tile />
  <tile />
  <tile gid="933" />
  <tile />
  <tile />
  <tile />
  <tile />
  <tile />
  <tile />
  <tile gid="15" />
  <tile />
  <tile />
  <tile />
  <tile />
  <tile gid="45" />
  <tile gid="83" />
  <tile gid="7" />
  <tile gid="136" />
  <tile gid="76" />
  <tile />
  <tile />
  <tile />
  <tile gid="173" />
  <tile gid="167" />
  <tile gid="115" />
  <tile gid="138" />
  <tile />
  </data></layer></map>