<?xml version='1.0' encoding='utf-8'?>
<map version="1.5" tiledversion="1.7.2" orientation="orthogonal" renderorder="right-down" width="17" height="11" tilewidth="16" tileheight="16" infinite="0" nextlayerid="2" nextobjectid="1"><tileset firstgid="1" name="Fields" tilewidth="16" tileheight="16" tilecount="1024" columns="32"><image source="../../../../Tilesets/Fields.png" width="512" height="512" /></tileset><layer id="1" name="Main" width="17" height="11"><data>
  <tile />
  <tile />
  <tile />
  <tile />
  <tile />
  <tile />
  <tile />
  <tile />
  <tile />
  <tile />
  <tile />
  <tile />
  <tile />
  <tile />
  <tile />
  <tile />
  <tile />
  <tile />
  <tile />
  <tile />
  <tile />
  <tile gid="77" />
  <tile gid="72" />
  <tile />
  <tile />
  <tile />
  <tile />
  <tile />
  <tile />
  <tile />
  <tile />
  <tile />
  <tile />
  <tile />
  <tile />
  <tile />
  <tile />
  <tile />
  <tile gid="175" />
  <tile gid="144" />
  <tile />
  <tile />
  <tile />
  <tile />
  <tile />
  <tile />
  <tile />
  <tile />
  <tile />
  <tile />
  <tile />
  <tile gid="136" />
  <tile gid="142" />
  <tile />
  <tile gid="141" />
  <tile gid="73" />
  <tile gid="7" />
  <tile gid="72" />
  <tile />
  <tile />
  <tile />
  <tile />
  <tile />
  <tile />
  <tile />
  <tile />
  <tile />
  <tile />
  <tile gid="7" />
  <tile gid="7" />
  <tile gid="83" />
  <tile gid="7" />
  <tile gid="7" />
  <tile gid="39" />
  <tile gid="144" />
  <tile />
  <tile />
  <tile />
  <tile />
  <tile />
  <tile />
  <tile />
  <tile />
  <tile />
  <tile />
  <tile gid="39" />
  <tile gid="7" />
  <tile gid="39" />
  <tile gid="7" />
  <tile gid="39" />
  <tile gid="104" />
  <tile gid="103" />
  <tile gid="78" />
  <tile />
  <tile />
  <tile />
  <tile />
  <tile gid="71" />
  <tile gid="44" />
  <tile gid="44" />
  <tile gid="72" />
  <tile />
  <tile gid="7" />
  <tile gid="39" />
  <tile gid="7" />
  <tile gid="115" />
  <tile gid="82" />
  <tile />
  <tile gid="175" />
  <tile gid="74" />
  <tile gid="142" />
  <tile />
  <tile />
  <tile gid="45" />
  <tile gid="104" />
  <tile />
  <tile />
  <tile gid="47" />
  <tile />
  <tile gid="39" />
  <tile gid="7" />
  <tile gid="104" />
  <tile />
  <tile gid="103" />
  <tile gid="72" />
  <tile gid="79" />
  <tile gid="103" />
  <tile gid="7" />
  <tile gid="80" />
  <tile gid="44" />
  <tile gid="44" />
  <tile gid="46" />
  <tile />
  <tile />
  <tile />
  <tile />
  <tile gid="104" />
  <tile gid="103" />
  <tile gid="46" />
  <tile />
  <tile gid="77" />
  <tile gid="39" />
  <tile gid="115" />
  <tile gid="83" />
  <tile gid="39" />
  <tile gid="104" />
  <tile />
  <tile />
  <tile />
  <tile />
  <tile />
  <tile />
  <tile />
  <tile />
  <tile />
  <tile />
  <tile />
  <tile gid="109" />
  <tile gid="104" />
  <tile />
  <tile gid="169" />
  <tile gid="104" />
  <tile />
  <tile />
  <tile />
  <tile />
  <tile />
  <tile />
  <tile />
  <tile />
  <tile gid="72" />
  <tile />
  <tile />
  <tile />
  <tile />
  <tile />
  <tile />
  <tile />
  <tile />
  <tile />
  <tile />
  <tile />
  <tile />
  <tile />
  <tile />
  <tile />
  <tile />
  </data></layer></map>