<?xml version='1.0' encoding='utf-8'?>
<map version="1.5" tiledversion="1.7.2" orientation="orthogonal" renderorder="right-down" width="10" height="10" tilewidth="16" tileheight="16" infinite="0" nextlayerid="2" nextobjectid="1"><tileset firstgid="1" name="Fields" tilewidth="16" tileheight="16" tilecount="1024" columns="32"><image source="../../../../Tilesets/Fields.png" width="512" height="512" /></tileset><layer id="1" name="Main" width="10" height="10"><data>
  <tile />
  <tile />
  <tile />
  <tile />
  <tile />
  <tile />
  <tile />
  <tile />
  <tile />
  <tile />
  <tile />
  <tile gid="71" />
  <tile gid="136" />
  <tile gid="142" />
  <tile />
  <tile />
  <tile />
  <tile />
  <tile />
  <tile />
  <tile />
  <tile gid="114" />
  <tile gid="39" />
  <tile gid="7" />
  <tile gid="83" />
  <tile gid="80" />
  <tile gid="72" />
  <tile />
  <tile />
  <tile />
  <tile />
  <tile gid="103" />
  <tile gid="104" />
  <tile gid="103" />
  <tile gid="7" />
  <tile gid="7" />
  <tile gid="104" />
  <tile />
  <tile />
  <tile />
  <tile />
  <tile />
  <tile />
  <tile />
  <tile gid="114" />
  <tile gid="104" />
  <tile gid="15" />
  <tile />
  <tile />
  <tile />
  <tile />
  <tile />
  <tile />
  <tile />
  <tile gid="103" />
  <tile gid="83" />
  <tile gid="7" />
  <tile gid="83" />
  <tile gid="78" />
  <tile />
  <tile />
  <tile />
  <tile />
  <tile />
  <tile gid="71" />
  <tile gid="39" />
  <tile gid="7" />
  <tile gid="106" />
  <tile />
  <tile gid="15" />
  <tile />
  <tile />
  <tile />
  <tile />
  <tile gid="103" />
  <tile gid="7" />
  <tile gid="39" />
  <tile gid="110" />
  <tile />
  <tile gid="103" />
  <tile />
  <tile />
  <tile />
  <tile />
  <tile />
  <tile gid="103" />
  <tile gid="104" />
  <tile />
  <tile />
  <tile />
  <tile />
  <tile />
  <tile />
  <tile />
  <tile />
  <tile />
  <tile />
  <tile />
  <tile />
  <tile gid="71" />
  </data></layer></map>