<?xml version='1.0' encoding='utf-8'?>
<map version="1.5" tiledversion="1.7.2" orientation="orthogonal" renderorder="right-down" width="4" height="8" tilewidth="16" tileheight="16" infinite="0" nextlayerid="2" nextobjectid="1"><tileset firstgid="1" name="Fields" tilewidth="16" tileheight="16" tilecount="1024" columns="32"><image source="../../../../Tilesets/Fields.png" width="512" height="512" /></tileset><layer id="1" name="Main" width="4" height="8"><data>
  <tile />
  <tile />
  <tile />
  <tile />
  <tile />
  <tile />
  <tile gid="569" />
  <tile />
  <tile />
  <tile />
  <tile gid="665" />
  <tile />
  <tile />
  <tile />
  <tile gid="3" />
  <tile />
  <tile />
  <tile />
  <tile gid="602" />
  <tile />
  <tile />
  <tile gid="597" />
  <tile gid="599" />
  <tile />
  <tile />
  <tile gid="634" />
  <tile />
  <tile />
  <tile />
  <tile gid="698" />
  <tile />
  <tile />
  </data></layer></map>