<?xml version='1.0' encoding='utf-8'?>
<map version="1.5" tiledversion="1.7.2" orientation="orthogonal" renderorder="right-down" width="13" height="10" tilewidth="16" tileheight="16" infinite="0" nextlayerid="2" nextobjectid="1"><tileset firstgid="1" name="Fields" tilewidth="16" tileheight="16" tilecount="1024" columns="32"><image source="../../../../Tilesets/Fields.png" width="512" height="512" /></tileset><layer id="1" name="Main" width="13" height="10"><data>
  <tile />
  <tile />
  <tile />
  <tile />
  <tile />
  <tile />
  <tile />
  <tile />
  <tile />
  <tile gid="271" />
  <tile gid="403" />
  <tile gid="232" />
  <tile />
  <tile />
  <tile />
  <tile />
  <tile />
  <tile />
  <tile />
  <tile gid="205" />
  <tile gid="274" />
  <tile gid="146" />
  <tile gid="434" />
  <tile gid="272" />
  <tile />
  <tile />
  <tile />
  <tile />
  <tile />
  <tile />
  <tile />
  <tile />
  <tile gid="265" />
  <tile gid="434" />
  <tile gid="434" />
  <tile gid="394" />
  <tile gid="232" />
  <tile />
  <tile />
  <tile />
  <tile />
  <tile />
  <tile />
  <tile />
  <tile gid="261" />
  <tile gid="306" />
  <tile gid="296" />
  <tile gid="302" />
  <tile gid="364" />
  <tile gid="269" />
  <tile gid="268" />
  <tile />
  <tile />
  <tile />
  <tile />
  <tile />
  <tile gid="199" />
  <tile gid="435" />
  <tile gid="200" />
  <tile />
  <tile />
  <tile gid="205" />
  <tile gid="405" />
  <tile />
  <tile />
  <tile />
  <tile />
  <tile />
  <tile gid="205" />
  <tile gid="403" />
  <tile gid="306" />
  <tile gid="308" />
  <tile />
  <tile />
  <tile gid="235" />
  <tile />
  <tile />
  <tile />
  <tile />
  <tile />
  <tile />
  <tile gid="303" />
  <tile gid="298" />
  <tile />
  <tile />
  <tile />
  <tile />
  <tile />
  <tile />
  <tile />
  <tile />
  <tile />
  <tile />
  <tile gid="207" />
  <tile gid="235" />
  <tile gid="236" />
  <tile />
  <tile />
  <tile />
  <tile />
  <tile />
  <tile />
  <tile />
  <tile />
  <tile />
  <tile gid="199" />
  <tile gid="435" />
  <tile gid="274" />
  <tile gid="200" />
  <tile />
  <tile />
  <tile />
  <tile />
  <tile />
  <tile />
  <tile />
  <tile />
  <tile />
  <tile gid="271" />
  <tile gid="434" />
  <tile gid="434" />
  <tile gid="434" />
  <tile gid="200" />
  <tile />
  <tile />
  <tile />
  <tile />
  <tile />
  <tile />
  <tile />
  </data></layer></map>