<?xml version='1.0' encoding='utf-8'?>
<map version="1.5" tiledversion="1.7.2" orientation="orthogonal" renderorder="right-down" width="10" height="7" tilewidth="16" tileheight="16" infinite="0" nextlayerid="2" nextobjectid="1"><tileset firstgid="1" name="Fields" tilewidth="16" tileheight="16" tilecount="1024" columns="32"><image source="../../../../Tilesets/Fields.png" width="512" height="512" /></tileset><layer id="1" name="Main" width="10" height="7"><data>
  <tile />
  <tile />
  <tile />
  <tile />
  <tile />
  <tile />
  <tile />
  <tile />
  <tile />
  <tile />
  <tile />
  <tile />
  <tile gid="199" />
  <tile gid="206" />
  <tile />
  <tile />
  <tile />
  <tile gid="396" />
  <tile />
  <tile />
  <tile />
  <tile gid="205" />
  <tile gid="434" />
  <tile gid="266" />
  <tile />
  <tile />
  <tile />
  <tile gid="369" />
  <tile gid="200" />
  <tile />
  <tile />
  <tile gid="237" />
  <tile gid="178" />
  <tile gid="402" />
  <tile gid="200" />
  <tile gid="397" />
  <tile gid="199" />
  <tile gid="434" />
  <tile gid="298" />
  <tile />
  <tile />
  <tile />
  <tile />
  <tile gid="301" />
  <tile gid="307" />
  <tile gid="306" />
  <tile gid="404" />
  <tile gid="296" />
  <tile gid="236" />
  <tile />
  <tile />
  <tile />
  <tile />
  <tile />
  <tile />
  <tile />
  <tile gid="239" />
  <tile />
  <tile />
  <tile />
  <tile />
  <tile />
  <tile />
  <tile gid="199" />
  <tile gid="200" />
  <tile />
  <tile />
  <tile />
  <tile />
  <tile />
  </data></layer></map>