<?xml version='1.0' encoding='utf-8'?>
<map version="1.5" tiledversion="1.7.2" orientation="orthogonal" renderorder="right-down" width="7" height="3" tilewidth="16" tileheight="16" infinite="0" nextlayerid="2" nextobjectid="1"><tileset firstgid="1" name="Fields" tilewidth="16" tileheight="16" tilecount="1024" columns="32"><image source="../../../../Tilesets/Fields.png" width="512" height="512" /></tileset><layer id="1" name="Main" width="7" height="3"><data>
  <tile />
  <tile />
  <tile />
  <tile />
  <tile />
  <tile />
  <tile />
  <tile />
  <tile />
  <tile gid="269" />
  <tile gid="392" />
  <tile gid="302" />
  <tile />
  <tile />
  <tile />
  <tile gid="199" />
  <tile gid="296" />
  <tile gid="295" />
  <tile gid="264" />
  <tile gid="204" />
  <tile />
  </data></layer></map>