<?xml version='1.0' encoding='utf-8'?>
<map version="1.5" tiledversion="1.7.2" orientation="orthogonal" renderorder="right-down" width="9" height="9" tilewidth="16" tileheight="16" infinite="0" nextlayerid="2" nextobjectid="1"><tileset firstgid="1" name="Fields" tilewidth="16" tileheight="16" tilecount="1024" columns="32"><image source="../../../../Tilesets/Fields.png" width="512" height="512" /></tileset><layer id="1" name="Main" width="9" height="9"><data>
  <tile />
  <tile />
  <tile />
  <tile />
  <tile />
  <tile />
  <tile />
  <tile />
  <tile />
  <tile />
  <tile gid="203" />
  <tile gid="275" />
  <tile gid="200" />
  <tile />
  <tile />
  <tile />
  <tile />
  <tile />
  <tile />
  <tile gid="241" />
  <tile gid="434" />
  <tile gid="402" />
  <tile gid="200" />
  <tile />
  <tile />
  <tile />
  <tile />
  <tile />
  <tile gid="237" />
  <tile gid="296" />
  <tile gid="295" />
  <tile gid="435" />
  <tile gid="200" />
  <tile />
  <tile />
  <tile />
  <tile />
  <tile />
  <tile />
  <tile />
  <tile gid="231" />
  <tile gid="434" />
  <tile gid="206" />
  <tile />
  <tile />
  <tile />
  <tile />
  <tile />
  <tile />
  <tile />
  <tile gid="145" />
  <tile gid="266" />
  <tile />
  <tile />
  <tile />
  <tile />
  <tile />
  <tile />
  <tile />
  <tile gid="231" />
  <tile gid="394" />
  <tile gid="210" />
  <tile />
  <tile />
  <tile />
  <tile />
  <tile />
  <tile />
  <tile />
  <tile gid="364" />
  <tile />
  <tile gid="199" />
  <tile />
  <tile />
  <tile />
  <tile />
  <tile />
  <tile />
  <tile />
  <tile gid="205" />
  <tile gid="402" />
  </data></layer></map>