<?xml version='1.0' encoding='utf-8'?>
<map version="1.5" tiledversion="1.7.2" orientation="orthogonal" renderorder="right-down" width="7" height="7" tilewidth="16" tileheight="16" infinite="0" nextlayerid="2" nextobjectid="1"><tileset firstgid="1" name="Fields" tilewidth="16" tileheight="16" tilecount="1024" columns="32"><image source="../../../../Tilesets/Fields.png" width="512" height="512" /></tileset><layer id="1" name="Main" width="7" height="7"><data>
  <tile />
  <tile />
  <tile />
  <tile />
  <tile />
  <tile />
  <tile />
  <tile />
  <tile />
  <tile gid="261" />
  <tile gid="391" />
  <tile />
  <tile />
  <tile />
  <tile />
  <tile gid="199" />
  <tile gid="370" />
  <tile />
  <tile gid="269" />
  <tile gid="204" />
  <tile />
  <tile />
  <tile gid="297" />
  <tile gid="402" />
  <tile gid="146" />
  <tile gid="296" />
  <tile gid="300" />
  <tile />
  <tile />
  <tile gid="201" />
  <tile gid="232" />
  <tile gid="239" />
  <tile />
  <tile />
  <tile />
  <tile />
  <tile gid="302" />
  <tile />
  <tile />
  <tile />
  <tile />
  <tile />
  <tile />
  <tile />
  <tile />
  <tile />
  <tile />
  <tile />
  <tile />
  </data></layer></map>