<?xml version='1.0' encoding='utf-8'?>
<map version="1.5" tiledversion="1.7.2" orientation="orthogonal" renderorder="right-down" width="6" height="9" tilewidth="16" tileheight="16" infinite="0" nextlayerid="2" nextobjectid="1"><tileset firstgid="1" name="Fields" tilewidth="16" tileheight="16" tilecount="1024" columns="32"><image source="../../../../Tilesets/Fields.png" width="512" height="512" /></tileset><layer id="1" name="Main" width="6" height="9"><data>
  <tile />
  <tile />
  <tile />
  <tile />
  <tile />
  <tile />
  <tile />
  <tile />
  <tile />
  <tile gid="396" />
  <tile />
  <tile />
  <tile />
  <tile />
  <tile gid="261" />
  <tile gid="294" />
  <tile />
  <tile />
  <tile />
  <tile gid="333" />
  <tile gid="334" />
  <tile />
  <tile />
  <tile />
  <tile />
  <tile />
  <tile gid="397" />
  <tile />
  <tile />
  <tile />
  <tile />
  <tile />
  <tile gid="369" />
  <tile gid="200" />
  <tile />
  <tile />
  <tile gid="146" />
  <tile gid="3" />
  <tile gid="434" />
  <tile gid="402" />
  <tile gid="206" />
  <tile />
  <tile gid="360" />
  <tile gid="3" />
  <tile gid="306" />
  <tile gid="296" />
  <tile gid="236" />
  <tile />
  <tile />
  <tile />
  <tile />
  <tile />
  <tile />
  <tile />
  </data></layer></map>