<?xml version='1.0' encoding='utf-8'?>
<map version="1.5" tiledversion="1.7.2" orientation="orthogonal" renderorder="right-down" width="8" height="5" tilewidth="16" tileheight="16" infinite="0" nextlayerid="2" nextobjectid="1"><tileset firstgid="1" name="Fields" tilewidth="16" tileheight="16" tilecount="1024" columns="32"><image source="../../../../Tilesets/Fields.png" width="512" height="512" /></tileset><layer id="1" name="Main" width="8" height="5"><data>
  <tile />
  <tile />
  <tile />
  <tile />
  <tile />
  <tile />
  <tile />
  <tile />
  <tile />
  <tile />
  <tile />
  <tile />
  <tile gid="362" />
  <tile />
  <tile />
  <tile />
  <tile />
  <tile gid="396" />
  <tile />
  <tile />
  <tile gid="203" />
  <tile gid="268" />
  <tile gid="332" />
  <tile />
  <tile />
  <tile gid="367" />
  <tile gid="368" />
  <tile gid="269" />
  <tile gid="201" />
  <tile gid="266" />
  <tile />
  <tile />
  <tile />
  <tile gid="293" />
  <tile gid="146" />
  <tile gid="402" />
  <tile gid="434" />
  <tile gid="232" />
  <tile />
  <tile />
  </data></layer></map>