<?xml version='1.0' encoding='utf-8'?>
<map version="1.5" tiledversion="1.7.2" orientation="orthogonal" renderorder="right-down" width="8" height="8" tilewidth="16" tileheight="16" infinite="0" nextlayerid="2" nextobjectid="1"><tileset firstgid="1" name="Fields" tilewidth="16" tileheight="16" tilecount="1024" columns="32"><image source="../../../../Tilesets/Fields.png" width="512" height="512" /></tileset><layer id="1" name="Main" width="8" height="8"><data>
  <tile />
  <tile />
  <tile />
  <tile gid="297" />
  <tile gid="272" />
  <tile />
  <tile />
  <tile />
  <tile />
  <tile />
  <tile />
  <tile gid="265" />
  <tile gid="298" />
  <tile />
  <tile />
  <tile />
  <tile />
  <tile />
  <tile gid="199" />
  <tile gid="870" />
  <tile gid="238" />
  <tile />
  <tile />
  <tile />
  <tile />
  <tile gid="205" />
  <tile gid="434" />
  <tile gid="434" />
  <tile gid="200" />
  <tile />
  <tile />
  <tile />
  <tile />
  <tile gid="357" />
  <tile gid="295" />
  <tile gid="870" />
  <tile gid="178" />
  <tile gid="200" />
  <tile />
  <tile />
  <tile gid="396" />
  <tile />
  <tile />
  <tile gid="239" />
  <tile />
  <tile gid="297" />
  <tile gid="148" />
  <tile />
  <tile gid="397" />
  <tile />
  <tile />
  <tile />
  <tile />
  <tile gid="235" />
  <tile gid="302" />
  <tile />
  <tile gid="360" />
  <tile />
  <tile />
  <tile />
  <tile />
  <tile />
  <tile />
  <tile />
  </data></layer></map>