<?xml version='1.0' encoding='utf-8'?>
<map version="1.5" tiledversion="1.7.2" orientation="orthogonal" renderorder="right-down" width="10" height="6" tilewidth="16" tileheight="16" infinite="0" nextlayerid="2" nextobjectid="1"><tileset firstgid="1" name="Fields" tilewidth="16" tileheight="16" tilecount="1024" columns="32"><image source="../../../../Tilesets/Fields.png" width="512" height="512" /></tileset><layer id="1" name="Main" width="10" height="6"><data>
  <tile />
  <tile />
  <tile />
  <tile />
  <tile />
  <tile />
  <tile />
  <tile />
  <tile />
  <tile />
  <tile />
  <tile gid="396" />
  <tile />
  <tile gid="199" />
  <tile gid="391" />
  <tile />
  <tile />
  <tile />
  <tile />
  <tile />
  <tile />
  <tile gid="231" />
  <tile gid="338" />
  <tile gid="178" />
  <tile gid="264" />
  <tile gid="273" />
  <tile gid="275" />
  <tile gid="200" />
  <tile />
  <tile gid="199" />
  <tile />
  <tile />
  <tile />
  <tile />
  <tile gid="361" />
  <tile gid="337" />
  <tile gid="295" />
  <tile gid="272" />
  <tile />
  <tile gid="361" />
  <tile />
  <tile />
  <tile />
  <tile />
  <tile />
  <tile />
  <tile />
  <tile gid="301" />
  <tile gid="359" />
  <tile />
  <tile />
  <tile />
  <tile />
  <tile />
  <tile />
  <tile />
  <tile />
  <tile />
  <tile />
  <tile />
  </data></layer></map>