<?xml version='1.0' encoding='utf-8'?>
<map version="1.5" tiledversion="1.7.2" orientation="orthogonal" renderorder="right-down" width="5" height="11" tilewidth="16" tileheight="16" infinite="0" nextlayerid="2" nextobjectid="1"><tileset firstgid="1" name="Fields" tilewidth="16" tileheight="16" tilecount="1024" columns="32"><image source="../../../../Tilesets/Fields.png" width="512" height="512" /></tileset><layer id="1" name="Main" width="5" height="11"><data>
  <tile />
  <tile />
  <tile />
  <tile />
  <tile />
  <tile />
  <tile />
  <tile gid="396" />
  <tile />
  <tile />
  <tile />
  <tile />
  <tile gid="397" />
  <tile />
  <tile />
  <tile />
  <tile />
  <tile gid="369" />
  <tile gid="210" />
  <tile />
  <tile />
  <tile />
  <tile gid="329" />
  <tile gid="268" />
  <tile />
  <tile />
  <tile />
  <tile gid="237" />
  <tile gid="266" />
  <tile />
  <tile />
  <tile />
  <tile />
  <tile gid="35" />
  <tile />
  <tile />
  <tile />
  <tile />
  <tile gid="397" />
  <tile />
  <tile />
  <tile />
  <tile gid="325" />
  <tile gid="308" />
  <tile />
  <tile />
  <tile gid="299" />
  <tile gid="300" />
  <tile />
  <tile />
  <tile gid="207" />
  <tile />
  <tile />
  <tile />
  <tile />
  </data></layer></map>