<?xml version='1.0' encoding='utf-8'?>
<map version="1.5" tiledversion="1.7.2" orientation="orthogonal" renderorder="right-down" width="11" height="8" tilewidth="16" tileheight="16" infinite="0" nextlayerid="2" nextobjectid="1"><tileset firstgid="1" name="Fields" tilewidth="16" tileheight="16" tilecount="1024" columns="32"><image source="../../../../Tilesets/Fields.png" width="512" height="512" /></tileset><layer id="1" name="Main" width="11" height="8"><data>
  <tile />
  <tile />
  <tile gid="199" />
  <tile gid="296" />
  <tile gid="307" />
  <tile gid="306" />
  <tile gid="232" />
  <tile />
  <tile />
  <tile />
  <tile />
  <tile gid="199" />
  <tile gid="338" />
  <tile gid="436" />
  <tile gid="210" />
  <tile />
  <tile />
  <tile />
  <tile gid="267" />
  <tile gid="273" />
  <tile gid="268" />
  <tile />
  <tile gid="436" />
  <tile gid="206" />
  <tile gid="239" />
  <tile />
  <tile gid="325" />
  <tile gid="338" />
  <tile gid="328" />
  <tile />
  <tile gid="434" />
  <tile gid="238" />
  <tile />
  <tile gid="233" />
  <tile gid="304" />
  <tile />
  <tile gid="199" />
  <tile gid="304" />
  <tile />
  <tile gid="235" />
  <tile gid="305" />
  <tile gid="302" />
  <tile />
  <tile />
  <tile gid="237" />
  <tile gid="266" />
  <tile gid="199" />
  <tile gid="296" />
  <tile gid="236" />
  <tile />
  <tile />
  <tile />
  <tile />
  <tile />
  <tile />
  <tile gid="199" />
  <tile gid="306" />
  <tile gid="232" />
  <tile />
  <tile />
  <tile />
  <tile />
  <tile />
  <tile />
  <tile />
  <tile />
  <tile gid="232" />
  <tile />
  <tile />
  <tile />
  <tile />
  <tile />
  <tile />
  <tile />
  <tile />
  <tile />
  <tile />
  <tile />
  <tile />
  <tile />
  <tile />
  <tile />
  <tile />
  <tile />
  <tile />
  <tile />
  <tile />
  <tile />
  </data></layer></map>