<?xml version='1.0' encoding='utf-8'?>
<map version="1.5" tiledversion="1.7.2" orientation="orthogonal" renderorder="right-down" width="7" height="6" tilewidth="16" tileheight="16" infinite="0" nextlayerid="2" nextobjectid="1"><tileset firstgid="1" name="Fields" tilewidth="16" tileheight="16" tilecount="1024" columns="32"><image source="../../../../Tilesets/Fields.png" width="512" height="512" /></tileset><layer id="1" name="Main" width="7" height="6"><data>
  <tile />
  <tile />
  <tile />
  <tile />
  <tile />
  <tile />
  <tile />
  <tile />
  <tile />
  <tile />
  <tile />
  <tile gid="199" />
  <tile gid="206" />
  <tile />
  <tile />
  <tile />
  <tile gid="203" />
  <tile gid="263" />
  <tile gid="339" />
  <tile gid="399" />
  <tile />
  <tile />
  <tile />
  <tile gid="303" />
  <tile gid="234" />
  <tile gid="305" />
  <tile />
  <tile />
  <tile />
  <tile gid="269" />
  <tile gid="392" />
  <tile />
  <tile />
  <tile />
  <tile />
  <tile />
  <tile gid="35" />
  <tile gid="35" />
  <tile />
  <tile />
  <tile />
  <tile />
  </data></layer></map>