<?xml version='1.0' encoding='utf-8'?>
<map version="1.5" tiledversion="1.7.2" orientation="orthogonal" renderorder="right-down" width="12" height="5" tilewidth="16" tileheight="16" infinite="0" nextlayerid="2" nextobjectid="1"><tileset firstgid="1" name="Fields" tilewidth="16" tileheight="16" tilecount="1024" columns="32"><image source="../../../../Tilesets/Fields.png" width="512" height="512" /></tileset><layer id="1" name="Main" width="12" height="5"><data>
  <tile />
  <tile />
  <tile />
  <tile />
  <tile />
  <tile />
  <tile />
  <tile />
  <tile />
  <tile />
  <tile />
  <tile gid="261" />
  <tile />
  <tile gid="396" />
  <tile />
  <tile />
  <tile />
  <tile />
  <tile />
  <tile />
  <tile />
  <tile />
  <tile />
  <tile gid="294" />
  <tile />
  <tile gid="367" />
  <tile gid="368" />
  <tile gid="261" />
  <tile gid="262" />
  <tile gid="199" />
  <tile gid="436" />
  <tile gid="725" />
  <tile gid="437" />
  <tile />
  <tile gid="232" />
  <tile />
  <tile />
  <tile gid="293" />
  <tile gid="338" />
  <tile gid="294" />
  <tile gid="293" />
  <tile gid="294" />
  <tile gid="231" />
  <tile gid="178" />
  <tile gid="725" />
  <tile gid="725" />
  <tile gid="262" />
  <tile />
  <tile />
  <tile />
  <tile />
  <tile />
  <tile />
  <tile />
  <tile />
  <tile />
  <tile gid="231" />
  <tile gid="232" />
  <tile gid="239" />
  <tile />
  </data></layer></map>