<?xml version='1.0' encoding='utf-8'?>
<map version="1.5" tiledversion="1.7.2" orientation="orthogonal" renderorder="right-down" width="14" height="7" tilewidth="16" tileheight="16" infinite="0" nextlayerid="2" nextobjectid="1"><tileset firstgid="1" name="Fields" tilewidth="16" tileheight="16" tilecount="1024" columns="32"><image source="../../../../Tilesets/Fields.png" width="512" height="512" /></tileset><layer id="1" name="Main" width="14" height="7"><data>
  <tile />
  <tile />
  <tile />
  <tile />
  <tile />
  <tile />
  <tile />
  <tile />
  <tile />
  <tile />
  <tile />
  <tile />
  <tile />
  <tile />
  <tile />
  <tile />
  <tile />
  <tile />
  <tile />
  <tile />
  <tile />
  <tile gid="261" />
  <tile gid="391" />
  <tile />
  <tile />
  <tile />
  <tile />
  <tile />
  <tile />
  <tile />
  <tile />
  <tile />
  <tile />
  <tile />
  <tile gid="209" />
  <tile gid="334" />
  <tile />
  <tile />
  <tile />
  <tile gid="209" />
  <tile gid="232" />
  <tile />
  <tile />
  <tile />
  <tile />
  <tile gid="199" />
  <tile />
  <tile />
  <tile />
  <tile gid="367" />
  <tile gid="368" />
  <tile gid="367" />
  <tile gid="368" />
  <tile />
  <tile />
  <tile />
  <tile />
  <tile gid="261" />
  <tile gid="338" />
  <tile gid="178" />
  <tile gid="437" />
  <tile />
  <tile gid="200" />
  <tile gid="369" />
  <tile gid="274" />
  <tile gid="177" />
  <tile />
  <tile />
  <tile />
  <tile />
  <tile gid="333" />
  <tile gid="334" />
  <tile />
  <tile />
  <tile gid="231" />
  <tile gid="177" />
  <tile gid="231" />
  <tile gid="232" />
  <tile gid="297" />
  <tile />
  <tile gid="200" />
  <tile />
  <tile gid="396" />
  <tile />
  <tile />
  <tile gid="367" />
  <tile />
  <tile />
  <tile gid="199" />
  <tile gid="178" />
  <tile gid="200" />
  <tile />
  <tile gid="365" />
  <tile gid="366" />
  <tile gid="231" />
  <tile gid="274" />
  <tile gid="232" />
  <tile />
  </data></layer></map>