<?xml version='1.0' encoding='utf-8'?>
<map version="1.5" tiledversion="1.7.2" orientation="orthogonal" renderorder="right-down" width="12" height="14" tilewidth="16" tileheight="16" infinite="0" nextlayerid="2" nextobjectid="1"><tileset firstgid="1" name="Fields" tilewidth="16" tileheight="16" tilecount="1024" columns="32"><image source="../../../../Tilesets/Fields.png" width="512" height="512" /></tileset><layer id="1" name="Main" width="12" height="14"><data>
  <tile />
  <tile />
  <tile />
  <tile />
  <tile />
  <tile />
  <tile />
  <tile gid="303" />
  <tile />
  <tile />
  <tile />
  <tile />
  <tile />
  <tile />
  <tile />
  <tile gid="207" />
  <tile />
  <tile />
  <tile />
  <tile gid="235" />
  <tile gid="233" />
  <tile />
  <tile />
  <tile />
  <tile />
  <tile gid="396" />
  <tile />
  <tile gid="145" />
  <tile gid="200" />
  <tile gid="199" />
  <tile gid="210" />
  <tile />
  <tile />
  <tile />
  <tile />
  <tile />
  <tile />
  <tile gid="231" />
  <tile gid="274" />
  <tile gid="402" />
  <tile gid="178" />
  <tile gid="232" />
  <tile gid="209" />
  <tile />
  <tile />
  <tile />
  <tile />
  <tile />
  <tile />
  <tile gid="359" />
  <tile gid="231" />
  <tile gid="232" />
  <tile />
  <tile />
  <tile gid="261" />
  <tile />
  <tile />
  <tile />
  <tile />
  <tile />
  <tile />
  <tile />
  <tile />
  <tile />
  <tile />
  <tile />
  <tile gid="367" />
  <tile gid="368" />
  <tile />
  <tile />
  <tile />
  <tile />
  <tile />
  <tile />
  <tile />
  <tile />
  <tile />
  <tile />
  <tile gid="293" />
  <tile gid="262" />
  <tile />
  <tile />
  <tile />
  <tile />
  <tile />
  <tile />
  <tile />
  <tile />
  <tile />
  <tile />
  <tile gid="261" />
  <tile gid="294" />
  <tile />
  <tile />
  <tile />
  <tile />
  <tile />
  <tile />
  <tile />
  <tile gid="199" />
  <tile gid="200" />
  <tile gid="199" />
  <tile gid="232" />
  <tile />
  <tile />
  <tile />
  <tile />
  <tile />
  <tile />
  <tile />
  <tile />
  <tile gid="145" />
  <tile gid="402" />
  <tile gid="232" />
  <tile gid="199" />
  <tile gid="200" />
  <tile />
  <tile />
  <tile />
  <tile />
  <tile />
  <tile gid="209" />
  <tile gid="274" />
  <tile gid="402" />
  <tile gid="402" />
  <tile gid="200" />
  <tile gid="271" />
  <tile gid="402" />
  <tile gid="276" />
  <tile gid="207" />
  <tile />
  <tile />
  <tile />
  <tile />
  <tile gid="231" />
  <tile gid="232" />
  <tile gid="231" />
  <tile gid="178" />
  <tile gid="232" />
  <tile gid="271" />
  <tile gid="402" />
  <tile gid="434" />
  <tile gid="276" />
  <tile />
  <tile />
  <tile />
  <tile />
  <tile />
  <tile />
  <tile />
  <tile gid="209" />
  <tile gid="402" />
  <tile gid="434" />
  <tile gid="232" />
  <tile gid="239" />
  <tile />
  <tile />
  <tile />
  <tile />
  <tile />
  <tile />
  <tile />
  <tile />
  <tile gid="231" />
  <tile gid="232" />
  <tile />
  <tile />
  <tile />
  </data></layer></map>