<?xml version='1.0' encoding='utf-8'?>
<map version="1.5" tiledversion="1.7.2" orientation="orthogonal" renderorder="right-down" width="19" height="18" tilewidth="16" tileheight="16" infinite="0" nextlayerid="2" nextobjectid="1"><tileset firstgid="1" name="Fields" tilewidth="16" tileheight="16" tilecount="1024" columns="32"><image source="../../../../Tilesets/Fields.png" width="512" height="512" /></tileset><layer id="1" name="Main" width="19" height="18"><data>
  <tile />
  <tile />
  <tile gid="199" />
  <tile gid="200" />
  <tile />
  <tile />
  <tile />
  <tile />
  <tile />
  <tile />
  <tile />
  <tile />
  <tile />
  <tile />
  <tile />
  <tile />
  <tile />
  <tile />
  <tile />
  <tile gid="200" />
  <tile gid="199" />
  <tile />
  <tile />
  <tile />
  <tile gid="333" />
  <tile gid="334" />
  <tile />
  <tile />
  <tile />
  <tile />
  <tile />
  <tile />
  <tile />
  <tile />
  <tile />
  <tile />
  <tile />
  <tile />
  <tile gid="231" />
  <tile gid="296" />
  <tile />
  <tile />
  <tile />
  <tile gid="333" />
  <tile gid="334" />
  <tile />
  <tile />
  <tile />
  <tile />
  <tile />
  <tile />
  <tile />
  <tile />
  <tile />
  <tile />
  <tile />
  <tile />
  <tile />
  <tile />
  <tile />
  <tile gid="396" />
  <tile />
  <tile gid="207" />
  <tile gid="332" />
  <tile />
  <tile />
  <tile />
  <tile />
  <tile />
  <tile />
  <tile />
  <tile />
  <tile />
  <tile />
  <tile />
  <tile />
  <tile />
  <tile />
  <tile gid="199" />
  <tile gid="178" />
  <tile gid="338" />
  <tile gid="232" />
  <tile />
  <tile />
  <tile />
  <tile />
  <tile />
  <tile />
  <tile />
  <tile />
  <tile />
  <tile />
  <tile />
  <tile />
  <tile />
  <tile />
  <tile />
  <tile gid="145" />
  <tile gid="210" />
  <tile />
  <tile />
  <tile />
  <tile />
  <tile />
  <tile />
  <tile />
  <tile />
  <tile />
  <tile />
  <tile />
  <tile />
  <tile />
  <tile />
  <tile />
  <tile />
  <tile gid="199" />
  <tile gid="434" />
  <tile gid="200" />
  <tile />
  <tile />
  <tile />
  <tile />
  <tile />
  <tile />
  <tile />
  <tile />
  <tile />
  <tile />
  <tile />
  <tile />
  <tile />
  <tile />
  <tile />
  <tile />
  <tile gid="231" />
  <tile gid="232" />
  <tile gid="145" />
  <tile gid="146" />
  <tile gid="232" />
  <tile />
  <tile />
  <tile />
  <tile />
  <tile />
  <tile />
  <tile />
  <tile />
  <tile />
  <tile />
  <tile />
  <tile />
  <tile />
  <tile />
  <tile />
  <tile gid="333" />
  <tile gid="177" />
  <tile gid="239" />
  <tile />
  <tile />
  <tile />
  <tile />
  <tile />
  <tile />
  <tile />
  <tile />
  <tile />
  <tile />
  <tile />
  <tile />
  <tile />
  <tile />
  <tile />
  <tile />
  <tile />
  <tile gid="145" />
  <tile gid="146" />
  <tile gid="200" />
  <tile gid="199" />
  <tile gid="232" />
  <tile />
  <tile />
  <tile />
  <tile />
  <tile />
  <tile />
  <tile />
  <tile />
  <tile />
  <tile />
  <tile />
  <tile />
  <tile />
  <tile />
  <tile gid="145" />
  <tile gid="232" />
  <tile gid="231" />
  <tile gid="232" />
  <tile />
  <tile />
  <tile />
  <tile />
  <tile />
  <tile />
  <tile />
  <tile />
  <tile />
  <tile />
  <tile gid="207" />
  <tile />
  <tile />
  <tile />
  <tile gid="199" />
  <tile gid="177" />
  <tile gid="199" />
  <tile gid="200" />
  <tile />
  <tile />
  <tile />
  <tile />
  <tile />
  <tile />
  <tile />
  <tile />
  <tile />
  <tile />
  <tile />
  <tile gid="367" />
  <tile gid="368" />
  <tile />
  <tile />
  <tile gid="231" />
  <tile gid="434" />
  <tile gid="177" />
  <tile gid="239" />
  <tile />
  <tile />
  <tile />
  <tile />
  <tile />
  <tile />
  <tile />
  <tile />
  <tile />
  <tile gid="209" />
  <tile gid="274" />
  <tile gid="370" />
  <tile />
  <tile />
  <tile />
  <tile />
  <tile gid="145" />
  <tile gid="232" />
  <tile />
  <tile />
  <tile />
  <tile />
  <tile />
  <tile />
  <tile />
  <tile />
  <tile />
  <tile />
  <tile />
  <tile gid="271" />
  <tile gid="232" />
  <tile />
  <tile gid="200" />
  <tile gid="199" />
  <tile gid="146" />
  <tile gid="434" />
  <tile />
  <tile />
  <tile gid="200" />
  <tile />
  <tile />
  <tile />
  <tile />
  <tile />
  <tile />
  <tile gid="203" />
  <tile gid="208" />
  <tile gid="934" />
  <tile gid="402" />
  <tile gid="210" />
  <tile />
  <tile gid="231" />
  <tile gid="232" />
  <tile gid="231" />
  <tile gid="934" />
  <tile gid="437" />
  <tile gid="438" />
  <tile gid="177" />
  <tile gid="207" />
  <tile />
  <tile />
  <tile />
  <tile />
  <tile />
  <tile gid="265" />
  <tile gid="402" />
  <tile gid="178" />
  <tile />
  <tile />
  <tile />
  <tile />
  <tile />
  <tile />
  <tile gid="145" />
  <tile gid="402" />
  <tile gid="402" />
  <tile gid="402" />
  <tile gid="402" />
  <tile gid="146" />
  <tile gid="200" />
  <tile gid="199" />
  <tile gid="200" />
  <tile />
  <tile gid="231" />
  <tile gid="177" />
  <tile />
  <tile />
  <tile />
  <tile />
  <tile />
  <tile />
  <tile />
  <tile gid="231" />
  <tile gid="402" />
  <tile gid="434" />
  <tile gid="232" />
  <tile gid="231" />
  <tile gid="178" />
  <tile gid="306" />
  <tile gid="232" />
  <tile gid="231" />
  <tile gid="264" />
  <tile gid="263" />
  <tile gid="434" />
  <tile gid="200" />
  <tile />
  <tile />
  <tile />
  </data></layer></map>