<?xml version='1.0' encoding='utf-8'?>
<map version="1.5" tiledversion="1.7.2" orientation="orthogonal" renderorder="right-down" width="8" height="13" tilewidth="16" tileheight="16" infinite="0" nextlayerid="2" nextobjectid="1"><tileset firstgid="1" name="Fields" tilewidth="16" tileheight="16" tilecount="1024" columns="32"><image source="../../../../Tilesets/Fields.png" width="512" height="512" /></tileset><layer id="1" name="Main" width="8" height="13"><data>
  <tile />
  <tile />
  <tile />
  <tile />
  <tile />
  <tile />
  <tile />
  <tile />
  <tile />
  <tile gid="207" />
  <tile />
  <tile />
  <tile />
  <tile />
  <tile />
  <tile />
  <tile />
  <tile gid="231" />
  <tile gid="200" />
  <tile />
  <tile />
  <tile />
  <tile />
  <tile />
  <tile />
  <tile gid="199" />
  <tile gid="178" />
  <tile gid="262" />
  <tile />
  <tile />
  <tile />
  <tile />
  <tile />
  <tile gid="332" />
  <tile gid="333" />
  <tile gid="334" />
  <tile />
  <tile />
  <tile />
  <tile />
  <tile />
  <tile />
  <tile />
  <tile gid="367" />
  <tile gid="368" />
  <tile gid="207" />
  <tile />
  <tile />
  <tile />
  <tile />
  <tile gid="199" />
  <tile gid="434" />
  <tile gid="146" />
  <tile gid="434" />
  <tile gid="328" />
  <tile />
  <tile />
  <tile />
  <tile gid="934" />
  <tile gid="434" />
  <tile gid="434" />
  <tile gid="232" />
  <tile />
  <tile />
  <tile />
  <tile />
  <tile gid="307" />
  <tile gid="178" />
  <tile gid="434" />
  <tile gid="206" />
  <tile />
  <tile />
  <tile />
  <tile />
  <tile />
  <tile />
  <tile gid="301" />
  <tile gid="366" />
  <tile />
  <tile />
  <tile />
  <tile />
  <tile />
  <tile />
  <tile gid="335" />
  <tile gid="336" />
  <tile />
  <tile />
  <tile />
  <tile />
  <tile />
  <tile />
  <tile gid="365" />
  <tile gid="366" />
  <tile />
  <tile />
  <tile />
  <tile />
  <tile />
  <tile />
  <tile />
  <tile />
  <tile />
  <tile />
  </data></layer></map>