<?xml version='1.0' encoding='utf-8'?>
<map version="1.5" tiledversion="1.7.2" orientation="orthogonal" renderorder="right-down" width="10" height="8" tilewidth="16" tileheight="16" infinite="0" nextlayerid="2" nextobjectid="1"><tileset firstgid="1" name="Fields" tilewidth="16" tileheight="16" tilecount="1024" columns="32"><image source="../../../../Tilesets/Fields.png" width="512" height="512" /></tileset><layer id="1" name="Main" width="10" height="8"><data>
  <tile />
  <tile />
  <tile />
  <tile />
  <tile />
  <tile gid="199" />
  <tile />
  <tile />
  <tile />
  <tile />
  <tile />
  <tile />
  <tile />
  <tile />
  <tile />
  <tile gid="271" />
  <tile />
  <tile />
  <tile />
  <tile />
  <tile />
  <tile />
  <tile />
  <tile gid="269" />
  <tile gid="199" />
  <tile gid="402" />
  <tile gid="232" />
  <tile />
  <tile />
  <tile />
  <tile />
  <tile gid="203" />
  <tile gid="275" />
  <tile gid="434" />
  <tile gid="434" />
  <tile gid="434" />
  <tile gid="200" />
  <tile gid="207" />
  <tile />
  <tile />
  <tile />
  <tile gid="235" />
  <tile gid="307" />
  <tile gid="434" />
  <tile gid="434" />
  <tile gid="434" />
  <tile gid="434" />
  <tile gid="434" />
  <tile gid="210" />
  <tile />
  <tile gid="200" />
  <tile />
  <tile />
  <tile gid="145" />
  <tile gid="232" />
  <tile gid="301" />
  <tile gid="240" />
  <tile gid="302" />
  <tile />
  <tile />
  <tile gid="402" />
  <tile gid="210" />
  <tile />
  <tile gid="231" />
  <tile />
  <tile />
  <tile />
  <tile />
  <tile />
  <tile />
  <tile />
  <tile />
  <tile />
  <tile />
  <tile gid="302" />
  <tile />
  <tile />
  <tile />
  <tile />
  <tile />
  </data></layer></map>