<?xml version='1.0' encoding='utf-8'?>
<map version="1.5" tiledversion="1.7.2" orientation="orthogonal" renderorder="right-down" width="11" height="9" tilewidth="16" tileheight="16" infinite="0" nextlayerid="2" nextobjectid="1"><tileset firstgid="1" name="Fields" tilewidth="16" tileheight="16" tilecount="1024" columns="32"><image source="../../../../Tilesets/Fields.png" width="512" height="512" /></tileset><layer id="1" name="Main" width="11" height="9"><data>
  <tile gid="178" />
  <tile gid="232" />
  <tile />
  <tile />
  <tile />
  <tile />
  <tile gid="261" />
  <tile gid="178" />
  <tile gid="232" />
  <tile />
  <tile />
  <tile />
  <tile />
  <tile />
  <tile />
  <tile />
  <tile />
  <tile gid="293" />
  <tile gid="391" />
  <tile />
  <tile gid="367" />
  <tile gid="368" />
  <tile />
  <tile />
  <tile />
  <tile />
  <tile />
  <tile />
  <tile />
  <tile />
  <tile gid="333" />
  <tile gid="334" />
  <tile />
  <tile />
  <tile />
  <tile />
  <tile />
  <tile />
  <tile />
  <tile gid="367" />
  <tile gid="368" />
  <tile />
  <tile gid="332" />
  <tile gid="199" />
  <tile />
  <tile gid="261" />
  <tile gid="262" />
  <tile gid="199" />
  <tile gid="200" />
  <tile gid="393" />
  <tile gid="293" />
  <tile gid="391" />
  <tile gid="199" />
  <tile gid="200" />
  <tile gid="145" />
  <tile />
  <tile gid="294" />
  <tile gid="293" />
  <tile gid="232" />
  <tile gid="231" />
  <tile gid="436" />
  <tile gid="200" />
  <tile gid="199" />
  <tile gid="402" />
  <tile gid="725" />
  <tile gid="434" />
  <tile gid="232" />
  <tile />
  <tile />
  <tile />
  <tile />
  <tile gid="145" />
  <tile gid="725" />
  <tile gid="725" />
  <tile gid="434" />
  <tile gid="725" />
  <tile gid="178" />
  <tile gid="262" />
  <tile />
  <tile />
  <tile />
  <tile />
  <tile gid="231" />
  <tile gid="725" />
  <tile gid="177" />
  <tile gid="231" />
  <tile gid="232" />
  <tile />
  <tile gid="239" />
  <tile />
  <tile />
  <tile />
  <tile />
  <tile />
  <tile gid="231" />
  <tile gid="232" />
  <tile />
  <tile />
  <tile />
  </data></layer></map>