<?xml version='1.0' encoding='utf-8'?>
<map version="1.5" tiledversion="1.7.2" orientation="orthogonal" renderorder="right-down" width="9" height="6" tilewidth="16" tileheight="16" infinite="0" nextlayerid="2" nextobjectid="1"><tileset firstgid="1" name="Fields" tilewidth="16" tileheight="16" tilecount="1024" columns="32"><image source="../../../../Tilesets/Fields.png" width="512" height="512" /></tileset><layer id="1" name="Main" width="9" height="6"><data>
  <tile />
  <tile />
  <tile />
  <tile />
  <tile />
  <tile />
  <tile />
  <tile />
  <tile />
  <tile />
  <tile />
  <tile gid="760" />
  <tile gid="727" />
  <tile gid="761" />
  <tile />
  <tile />
  <tile />
  <tile />
  <tile />
  <tile />
  <tile gid="759" />
  <tile gid="764" />
  <tile gid="793" />
  <tile />
  <tile gid="870" />
  <tile gid="200" />
  <tile />
  <tile />
  <tile />
  <tile gid="790" />
  <tile />
  <tile gid="199" />
  <tile gid="436" />
  <tile gid="402" />
  <tile gid="232" />
  <tile />
  <tile />
  <tile />
  <tile gid="271" />
  <tile gid="274" />
  <tile gid="294" />
  <tile gid="301" />
  <tile gid="302" />
  <tile />
  <tile />
  <tile />
  <tile gid="199" />
  <tile gid="434" />
  <tile gid="272" />
  <tile />
  <tile />
  <tile />
  <tile />
  <tile />
  </data></layer></map>