<?xml version='1.0' encoding='utf-8'?>
<map version="1.5" tiledversion="1.7.2" orientation="orthogonal" renderorder="right-down" width="15" height="12" tilewidth="16" tileheight="16" infinite="0" nextlayerid="2" nextobjectid="1"><tileset firstgid="1" name="Fields" tilewidth="16" tileheight="16" tilecount="1024" columns="32"><image source="../../../../Tilesets/Fields.png" width="512" height="512" /></tileset><layer id="1" name="Main" width="15" height="12"><data>
  <tile />
  <tile />
  <tile />
  <tile />
  <tile />
  <tile />
  <tile />
  <tile />
  <tile />
  <tile />
  <tile />
  <tile />
  <tile />
  <tile />
  <tile />
  <tile />
  <tile />
  <tile />
  <tile />
  <tile />
  <tile gid="207" />
  <tile />
  <tile />
  <tile />
  <tile />
  <tile />
  <tile />
  <tile />
  <tile gid="203" />
  <tile gid="275" />
  <tile />
  <tile />
  <tile />
  <tile gid="209" />
  <tile gid="328" />
  <tile gid="331" />
  <tile />
  <tile />
  <tile />
  <tile />
  <tile />
  <tile gid="145" />
  <tile gid="210" />
  <tile gid="265" />
  <tile gid="317" />
  <tile />
  <tile />
  <tile />
  <tile />
  <tile gid="265" />
  <tile gid="238" />
  <tile />
  <tile />
  <tile gid="199" />
  <tile gid="264" />
  <tile gid="275" />
  <tile gid="177" />
  <tile gid="209" />
  <tile gid="934" />
  <tile />
  <tile />
  <tile />
  <tile />
  <tile gid="209" />
  <tile gid="177" />
  <tile />
  <tile />
  <tile />
  <tile gid="317" />
  <tile gid="317" />
  <tile gid="317" />
  <tile gid="317" />
  <tile gid="146" />
  <tile gid="317" />
  <tile />
  <tile />
  <tile />
  <tile />
  <tile />
  <tile gid="231" />
  <tile gid="210" />
  <tile />
  <tile gid="438" />
  <tile gid="934" />
  <tile />
  <tile />
  <tile />
  <tile gid="317" />
  <tile />
  <tile />
  <tile />
  <tile />
  <tile />
  <tile />
  <tile />
  <tile />
  <tile />
  <tile gid="317" />
  <tile gid="317" />
  <tile />
  <tile />
  <tile />
  <tile />
  <tile />
  <tile />
  <tile />
  <tile />
  <tile gid="396" />
  <tile />
  <tile />
  <tile gid="396" />
  <tile />
  <tile gid="317" />
  <tile />
  <tile />
  <tile gid="934" />
  <tile />
  <tile />
  <tile />
  <tile />
  <tile />
  <tile gid="209" />
  <tile gid="178" />
  <tile gid="276" />
  <tile gid="270" />
  <tile gid="145" />
  <tile gid="438" />
  <tile gid="317" />
  <tile />
  <tile />
  <tile />
  <tile />
  <tile />
  <tile />
  <tile />
  <tile />
  <tile />
  <tile />
  <tile gid="231" />
  <tile gid="178" />
  <tile gid="177" />
  <tile gid="301" />
  <tile gid="307" />
  <tile gid="317" />
  <tile gid="317" />
  <tile />
  <tile />
  <tile />
  <tile gid="317" />
  <tile gid="308" />
  <tile />
  <tile />
  <tile />
  <tile />
  <tile />
  <tile gid="239" />
  <tile />
  <tile />
  <tile gid="239" />
  <tile gid="301" />
  <tile gid="307" />
  <tile gid="306" />
  <tile gid="296" />
  <tile gid="302" />
  <tile />
  <tile />
  <tile />
  <tile />
  <tile />
  <tile />
  <tile />
  <tile gid="209" />
  <tile gid="395" />
  <tile />
  <tile />
  <tile />
  <tile />
  <tile />
  <tile />
  <tile />
  </data></layer></map>