<?xml version='1.0' encoding='utf-8'?>
<map version="1.5" tiledversion="1.7.2" orientation="orthogonal" renderorder="right-down" width="4" height="8" tilewidth="16" tileheight="16" infinite="0" nextlayerid="2" nextobjectid="1"><tileset firstgid="1" name="Fields" tilewidth="16" tileheight="16" tilecount="1024" columns="32"><image source="../../../../Tilesets/Fields.png" width="512" height="512" /></tileset><layer id="1" name="Main" width="4" height="8"><data>
  <tile />
  <tile />
  <tile />
  <tile />
  <tile />
  <tile gid="396" />
  <tile />
  <tile gid="209" />
  <tile />
  <tile gid="145" />
  <tile gid="200" />
  <tile />
  <tile gid="199" />
  <tile gid="178" />
  <tile gid="232" />
  <tile />
  <tile gid="331" />
  <tile />
  <tile />
  <tile />
  <tile gid="266" />
  <tile />
  <tile />
  <tile />
  <tile gid="239" />
  <tile />
  <tile gid="396" />
  <tile />
  <tile />
  <tile />
  <tile gid="145" />
  <tile gid="328" />
  </data></layer></map>