<?xml version='1.0' encoding='utf-8'?>
<map version="1.5" tiledversion="1.7.2" orientation="orthogonal" renderorder="right-down" width="8" height="7" tilewidth="16" tileheight="16" infinite="0" nextlayerid="2" nextobjectid="1"><tileset firstgid="1" name="Fields" tilewidth="16" tileheight="16" tilecount="1024" columns="32"><image source="../../../../Tilesets/Fields.png" width="512" height="512" /></tileset><layer id="1" name="Main" width="8" height="7"><data>
  <tile />
  <tile />
  <tile />
  <tile />
  <tile gid="161" />
  <tile />
  <tile />
  <tile />
  <tile />
  <tile />
  <tile />
  <tile gid="205" />
  <tile gid="298" />
  <tile />
  <tile />
  <tile />
  <tile />
  <tile />
  <tile />
  <tile gid="265" />
  <tile gid="238" />
  <tile />
  <tile />
  <tile />
  <tile gid="210" />
  <tile />
  <tile gid="209" />
  <tile gid="177" />
  <tile />
  <tile />
  <tile />
  <tile />
  <tile />
  <tile gid="203" />
  <tile gid="275" />
  <tile gid="178" />
  <tile gid="146" />
  <tile gid="328" />
  <tile gid="204" />
  <tile />
  <tile />
  <tile gid="235" />
  <tile gid="302" />
  <tile />
  <tile gid="239" />
  <tile gid="235" />
  <tile gid="327" />
  <tile />
  <tile />
  <tile />
  <tile />
  <tile />
  <tile />
  <tile />
  <tile />
  <tile />
  </data></layer></map>