<?xml version='1.0' encoding='utf-8'?>
<map version="1.5" tiledversion="1.7.2" orientation="orthogonal" renderorder="right-down" width="7" height="7" tilewidth="16" tileheight="16" infinite="0" nextlayerid="2" nextobjectid="1"><tileset firstgid="1" name="Fields" tilewidth="16" tileheight="16" tilecount="1024" columns="32"><image source="../../../../Tilesets/Fields.png" width="512" height="512" /></tileset><layer id="1" name="Main" width="7" height="7"><data>
  <tile />
  <tile />
  <tile />
  <tile />
  <tile gid="239" />
  <tile />
  <tile />
  <tile />
  <tile />
  <tile />
  <tile />
  <tile />
  <tile gid="396" />
  <tile />
  <tile />
  <tile />
  <tile />
  <tile />
  <tile gid="203" />
  <tile gid="331" />
  <tile />
  <tile />
  <tile />
  <tile />
  <tile />
  <tile gid="265" />
  <tile gid="304" />
  <tile />
  <tile />
  <tile gid="269" />
  <tile gid="273" />
  <tile gid="275" />
  <tile gid="296" />
  <tile gid="236" />
  <tile />
  <tile gid="3" />
  <tile gid="402" />
  <tile gid="934" />
  <tile gid="177" />
  <tile />
  <tile />
  <tile />
  <tile />
  <tile gid="301" />
  <tile gid="307" />
  <tile gid="402" />
  <tile gid="200" />
  <tile />
  <tile />
  </data></layer></map>