<?xml version='1.0' encoding='utf-8'?>
<map version="1.5" tiledversion="1.7.2" orientation="orthogonal" renderorder="right-down" width="9" height="7" tilewidth="16" tileheight="16" infinite="0" nextlayerid="2" nextobjectid="1"><tileset firstgid="1" name="Fields" tilewidth="16" tileheight="16" tilecount="1024" columns="32"><image source="../../../../Tilesets/Fields.png" width="512" height="512" /></tileset><layer id="1" name="Main" width="9" height="7"><data>
  <tile />
  <tile gid="35" />
  <tile gid="35" />
  <tile />
  <tile />
  <tile />
  <tile />
  <tile />
  <tile />
  <tile />
  <tile gid="231" />
  <tile gid="200" />
  <tile gid="207" />
  <tile />
  <tile />
  <tile gid="199" />
  <tile gid="210" />
  <tile />
  <tile />
  <tile />
  <tile gid="145" />
  <tile gid="178" />
  <tile gid="146" />
  <tile gid="328" />
  <tile gid="331" />
  <tile />
  <tile />
  <tile />
  <tile />
  <tile gid="297" />
  <tile gid="206" />
  <tile gid="239" />
  <tile gid="235" />
  <tile gid="236" />
  <tile />
  <tile />
  <tile />
  <tile />
  <tile gid="237" />
  <tile gid="266" />
  <tile />
  <tile />
  <tile />
  <tile />
  <tile />
  <tile />
  <tile />
  <tile />
  <tile gid="239" />
  <tile />
  <tile />
  <tile />
  <tile />
  <tile />
  <tile />
  <tile />
  <tile />
  <tile />
  <tile />
  <tile />
  <tile />
  <tile />
  <tile />
  </data></layer></map>