<?xml version='1.0' encoding='utf-8'?>
<map version="1.5" tiledversion="1.7.2" orientation="orthogonal" renderorder="right-down" width="10" height="6" tilewidth="16" tileheight="16" infinite="0" nextlayerid="2" nextobjectid="1"><tileset firstgid="1" name="Fields" tilewidth="16" tileheight="16" tilecount="1024" columns="32"><image source="../../../../Tilesets/Fields.png" width="512" height="512" /></tileset><layer id="1" name="Main" width="10" height="6"><data>
  <tile />
  <tile />
  <tile gid="396" />
  <tile />
  <tile />
  <tile />
  <tile />
  <tile />
  <tile gid="239" />
  <tile />
  <tile />
  <tile gid="209" />
  <tile />
  <tile gid="395" />
  <tile />
  <tile />
  <tile />
  <tile gid="207" />
  <tile />
  <tile />
  <tile />
  <tile />
  <tile gid="145" />
  <tile gid="402" />
  <tile gid="146" />
  <tile gid="434" />
  <tile gid="146" />
  <tile gid="934" />
  <tile gid="206" />
  <tile />
  <tile gid="3" />
  <tile gid="263" />
  <tile gid="934" />
  <tile gid="434" />
  <tile gid="308" />
  <tile gid="295" />
  <tile gid="402" />
  <tile gid="308" />
  <tile gid="236" />
  <tile />
  <tile gid="3" />
  <tile gid="308" />
  <tile gid="295" />
  <tile gid="232" />
  <tile />
  <tile />
  <tile gid="239" />
  <tile />
  <tile />
  <tile />
  <tile />
  <tile />
  <tile />
  <tile />
  <tile />
  <tile />
  <tile />
  <tile />
  <tile />
  <tile />
  </data></layer></map>