<?xml version='1.0' encoding='utf-8'?>
<map version="1.5" tiledversion="1.7.2" orientation="orthogonal" renderorder="right-down" width="5" height="7" tilewidth="16" tileheight="16" infinite="0" nextlayerid="2" nextobjectid="1"><tileset firstgid="1" name="Fields" tilewidth="16" tileheight="16" tilecount="1024" columns="32"><image source="../../../../Tilesets/Fields.png" width="512" height="512" /></tileset><layer id="1" name="Main" width="5" height="7"><data>
  <tile />
  <tile />
  <tile />
  <tile />
  <tile />
  <tile />
  <tile gid="396" />
  <tile />
  <tile />
  <tile />
  <tile />
  <tile gid="329" />
  <tile gid="325" />
  <tile gid="146" />
  <tile gid="438" />
  <tile />
  <tile gid="398" />
  <tile gid="366" />
  <tile gid="231" />
  <tile gid="317" />
  <tile />
  <tile gid="364" />
  <tile gid="300" />
  <tile />
  <tile gid="239" />
  <tile />
  <tile gid="35" />
  <tile />
  <tile />
  <tile />
  <tile gid="395" />
  <tile />
  <tile />
  <tile />
  <tile gid="205" />
  </data></layer></map>