<?xml version='1.0' encoding='utf-8'?>
<map version="1.5" tiledversion="1.7.2" orientation="orthogonal" renderorder="right-down" width="13" height="9" tilewidth="16" tileheight="16" infinite="0" nextlayerid="2" nextobjectid="1"><tileset firstgid="1" name="Fields" tilewidth="16" tileheight="16" tilecount="1024" columns="32"><image source="../../../../Tilesets/Fields.png" width="512" height="512" /></tileset><layer id="1" name="Main" width="13" height="9"><data>
  <tile />
  <tile />
  <tile />
  <tile />
  <tile />
  <tile />
  <tile />
  <tile />
  <tile />
  <tile />
  <tile />
  <tile />
  <tile />
  <tile />
  <tile />
  <tile />
  <tile />
  <tile />
  <tile />
  <tile />
  <tile />
  <tile />
  <tile gid="396" />
  <tile />
  <tile />
  <tile />
  <tile />
  <tile />
  <tile />
  <tile />
  <tile />
  <tile gid="145" />
  <tile gid="264" />
  <tile gid="275" />
  <tile gid="146" />
  <tile gid="317" />
  <tile gid="210" />
  <tile />
  <tile />
  <tile />
  <tile />
  <tile />
  <tile gid="203" />
  <tile gid="263" />
  <tile gid="317" />
  <tile gid="317" />
  <tile gid="317" />
  <tile gid="317" />
  <tile gid="298" />
  <tile />
  <tile />
  <tile />
  <tile />
  <tile />
  <tile />
  <tile gid="237" />
  <tile gid="317" />
  <tile />
  <tile />
  <tile gid="317" />
  <tile gid="317" />
  <tile gid="238" />
  <tile />
  <tile gid="396" />
  <tile />
  <tile />
  <tile />
  <tile gid="264" />
  <tile gid="275" />
  <tile gid="317" />
  <tile />
  <tile />
  <tile />
  <tile />
  <tile gid="276" />
  <tile gid="204" />
  <tile gid="231" />
  <tile gid="146" />
  <tile />
  <tile gid="317" />
  <tile gid="317" />
  <tile gid="317" />
  <tile gid="317" />
  <tile />
  <tile />
  <tile />
  <tile />
  <tile gid="317" />
  <tile gid="266" />
  <tile />
  <tile gid="239" />
  <tile />
  <tile gid="317" />
  <tile gid="317" />
  <tile />
  <tile />
  <tile />
  <tile />
  <tile />
  <tile gid="317" />
  <tile gid="317" />
  <tile gid="317" />
  <tile gid="206" />
  <tile />
  <tile />
  <tile gid="317" />
  <tile gid="317" />
  <tile />
  <tile />
  <tile />
  <tile />
  <tile />
  <tile />
  <tile />
  <tile gid="317" />
  <tile gid="266" />
  <tile />
  </data></layer></map>