<?xml version='1.0' encoding='utf-8'?>
<map version="1.5" tiledversion="1.7.2" orientation="orthogonal" renderorder="right-down" width="10" height="6" tilewidth="16" tileheight="16" infinite="0" nextlayerid="2" nextobjectid="1"><tileset firstgid="1" name="Fields" tilewidth="16" tileheight="16" tilecount="1024" columns="32"><image source="../../../../Tilesets/Fields.png" width="512" height="512" /></tileset><layer id="1" name="Main" width="10" height="6"><data>
  <tile />
  <tile />
  <tile />
  <tile />
  <tile />
  <tile />
  <tile />
  <tile />
  <tile />
  <tile />
  <tile />
  <tile />
  <tile />
  <tile gid="396" />
  <tile />
  <tile />
  <tile />
  <tile />
  <tile />
  <tile />
  <tile />
  <tile />
  <tile gid="209" />
  <tile gid="177" />
  <tile />
  <tile />
  <tile />
  <tile />
  <tile />
  <tile />
  <tile />
  <tile />
  <tile />
  <tile gid="145" />
  <tile gid="210" />
  <tile />
  <tile gid="199" />
  <tile gid="276" />
  <tile gid="331" />
  <tile />
  <tile />
  <tile gid="209" />
  <tile gid="146" />
  <tile gid="178" />
  <tile gid="264" />
  <tile gid="325" />
  <tile gid="178" />
  <tile gid="934" />
  <tile gid="238" />
  <tile />
  <tile />
  <tile />
  <tile gid="239" />
  <tile />
  <tile gid="361" />
  <tile gid="236" />
  <tile />
  <tile gid="145" />
  <tile gid="210" />
  <tile />
  </data></layer></map>