<?xml version='1.0' encoding='utf-8'?>
<map version="1.5" tiledversion="1.7.2" orientation="orthogonal" renderorder="right-down" width="9" height="10" tilewidth="16" tileheight="16" infinite="0" nextlayerid="2" nextobjectid="1"><tileset firstgid="1" name="Fields" tilewidth="16" tileheight="16" tilecount="1024" columns="32"><image source="../../../../Tilesets/Fields.png" width="512" height="512" /></tileset><layer id="1" name="Main" width="9" height="10"><data>
  <tile gid="231" />
  <tile gid="391" />
  <tile gid="3" />
  <tile />
  <tile />
  <tile />
  <tile />
  <tile />
  <tile />
  <tile />
  <tile />
  <tile gid="3" />
  <tile gid="209" />
  <tile gid="200" />
  <tile />
  <tile />
  <tile />
  <tile />
  <tile />
  <tile />
  <tile />
  <tile />
  <tile gid="367" />
  <tile gid="368" />
  <tile />
  <tile />
  <tile />
  <tile />
  <tile />
  <tile />
  <tile gid="333" />
  <tile gid="334" />
  <tile />
  <tile />
  <tile />
  <tile />
  <tile />
  <tile />
  <tile gid="207" />
  <tile />
  <tile gid="145" />
  <tile gid="206" />
  <tile />
  <tile />
  <tile />
  <tile />
  <tile />
  <tile gid="317" />
  <tile gid="210" />
  <tile gid="361" />
  <tile gid="326" />
  <tile gid="263" />
  <tile gid="298" />
  <tile />
  <tile />
  <tile gid="317" />
  <tile gid="177" />
  <tile />
  <tile />
  <tile gid="265" />
  <tile gid="870" />
  <tile gid="238" />
  <tile />
  <tile />
  <tile gid="317" />
  <tile />
  <tile />
  <tile gid="396" />
  <tile gid="145" />
  <tile gid="232" />
  <tile />
  <tile />
  <tile gid="317" />
  <tile />
  <tile />
  <tile gid="209" />
  <tile gid="178" />
  <tile gid="232" />
  <tile />
  <tile />
  <tile />
  <tile gid="317" />
  <tile gid="276" />
  <tile gid="204" />
  <tile />
  <tile />
  <tile />
  <tile />
  <tile />
  <tile />
  </data></layer></map>