<?xml version='1.0' encoding='utf-8'?>
<map version="1.5" tiledversion="1.7.2" orientation="orthogonal" renderorder="right-down" width="10" height="10" tilewidth="16" tileheight="16" infinite="0" nextlayerid="2" nextobjectid="1"><tileset firstgid="1" name="Fields" tilewidth="16" tileheight="16" tilecount="1024" columns="32"><image source="../../../../Tilesets/Fields.png" width="512" height="512" /></tileset><layer id="1" name="Main" width="10" height="10"><data>
  <tile />
  <tile />
  <tile />
  <tile />
  <tile />
  <tile />
  <tile />
  <tile />
  <tile />
  <tile />
  <tile />
  <tile gid="207" />
  <tile />
  <tile />
  <tile gid="203" />
  <tile gid="204" />
  <tile />
  <tile />
  <tile />
  <tile />
  <tile />
  <tile gid="329" />
  <tile gid="270" />
  <tile />
  <tile gid="265" />
  <tile gid="238" />
  <tile />
  <tile />
  <tile />
  <tile />
  <tile />
  <tile gid="235" />
  <tile gid="233" />
  <tile gid="146" />
  <tile gid="232" />
  <tile />
  <tile />
  <tile />
  <tile />
  <tile />
  <tile />
  <tile />
  <tile gid="235" />
  <tile gid="307" />
  <tile gid="276" />
  <tile gid="263" />
  <tile gid="200" />
  <tile />
  <tile />
  <tile />
  <tile />
  <tile />
  <tile />
  <tile gid="205" />
  <tile gid="402" />
  <tile gid="296" />
  <tile gid="307" />
  <tile gid="146" />
  <tile gid="210" />
  <tile />
  <tile />
  <tile />
  <tile />
  <tile gid="265" />
  <tile gid="272" />
  <tile />
  <tile />
  <tile gid="239" />
  <tile />
  <tile />
  <tile />
  <tile />
  <tile />
  <tile gid="145" />
  <tile gid="178" />
  <tile gid="210" />
  <tile />
  <tile />
  <tile />
  <tile />
  <tile />
  <tile />
  <tile />
  <tile gid="239" />
  <tile />
  <tile />
  <tile />
  <tile />
  <tile />
  <tile />
  <tile />
  <tile />
  <tile />
  <tile />
  <tile />
  <tile />
  <tile />
  <tile />
  <tile />
  <tile />
  </data></layer></map>