<?xml version='1.0' encoding='utf-8'?>
<map version="1.5" tiledversion="1.7.2" orientation="orthogonal" renderorder="right-down" width="13" height="10" tilewidth="16" tileheight="16" infinite="0" nextlayerid="2" nextobjectid="1"><tileset firstgid="1" name="Fields" tilewidth="16" tileheight="16" tilecount="1024" columns="32"><image source="../../../../Tilesets/Fields.png" width="512" height="512" /></tileset><layer id="1" name="Main" width="13" height="10"><data>
  <tile />
  <tile />
  <tile />
  <tile />
  <tile />
  <tile />
  <tile />
  <tile />
  <tile />
  <tile />
  <tile />
  <tile gid="239" />
  <tile />
  <tile />
  <tile />
  <tile />
  <tile />
  <tile gid="207" />
  <tile />
  <tile />
  <tile />
  <tile />
  <tile />
  <tile />
  <tile />
  <tile />
  <tile />
  <tile />
  <tile />
  <tile />
  <tile gid="145" />
  <tile gid="210" />
  <tile />
  <tile />
  <tile />
  <tile />
  <tile gid="396" />
  <tile />
  <tile />
  <tile />
  <tile />
  <tile />
  <tile gid="209" />
  <tile gid="177" />
  <tile />
  <tile />
  <tile />
  <tile />
  <tile gid="205" />
  <tile gid="934" />
  <tile gid="210" />
  <tile />
  <tile />
  <tile />
  <tile gid="269" />
  <tile gid="275" />
  <tile gid="178" />
  <tile gid="200" />
  <tile />
  <tile gid="396" />
  <tile />
  <tile gid="265" />
  <tile gid="298" />
  <tile />
  <tile />
  <tile />
  <tile gid="209" />
  <tile gid="934" />
  <tile gid="298" />
  <tile />
  <tile gid="329" />
  <tile gid="325" />
  <tile gid="178" />
  <tile gid="146" />
  <tile gid="308" />
  <tile gid="236" />
  <tile />
  <tile />
  <tile />
  <tile />
  <tile gid="360" />
  <tile gid="236" />
  <tile />
  <tile gid="235" />
  <tile gid="236" />
  <tile />
  <tile gid="297" />
  <tile gid="206" />
  <tile />
  <tile />
  <tile />
  <tile />
  <tile />
  <tile />
  <tile />
  <tile />
  <tile />
  <tile />
  <tile />
  <tile gid="237" />
  <tile gid="266" />
  <tile />
  <tile />
  <tile />
  <tile />
  <tile />
  <tile />
  <tile />
  <tile />
  <tile />
  <tile />
  <tile />
  <tile />
  <tile gid="363" />
  <tile />
  <tile />
  <tile />
  <tile />
  <tile />
  <tile />
  <tile />
  <tile />
  <tile />
  <tile />
  <tile />
  <tile />
  <tile />
  <tile />
  <tile />
  <tile />
  </data></layer></map>