<?xml version='1.0' encoding='utf-8'?>
<map version="1.5" tiledversion="1.7.2" orientation="orthogonal" renderorder="right-down" width="4" height="7" tilewidth="16" tileheight="16" infinite="0" nextlayerid="2" nextobjectid="1"><tileset firstgid="1" name="Fields" tilewidth="16" tileheight="16" tilecount="1024" columns="32"><image source="../../../../Tilesets/Fields.png" width="512" height="512" /></tileset><layer id="1" name="Main" width="4" height="7"><data>
  <tile />
  <tile />
  <tile gid="35" />
  <tile />
  <tile />
  <tile />
  <tile gid="396" />
  <tile />
  <tile />
  <tile />
  <tile gid="271" />
  <tile gid="206" />
  <tile />
  <tile gid="205" />
  <tile gid="402" />
  <tile gid="266" />
  <tile />
  <tile gid="235" />
  <tile gid="307" />
  <tile gid="402" />
  <tile />
  <tile />
  <tile />
  <tile gid="301" />
  <tile />
  <tile />
  <tile />
  <tile />
  </data></layer></map>