<?xml version='1.0' encoding='utf-8'?>
<map version="1.5" tiledversion="1.7.2" orientation="orthogonal" renderorder="right-down" width="9" height="6" tilewidth="16" tileheight="16" infinite="0" nextlayerid="2" nextobjectid="1"><tileset firstgid="1" name="Fields" tilewidth="16" tileheight="16" tilecount="1024" columns="32"><image source="../../../../Tilesets/Fields.png" width="512" height="512" /></tileset><layer id="1" name="Main" width="9" height="6"><data>
  <tile />
  <tile />
  <tile />
  <tile />
  <tile />
  <tile />
  <tile />
  <tile />
  <tile />
  <tile />
  <tile />
  <tile gid="199" />
  <tile />
  <tile />
  <tile />
  <tile />
  <tile />
  <tile />
  <tile />
  <tile gid="205" />
  <tile gid="317" />
  <tile />
  <tile />
  <tile gid="317" />
  <tile />
  <tile />
  <tile />
  <tile />
  <tile gid="235" />
  <tile gid="307" />
  <tile gid="317" />
  <tile gid="317" />
  <tile gid="317" />
  <tile gid="317" />
  <tile gid="232" />
  <tile />
  <tile />
  <tile />
  <tile />
  <tile gid="301" />
  <tile gid="307" />
  <tile gid="232" />
  <tile gid="239" />
  <tile />
  <tile />
  <tile />
  <tile />
  <tile />
  <tile />
  <tile />
  <tile />
  <tile />
  <tile />
  <tile />
  </data></layer></map>