<?xml version='1.0' encoding='utf-8'?>
<map version="1.5" tiledversion="1.7.2" orientation="orthogonal" renderorder="right-down" width="11" height="6" tilewidth="16" tileheight="16" infinite="0" nextlayerid="2" nextobjectid="1"><tileset firstgid="1" name="Fields" tilewidth="16" tileheight="16" tilecount="1024" columns="32"><image source="../../../../Tilesets/Fields.png" width="512" height="512" /></tileset><layer id="1" name="Main" width="11" height="6"><data>
  <tile />
  <tile />
  <tile />
  <tile />
  <tile />
  <tile />
  <tile />
  <tile />
  <tile />
  <tile gid="362" />
  <tile />
  <tile />
  <tile />
  <tile />
  <tile gid="396" />
  <tile />
  <tile gid="396" />
  <tile />
  <tile />
  <tile />
  <tile />
  <tile />
  <tile />
  <tile />
  <tile />
  <tile gid="231" />
  <tile gid="146" />
  <tile gid="402" />
  <tile gid="395" />
  <tile />
  <tile />
  <tile gid="207" />
  <tile />
  <tile />
  <tile gid="205" />
  <tile />
  <tile />
  <tile gid="402" />
  <tile gid="434" />
  <tile gid="178" />
  <tile gid="328" />
  <tile gid="325" />
  <tile gid="232" />
  <tile />
  <tile />
  <tile gid="265" />
  <tile gid="437" />
  <tile gid="438" />
  <tile gid="308" />
  <tile gid="302" />
  <tile />
  <tile gid="235" />
  <tile gid="327" />
  <tile />
  <tile />
  <tile />
  <tile gid="231" />
  <tile gid="178" />
  <tile gid="232" />
  <tile />
  <tile />
  <tile />
  <tile />
  <tile />
  <tile gid="396" />
  <tile />
  </data></layer></map>