<?xml version='1.0' encoding='utf-8'?>
<map version="1.5" tiledversion="1.7.2" orientation="orthogonal" renderorder="right-down" width="9" height="10" tilewidth="16" tileheight="16" infinite="0" nextlayerid="2" nextobjectid="1"><tileset firstgid="1" name="Fields" tilewidth="16" tileheight="16" tilecount="1024" columns="32"><image source="../../../../Tilesets/Fields.png" width="512" height="512" /></tileset><layer id="1" name="Main" width="9" height="10"><data>
  <tile />
  <tile />
  <tile />
  <tile />
  <tile />
  <tile />
  <tile />
  <tile />
  <tile />
  <tile />
  <tile />
  <tile gid="203" />
  <tile gid="270" />
  <tile />
  <tile />
  <tile gid="317" />
  <tile gid="317" />
  <tile />
  <tile />
  <tile />
  <tile gid="265" />
  <tile gid="402" />
  <tile gid="210" />
  <tile />
  <tile />
  <tile gid="317" />
  <tile gid="317" />
  <tile />
  <tile />
  <tile gid="317" />
  <tile gid="232" />
  <tile />
  <tile />
  <tile />
  <tile gid="231" />
  <tile gid="306" />
  <tile />
  <tile />
  <tile gid="317" />
  <tile />
  <tile />
  <tile />
  <tile />
  <tile />
  <tile />
  <tile />
  <tile />
  <tile gid="317" />
  <tile gid="437" />
  <tile />
  <tile />
  <tile gid="200" />
  <tile />
  <tile />
  <tile />
  <tile gid="317" />
  <tile gid="317" />
  <tile gid="178" />
  <tile gid="437" />
  <tile gid="438" />
  <tile gid="317" />
  <tile gid="206" />
  <tile />
  <tile />
  <tile gid="317" />
  <tile gid="298" />
  <tile />
  <tile gid="231" />
  <tile gid="317" />
  <tile gid="317" />
  <tile gid="266" />
  <tile />
  <tile gid="317" />
  <tile />
  <tile gid="238" />
  <tile />
  <tile />
  <tile gid="297" />
  <tile gid="317" />
  <tile />
  <tile />
  <tile />
  <tile gid="177" />
  <tile />
  <tile />
  <tile />
  <tile gid="265" />
  <tile />
  <tile />
  <tile />
  </data></layer></map>