<?xml version='1.0' encoding='utf-8'?>
<map version="1.5" tiledversion="1.7.2" orientation="orthogonal" renderorder="right-down" width="10" height="6" tilewidth="16" tileheight="16" infinite="0" nextlayerid="2" nextobjectid="1"><tileset firstgid="1" name="Fields" tilewidth="16" tileheight="16" tilecount="1024" columns="32"><image source="../../../../Tilesets/Fields.png" width="512" height="512" /></tileset><layer id="1" name="Main" width="10" height="6"><data>
  <tile gid="308" />
  <tile gid="295" />
  <tile gid="210" />
  <tile />
  <tile />
  <tile />
  <tile />
  <tile />
  <tile />
  <tile />
  <tile gid="763" />
  <tile />
  <tile />
  <tile />
  <tile gid="762" />
  <tile gid="757" />
  <tile gid="206" />
  <tile />
  <tile />
  <tile />
  <tile />
  <tile gid="794" />
  <tile gid="763" />
  <tile gid="209" />
  <tile gid="727" />
  <tile gid="725" />
  <tile gid="238" />
  <tile gid="730" />
  <tile gid="763" />
  <tile />
  <tile />
  <tile />
  <tile />
  <tile />
  <tile gid="231" />
  <tile gid="727" />
  <tile gid="732" />
  <tile gid="727" />
  <tile gid="294" />
  <tile />
  <tile />
  <tile />
  <tile />
  <tile />
  <tile />
  <tile gid="239" />
  <tile gid="301" />
  <tile gid="302" />
  <tile />
  <tile />
  <tile />
  <tile />
  <tile />
  <tile />
  <tile />
  <tile />
  <tile />
  <tile />
  <tile />
  <tile />
  </data></layer></map>