<?xml version='1.0' encoding='utf-8'?>
<map version="1.5" tiledversion="1.7.2" orientation="orthogonal" renderorder="right-down" width="5" height="5" tilewidth="16" tileheight="16" infinite="0" nextlayerid="2" nextobjectid="1"><tileset firstgid="1" name="Fields" tilewidth="16" tileheight="16" tilecount="1024" columns="32"><image source="../../../../Tilesets/Fields.png" width="512" height="512" /></tileset><layer id="1" name="Main" width="5" height="5"><data>
  <tile gid="725" />
  <tile gid="177" />
  <tile />
  <tile />
  <tile />
  <tile gid="727" />
  <tile gid="434" />
  <tile gid="200" />
  <tile />
  <tile />
  <tile gid="306" />
  <tile gid="308" />
  <tile gid="295" />
  <tile gid="210" />
  <tile />
  <tile gid="762" />
  <tile gid="763" />
  <tile />
  <tile />
  <tile />
  <tile />
  <tile />
  <tile gid="794" />
  <tile gid="763" />
  <tile gid="209" />
  </data></layer></map>