<?xml version='1.0' encoding='utf-8'?>
<map version="1.5" tiledversion="1.7.2" orientation="orthogonal" renderorder="right-down" width="4" height="6" tilewidth="16" tileheight="16" infinite="0" nextlayerid="2" nextobjectid="1"><tileset firstgid="1" name="Fields" tilewidth="16" tileheight="16" tilecount="1024" columns="32"><image source="../../../../Tilesets/Fields.png" width="512" height="512" /></tileset><layer id="1" name="Main" width="4" height="6"><data>
  <tile gid="402" />
  <tile gid="178" />
  <tile />
  <tile />
  <tile gid="232" />
  <tile />
  <tile gid="332" />
  <tile />
  <tile />
  <tile gid="275" />
  <tile gid="200" />
  <tile />
  <tile />
  <tile gid="231" />
  <tile gid="177" />
  <tile />
  <tile />
  <tile />
  <tile gid="239" />
  <tile />
  <tile />
  <tile />
  <tile />
  <tile />
  </data></layer></map>